pgsalome/predictR/output_NEW/signficant_features_results/pfs/pcaElbow15_mkm9d_ctv.csv
"mkm9d_ctv_original_shape_Flatness_250","mkm9d_ctv_original_shape_Sphericity_250","mkm9d_ctv_wavelet.LLH_firstorder_Median_250","mkm9d_ctv_wavelet.LLH_firstorder_Skewness_250","mkm9d_ctv_wavelet.HLL_glcm_MaximumProbability_250","mkm9d_ctv_wavelet.HLH_glcm_JointEnergy_250","mkm9d_ctv_wavelet.HHL_glcm_JointEnergy_250","mkm9d_ctv_wavelet.HHL_glszm_SmallAreaEmphasis_250","mkm9d_ctv_wavelet.HHH_glcm_ClusterTendency_250","mkm9d_ctv_wavelet.HHH_glcm_JointEnergy_250","mkm9d_ctv_wavelet.HHH_glszm_SmallAreaEmphasis_250","mkm9d_ctv_wavelet.LLL_glcm_Imc2_250","mkm9d_ctv_lbp.3D.m1_glcm_Autocorrelation_250","mkm9d_ctv_lbp.3D.m1_gldm_LargeDependenceLowGrayLevelEmphasis_250","mkm9d_ctv_lbp.3D.m2_firstorder_InterquartileRange_250","mkm9d_ctv_lbp.3D.m2_firstorder_Median_250","mkm9d_ctv_lbp.3D.m2_glcm_ClusterShade_250","mkm9d_ctv_lbp.3D.k_glcm_ClusterShade_250","mkm9d_ctv_logarithm_glcm_JointEnergy_250","sub"
1.30881026026862,0.800584781239504,-0.349175208387722,0.101471278401353,-0.993303836276455,-0.634265910617827,-0.662904921144286,0.31593041071991,-0.00618437112358314,-0.785833917456192,0.838423225731283,0.502464765909974,-0.639109341967176,0.901205794882666,-0.511066186804417,-1.31897493164932,0.538926394448709,-0.423648521304783,-0.486890064480063,1085983
0.207712242144571,0.603637414643192,0.292038835097068,-1.00747253830377,-1.03499951509598,-0.348377905685811,-0.688165695690335,0.0374636109180625,-0.504048313854731,0.258906525721155,-1.68056708079284,-1.08698609927873,0.0137473386322721,0.0247206344036172,0.64202274565762,-0.643859770545025,-0.275328399083266,-0.284868536977094,-0.202883165346438,1125173
-1.77978312813069,-0.472203251817337,-4.47638157143945,0.261250293514379,-0.565096905262779,-0.8794395177925,-0.580196876448258,0.260626762573746,0.246517665792893,-1.01978962058814,-1.44600994352875,0.777349991702228,-1.61430624341163,-0.889184166685695,-0.573985102971483,3.88000264935538,-2.91468798738398,3.01797536904517,-0.434878117003428,1154608
0.947046439148062,0.512255643198397,0.257274997015082,0.397645180361829,-0.574159350514835,-0.173231698232101,0.214735680736513,-0.0633267975086922,-0.541134238195265,0.661760654487295,-0.0960191749064484,0.681131280675928,-0.375976401735007,-0.540951606060006,-1.13188972600321,0.502186264152009,0.537806345392476,-0.253190691653201,-1.05224025266121,1181124
0.498026448452127,0.506177227649935,-1.48547660384591,0.466443042400479,-0.695067847240188,-0.77293106822371,-0.531060322764106,0.107642107080715,0.223906561521071,-0.696928179325167,-1.05813338105607,0.414401146108398,0.184963871703883,0.101229781227392,-0.0191287667225712,-0.0574574162375013,-0.600587016337023,-0.875550414709567,-0.287424076785228,1183075
-0.040555282256636,0.885648114442777,-1.37640291918712,0.369742621491184,0.250673912236852,-0.91335713334032,0.0699132300407257,0.410647087796926,-0.31095367525963,-0.474887334462028,-3.15933114950612,0.389965804686007,-0.668322489387365,0.414242972578229,-0.0238879282292808,-1.12292425344768,0.432574934387082,2.61976879548978,0.919080456546532,1232870
0.326442447809471,0.714335481417378,-0.435983697625564,-0.655255253734911,-0.451447314808054,-0.0687442368593484,-0.575755422505282,0.0732095500457086,-0.232149465131206,-0.48700050110014,-0.300350637899012,0.180582459472892,-0.590339473439149,0.404518869234713,-0.110043225767321,-1.51844999548044,0.721763292498837,-0.385364927400742,-0.230818072125611,1279943
-1.12719639939352,-1.48133400742435,-0.310007688763814,0.192804096226983,-0.490245344014673,-0.70148702557941,-0.58409161338041,0.904474966808518,0.606434568415771,-1.16422359624596,0.920037645684913,0.480807141498368,-0.805255144320248,1.05853977497092,0.705078728897945,0.0295576172305367,-0.905356650490172,0.850206230708686,-0.197022786701119,1329352
-1.34905215456648,-1.06866605295259,0.532582290526489,0.390690004778023,-0.225794951423423,0.0995999789144157,-0.133040226507371,-0.218218665636776,-0.643915045011771,1.43193896999613,-0.37055371983876,0.529766264907647,-0.196154448129527,-0.833965874859197,-0.798984263990449,1.76204262121915,-0.847703354019196,0.733038493156925,-0.667484670280021,1330263
-2.0016901349136,-0.180199441281054,-8.40621530870248,1.91956572568277,-0.153784176801047,-0.888400099967139,-0.588809546345866,1.11495597317138,0.0621571751636329,-0.96706670780499,-0.491265728824587,0.785064860156756,-3.51445461143025,-0.704958506580201,-0.945929764465728,2.1742948782328,-1.53580965641175,-1.16330761024315,-0.224149666312773,1364384
0.619699225547716,0.475938388643323,-0.0135025870755439,0.316893049535266,-0.857109712723607,-0.875245013426503,-0.513241791350616,0.431864526631694,0.157117684093533,-0.851179748420306,0.302975302070606,0.7669450077013,-0.475921715620281,-0.396236222519758,1.47130267555781,1.57638891352025,-1.35175849932737,3.37766059641509,-0.177121803052781,1386095
-1.23162889338185,-1.32559025059151,0.564513945826059,-0.475054973294431,-0.993426713158445,-0.036825876798861,-0.758574148281483,0.299448834182185,0.0332876247120555,-0.714021605243149,-0.231670655190306,-0.0847013032122877,0.36647027683265,-0.328731897103852,0.78828029145753,-0.329169545677266,-0.622207734559418,-0.731432303527148,-0.343001929218134,1458656
1.6065714486148,0.388489437145123,0.386724674614972,-1.47329252110022,1.26953154549608,2.15373215078446,-0.199804858978218,-0.679759664787999,-0.584495925586715,0.871930821531969,-0.256687452504411,-0.568884420825715,0.486168632269004,-0.357790837641509,0.272795716913598,0.460055587214301,-0.6420306207651,-0.493588863463383,0.110223415807793,1485662
0.282152634392141,0.473403687051222,0.653618087583915,0.551356372652647,0.102786027528365,-0.358588171411272,-0.0805952682606881,0.0316365046731031,-0.400616631548866,0.0491330172487729,0.307502724223599,0.562285650266798,0.49321206291142,-0.504053580687745,-0.918070515771247,1.33638598153067,-0.0814982094069444,-0.859739699153052,-0.823126027918773,1497807
0.642043114724185,-0.925144582582686,0.333852129708297,-1.64056924947874,0.276269529638862,1.73172795704427,-0.396265588733772,-0.287892128499851,-0.597953733014829,0.984195341186032,-2.26257881993628,0.443773710014696,-0.0177419248186565,0.100770750767381,-0.407924943740444,-0.785747605973582,-0.131372182459421,-0.419939130805909,0.173779543768222,1501387
-0.559060039216753,0.634975165692865,-4.26487194056457,1.16568996439,-0.829383407103784,-0.371883077240137,-0.757439434407587,-0.491129517477942,-0.313860831568439,-0.52507651819717,0.509008685305787,-0.346905314360027,-3.76984726187038,1.19177655006716,1.34523293428859,-1.88095721955145,1.21404383629603,-0.490873386346871,1.87960488815049,1518948
0.497182512383408,0.977405226754402,0.234615913818418,0.465620693920811,-0.868550436154963,-0.884182954098288,-0.564539652482562,1.10975709667891,0.559314453413413,-1.06302494876143,0.389982274788836,0.719912311013283,0.050658594847765,-0.0307117200172957,-0.494036451420616,0.139544121432957,-0.252102781658836,-0.782408479584164,-0.94127562633424,1526417
0.533346297044829,-0.546957377097786,-0.346768926893664,0.170882357840935,-0.37286382532562,-0.287557070250977,-0.787421642074076,0.749365246305673,0.724570781027495,-1.02331719036696,-0.662460684992044,0.319355645494983,-0.654024382105827,-0.111397073300195,0.419689447276517,-0.778844101208314,0.539076572562855,0.15682559075639,-0.581452160119734,1565177
-0.474379824368576,-0.116222276945842,-0.0600599600719103,-0.810050482458464,3.61539919636429,1.90119037252241,1.90368756654702,-1.03959213286019,-0.62848515766042,1.3892605245364,0.0299064894312532,0.0378878182945112,-0.992269301270548,-0.814907567576545,-0.46439593880166,1.19787199798554,0.107994825344553,-0.394371281121611,-0.64910387635944,1606693
-0.0118805872187325,1.02028395814209,0.514718750475781,-1.95165316163054,1.02686736940039,1.55436530635448,0.332279422688357,-1.24605218868841,-0.682675510194951,1.96651684733631,0.353092958265821,0.158105478383267,1.05583649185982,-0.540335244600346,-1.62947090402995,-1.12094724651676,0.976212682652974,-0.349251471324453,1.00813634814241,1612262
0.560164658066285,-0.393299153522492,0.222712560398666,-0.456504033181681,-0.11659447609253,0.204579433237283,-0.38265551258204,0.200667599690289,-0.251699897867054,-0.103798670330037,-0.229382482322132,0.563301917565359,0.335575445021089,-0.537486260988668,-0.221359250526024,0.350765914998243,0.433990135657773,-0.752516042412289,-0.604062703138921,1614566
-0.697454558639788,-0.282340675286234,0.75318456945858,0.127596946265845,0.401112447777385,0.706351401189107,1.77196928028102,-1.00609422487439,-0.672012208999106,1.71750666678889,1.78448102816893,-2.22687800999535,2.42552743940215,-0.827879336408592,-0.647022628539671,0.362395513462659,0.576661597706289,-1.02733575012935,3.64120178624812,1644034
-0.925870237246028,-0.0195010082018193,-0.783275197852808,-0.0371044993347605,-0.780759833200455,-0.406021464716783,-0.741138886547726,0.317057651415142,0.0731424798750701,-0.622971548113491,-0.819834440936799,-0.22728909505352,-1.54459154382288,0.572343838326901,1.3203905881434,-1.0577939263955,0.142794329060474,-1.06114142501566,-0.194980916415512,1668599
-0.330403089081099,0.142675247894299,-2.48697031329828,1.03828367187114,-1.10380151283421,-0.905178453793024,-0.879223968405112,1.16945235801921,0.60730332762997,-1.03274682407361,-0.882683576494436,0.722736809904176,-0.685306767624921,-0.0190946626743059,-0.660081841268085,-1.13071136730774,1.1900356306094,0.578378423526372,-0.720168371670948,1671370
1.71468162878226,0.786238958578971,1.39980079189206,0.582412259024611,-0.91345063721283,-0.966368589292445,-0.680763026404599,1.3793470012601,1.00187253484297,-1.32968363092654,0.474098093873922,0.571281384129496,1.795005533721,2.22747105063734,0.289555980546098,0.0344647190340442,-1.03598609577451,-1.14987329705864,-0.344942675153144,1684230
2.42442289358085,1.25092321043765,0.177412224316171,-0.0169422174806088,0.251496367249761,0.402767504983176,-0.164506247687756,-1.42516244362222,-0.655020031253079,1.49699785773401,1.31353919841894,-0.877615461852215,1.57114275159901,-0.39784223289343,0.0237796983285298,-0.356292648566472,-0.071852912648563,-0.913080081983197,1.00853857906422,1692385
-0.849335205294719,0.128706404202277,0.32762935122686,0.0436036586501799,0.162747651888593,0.213728294314153,0.0956916743783328,0.265437537026099,-0.456476615577994,0.632333588576252,0.549748758896041,0.322766732901437,-0.0453738192821815,-0.526373935530699,-0.224552583023253,0.201883457013733,0.0106734359831232,0.223441192840973,-0.467878680237959,1720713
1.47093682366307,-0.323814196669891,-0.0682165168102763,-0.229423161134153,0.00813216175745782,-0.52468183427388,0.970252098221956,0.149535423464083,-0.30012269636525,-0.0716489270096905,0.352817231279102,-1.11805968901371,0.126361087500114,-0.20858015712183,-0.222414078035097,-0.0520377736562303,-0.33738116659384,-0.511972040061171,0.875468248757921,1738800
-0.984289282577566,-1.37883503606345,-0.0479321068293718,0.0487530248445526,-0.735010501288853,-0.859042105254006,-0.302310015592627,0.968198589963712,0.684702437001174,-1.18987224773998,0.734400220897397,-0.949053854022486,-0.944362846892449,1.32364098024613,1.34837069340583,-0.491889984142911,-0.912807396804005,1.63500872916264,-0.0344998260989287,1740845
-0.0162214967025699,0.178409506132095,-0.284436996854651,0.552814874531303,-0.285013007143195,-0.916093956702908,-0.652693535436088,-0.0568343270156208,1.60062620341553,-1.34690225807723,0.0965362788710939,0.559815428937701,0.450196637253228,0.888475496963844,0.294145241565918,-0.559588206746569,-0.533366459657908,0.35628093791992,-0.0169825575656841,1742294
0.301188642516276,0.945749026133428,-1.75196761911805,0.452271371105816,-0.875575507459508,-0.755831873718294,-1.01012096787472,1.89821191989916,1.06748496022097,-1.27085294515558,0.288526237172591,0.632376794790723,-1.20298707014738,1.03512751879793,3.22503802334031,-0.0909263450122656,-0.340727222008343,-1.43486667943285,-0.662973006170504,1767700
0.0893497944395825,0.376382666873266,0.568545217012132,0.874795307733294,1.81849235785438,1.56484511214371,3.32478017558598,-0.372891064270547,-0.55253303524535,1.44361545259117,0.911410128711432,0.34027985182698,0.000948070077666504,-0.925627858512017,-1.03026175720247,1.07288770249426,0.79231263917664,-0.259814250536999,-1.00633668935885,1768972
0.0394145328552414,-0.13333557039739,0.344206272257084,-0.475069837822866,0.123602696833413,0.14869412962558,-0.593274986588458,-0.0308992600419615,-0.245532087473022,-0.31927347228365,-0.14213616138892,0.495945488699041,0.119455174393272,-0.623655233716239,-0.768064906016275,0.34718832128621,0.864176918634496,-0.338237356564963,-0.851501074254452,1889409
0.594829207078501,1.0409327015016,0.0676561250336065,1.53385099045309,0.538265839478474,0.572704333091588,2.52624259957836,-2.8985655866524,-0.678415654362093,2.00819991743583,1.08383129569824,-0.476327633504678,0.957080199696752,-0.137908509262142,-0.912972238862795,-0.573005161654705,0.372298309531899,0.492861873181894,0.872596477839943,1915938
-0.486494399234392,-0.19048197848281,0.445842691125964,-0.0049136259967907,-0.80198155391609,-0.73988250983848,-0.0470888853226599,0.434873896992851,-0.434399598544067,0.0596393035385953,0.214189967408666,-0.779691872879114,0.120627627199896,0.376403692831244,0.549672194761583,0.920705828797685,-1.52478244382352,0.0944619293668849,-0.281936203705933,1916742
1.27358243545127,1.67426794809303,0.149139024612485,0.0574429936058835,-0.0667124163135796,-0.284047473427435,2.12158888236737,-1.97480782955508,-0.687834719519149,2.00635275029381,-1.73985111615683,0.757705334912149,2.40526034403655,-0.52149213409462,-0.896048014310373,0.647753084019941,0.467997956683141,-0.823495132851002,-0.282432738235987,1919296
2.96017490846824,1.77199758818759,0.601833596872516,1.75691790503373,-0.250706624791966,2.32512812165864,-0.59870284365123,-1.30556714972443,-0.650630835423145,1.51188149602439,1.17085736043155,0.601353757848285,1.47871093165969,-0.473379333954174,1.81172224213848,0.696393632012695,-0.804822978534404,-0.867236792705832,0.679281492220884,1926770
-0.731952187154632,-1.00984643185798,0.298240136158634,-2.31447259155282,1.13842515610079,0.668027989532933,0.325115233659017,0.0810400433063461,-0.359220691934212,0.420334174772198,-0.277507344326497,0.466640448552142,-0.0191288102116571,-0.585315846684039,-0.471466754645416,0.152610720481204,1.06164187348377,1.17106108902236,-0.760067909165469,1938156
0.370953770244652,0.60683638016702,-0.342371729101135,0.63896500317931,0.844130249446118,-0.371172046660335,0.545726182345248,-0.0374709049342119,-0.377608973160726,-0.184748200948974,1.40476409904386,-0.21625755606356,-0.943206991375676,-0.328548272122249,0.128936155319733,0.387392696986606,-0.407438536591846,0.52602147030029,0.563539678266579,1938561
0.107728608831464,0.350597986340161,0.532449778898237,1.41936414136901,0.36157229449057,-0.282342645056835,0.296429120034701,-0.633896838904651,-0.461047961626867,0.121415169849864,-1.36269486488722,0.521629365366799,1.88071433457641,-0.624928529699066,-0.524685717204231,1.31609481411609,-0.800814355620509,0.16701501633262,-0.0535789174582924,1966316
0.0398414333604586,0.881056750879172,0.168054553002462,-0.617706818570402,1.39096409882214,1.64258915351202,-0.103544837443373,-0.301497226260858,-0.553683860477923,0.604107565820025,-0.917316004113789,-0.199054073739537,1.3707337435909,-0.926651785166398,-0.923922815551202,0.345003302791565,0.847331092253742,-1.02313914780769,1.15092351533975,1967281
0.894423515290486,1.12837274751485,1.46206788443712,3.49471453470328,1.20629834174037,3.48557927513204,0.422555703605036,-2.62806962887248,-0.70033657787766,2.21695556790695,-0.408623489181451,0.751728121849616,2.06915442312699,-1.02212545646298,0.250204264148824,2.24490547861514,-0.213489877104754,-1.41202697620728,0.0645512088563735,1973544
0.735253043721172,1.08947544760086,-0.286021868347286,-0.232998355493535,-0.824253567700443,-0.65122068660072,-0.533024610328709,-0.102999621568577,0.0724010129515954,-0.849592850215964,0.466270653939504,0.0862294797376531,-0.348704476354566,0.323038427072508,0.692262821711742,-1.36010026294633,0.664165493236607,0.0902099732841634,-0.102415069181042,1975401
0.991809379189976,1.14557382889176,0.446337482251637,-0.814427879546057,0.0892751483618034,0.222485303764952,-0.253823966118311,-0.37079837002191,-0.529986031440774,0.373339275401545,-1.8418609273015,-0.480536411276892,0.827657331204656,-0.194116696601394,0.809872295713228,0.570136993075589,-1.6687037668719,0.119265645333142,0.615703965516859,1976407
-0.643122020969219,0.215987316923123,-0.396249660398306,0.399715056885974,-0.0447218365567055,-0.152202827706739,-0.583484268562166,-0.118631526133353,-0.30982696904476,-0.562261558137319,-0.57807119327442,0.554156520776852,0.102088774716227,-1.04866054789681,-0.0929303705376082,0.243746516968502,0.598823767495171,-0.646081451990664,0.142078036921929,1978972
-0.4752551970598,-0.377702884982456,-0.176350868275525,1.53144712259152,-0.645964156958872,-0.775728892033622,0.0954768692429651,-0.576886010577526,-0.499024376504656,0.164148317450854,-1.64746591373729,0.706385801434253,0.541113396860163,-0.104299199929624,0.0666057709232187,0.785494723110195,-0.926744505134697,0.0521968781275342,0.047867662036283,1979045
-0.846939739064889,-2.37238523871722,0.436671427607348,1.84174146874435,2.6778838633116,0.78494803083423,9.01508007927558,-1.46071519232211,-0.711544700583953,2.32042635123096,0.872454673500165,-0.300594376355007,2.41022442094263,-0.936554341734,-0.844591406202272,1.69496105957999,0.144256417738466,-1.11613476539397,2.71831571909749,1979422
0.459911057257567,1.28562668755511,-1.44174006707052,0.986281258566877,0.907432896171212,-0.596582950085576,0.676488422299384,-0.865436414000644,-0.238242635684461,-0.527938477433786,-2.8635563142122,0.772218785198758,-0.4464105145489,-0.69879435246023,-0.898872262531784,1.2652741409876,-0.814944852358933,2.6051257908875,0.344180065732862,1980052
-2.05266178536875,-1.65053908012461,-0.58012311994752,0.396663732695772,-0.495883151323693,1.26763677486059,-0.771016922267102,-0.00110754349832594,-0.534015525894774,0.366959648723992,-1.87549618294218,0.00461418154241411,-0.842148065113438,-0.276856766584116,0.798637544836789,-1.12445094424197,0.902182337036987,0.466947509511507,-0.254858101081638,2001182
1.05662134191496,1.31116288507804,-0.118932404574583,-0.107493335792542,-1.00702228162685,-0.875593625853267,-0.997494226329267,3.4446024464921,1.7421147266957,-1.39389078676416,0.495003772513296,0.746824801163111,-0.735913498429336,1.94067383983047,3.18278932225355,-2.41947279581883,1.75946945128194,-1.43475716990711,-0.523461285338573,2002465
1.09256704739349,1.43447724533352,0.409809253865655,0.759485648358625,0.724342193236943,2.88541407180522,0.14106369619575,-4.78440540089588,-0.701317926092258,2.23381597818042,2.26174179040862,-0.0152935538654646,1.16927873348062,-0.439853365305303,0.667758647215345,0.142945084458139,-0.688664763881372,-1.12565663302669,0.0724094829592879,2004451
0.801086004382802,0.263753134748366,-0.484692864952253,0.449316994799122,0.202100448241341,-0.677690884874596,-0.0413614072048411,0.0660973842182298,-0.0127776248268344,-0.649030334748852,0.322153271194112,0.657220347358912,-0.645081413342658,-0.492136792237314,-0.278637229209778,0.0712870334561748,-0.806721605176101,-0.357412731658161,0.482247709187134,2006164
0.711180764637534,0.556901578804544,0.564383460369494,-0.2128738655467,-0.160279466284451,-0.134810433297931,-0.173580060568428,0.468718468053454,-0.304553780886317,-0.0728379366763451,1.06864401880833,0.256319971062221,0.570702856721044,-0.659404764142397,-0.799865668374189,0.436714010073575,0.270034076353503,-0.74695867456805,-0.678440187743575,2007309
-0.370166192252703,0.101926021741722,-0.416656451149033,-0.605054050562911,-0.59982283078669,0.219517468182166,0.820929102875692,-2.52497808782804,-0.710625397939342,2.34682781944884,0.445322676862475,-0.342369377883064,-0.282193705058891,0.0111207020611584,-1.04847632938985,-1.26718805148911,0.935175108219322,-0.107369241318778,0.182776907986253,2009915
-0.546574851551305,-0.148851763865249,0.546064436923817,-0.191909805557853,0.0186824243776631,0.114648689167331,-0.458009251235716,0.441636163063862,-0.166369650657629,-0.463503275845244,0.822633152835116,-3.36558690414031,0.475244616637992,0.753977293629427,0.440384507087083,-0.273550975541182,-0.656316111204673,0.693011979424659,0.523979290122334,2010259
-0.0301582773296114,-0.98746919432693,-0.0868799894425389,0.634339111986912,0.170861756131432,0.392858631489503,0.341541683178016,0.608110554531931,-0.56346248038562,1.01955752449186,-0.68620252814833,-0.190305863774532,-0.247737063240721,-0.312961829083,-0.281736133825534,0.76739992095197,-0.571329658360664,-0.398342840100866,-0.763418360382701,2010554
0.45537602821071,0.774311536698673,-0.870128262867737,0.0321939634643172,1.13718575933918,-0.00648826479420769,0.243402401198082,0.671355070057312,0.135687522572244,-0.846520531819588,0.672576051434268,0.429849289876157,-0.41937736585241,-0.728637503017068,-0.488414110779181,0.200959919612651,0.744953426032465,0.805295613428181,-0.593292675896512,2026671
-0.704459117444778,0.312454752460115,-0.467861051523955,0.230847690545137,-0.967505121964747,-0.596488571196635,-0.658568639999795,0.377176186319973,-0.0348802310800381,-0.731624800904419,0.295496759429166,-1.08631840270353,-0.526483717977441,1.71984364732487,0.96828171185774,-0.742581020657121,-0.0925034548310133,0.046936310454848,-0.379792733721947,2033049
-1.3885810501338,-3.32295354738466,0.108134172503892,-0.174139797660469,0.610220158278108,0.179107471793034,-0.243804648627214,-0.333574798645408,-0.333831576517117,-0.180748191757307,0.354276574961752,-0.864890663058907,0.262249162039218,-0.110169662196405,-0.00601484968909263,-0.502223670505945,0.0647681229550073,0.119704932295101,0.65183120372927,2034136
0.0496329850664404,0.771491465643578,-0.446406324777331,0.798703184451831,-0.73296072699121,-0.499975552921393,0.321277643385746,-0.433156609585623,-0.588681573976818,1.05895651823795,-1.17735416744449,0.769707938580569,0.28713363566028,-0.538058675695646,-1.76557824646529,-0.0296437502084673,0.954656817774,-1.06272982220712,-1.02178281217657,2040495
1.30914188154949,1.43051925599822,1.59734037422767,-1.31928936920616,-0.260563802382613,-0.227257436791828,-0.638219853716829,0.52973716043072,-0.26723864591347,-0.199592059226948,-2.05168094670012,0.778164856682213,0.90272777776472,-0.308043402644348,-0.789632675512639,0.143445000005807,0.39654642127482,2.79873735829415,-0.195439465902562,2047354
0.669340715509419,1.03896373084946,0.19618470498513,-0.150452821670788,-0.0927026381561309,-0.342128613938248,-0.294885044881426,-0.0149782277769004,-0.209998864900586,-0.352288889458957,-0.332178095991405,0.000497405293716815,-0.230065068322843,1.22637343684375,-0.187721519920562,-0.812822306509763,0.043199829565076,0.0112111912964221,0.571879995748815,2051378
-0.00997255810249589,0.706209407861966,0.522953922675556,0.601269349555377,0.706833723369635,-0.325470540607698,1.16782631256058,0.574065809914163,-0.328771902893874,-0.307090349530324,0.477721896984698,0.0930078445402279,1.43020667048763,-0.751026665224817,-1.03086360885312,0.738966583837046,1.19862389078632,-0.872237347191007,-0.379105989508341,2055667
-0.767867770303012,-0.0719052312615034,0.543093663998094,-0.254415452848843,0.830287613982268,1.7285055199857,0.772494916398603,-0.818181070211109,-0.654047320291832,1.71459368656184,0.923419318371335,-2.22733220512487,1.117925833555,-0.807495490454288,-0.55846732211383,0.332364390075414,1.23266531589985,-0.149030323489373,0.500405968311378,2057358
0.465841784391949,0.0738814084125931,0.26154535646008,0.312747129424844,0.117684315069899,-0.8744304475341,-0.122220789511729,0.780013174984624,0.521428823559116,-1.13387204798577,0.263074377640507,-0.583692388999846,-0.478791107299912,1.5277255838139,1.5172147986444,0.524089048232818,-2.67900888103764,1.47366380457688,0.33292674496535,2059713
-0.700606005189114,-0.0679039095274907,1.49944953633716,0.712281495398465,1.88217642138841,0.397198867657553,0.53622788188519,-0.725367287145359,-0.399873559158912,-0.0574305359053056,-1.3351635943495,0.764030497557964,0.259662989430168,-1.1045354099396,-2.06965346322139,0.543351350766134,2.0907511917879,-1.15669377972192,-0.532352077224781,2069079
0.633590800010516,-0.0274438072075461,0.287706474798485,-0.550349566069614,0.899632267111716,1.87853849280182,0.115351195277849,-1.40353659374334,-0.579107866614169,0.926125179493686,-0.390391109139993,0.0717888848968883,-0.433101956025502,-0.945286873626103,-0.558884705837396,-0.0357971180135328,1.15260672101808,-0.612058590395637,-0.0993032198694821,2070958
1.08137693007146,0.890793351987006,0.620947284853364,-0.194219885471461,-0.12908351853331,-0.347486199706361,-0.4071463123851,0.186977961883404,-0.0943012607835599,-0.742990200989193,0.67618384037812,-0.28588351920474,0.743750877325195,1.64458307290633,0.776031492251671,-0.649775798762024,-0.694343160819098,-0.433763793702265,0.307450661412196,2072215
0.575248728380928,0.665151223903227,0.654133140426446,0.22251468760216,1.8643642794031,1.73660178341209,1.68332564633187,-0.529323092426809,-0.596168938736831,1.09872130672368,-0.250080986398439,0.178462970423801,0.490973300574469,-1.06610604549491,-1.23370424426227,0.722645849960357,1.26291581533983,-1.05920175624515,-0.709569158973626,2075832
0.759183985126285,-0.0932008171733904,0.63451250428981,-0.402088727975659,0.0486522304342001,-0.500152453382519,-0.199600845477964,0.220244483834889,-0.335149942511175,-0.322420080038653,0.926574662561276,-0.0146802852202763,0.818257486059567,-0.097972411889658,-0.279219415711641,0.535888387350777,-0.849576152816061,-0.0837931743042491,0.123158312188351,2075846
0.893108743161243,0.896504223840925,0.0242125726839811,-0.610247789910676,-1.01190856639241,0.985181147837819,-0.954644590493921,0.386946354887986,-0.519000914764349,0.480492529841341,-0.459457631755939,0.336978100141033,-0.461449971391716,-0.247783633247016,2.29975568600529,-1.54895203217932,0.711718513132999,-1.45769334075882,-0.36451766176348,2076301
1.46149885957297,0.439658615959985,0.491938502212305,-3.30875823048867,0.887193794300206,1.13097735297639,0.746311925144628,-0.259810397768303,-0.486500084229821,0.684742218138967,-0.166615186940204,-0.089710071951043,0.206830601571438,-0.810181474826553,-0.832179195860534,0.31918648234427,1.14773852267137,-0.576933522546974,-0.923379172977765,2078198
-0.312467211877189,-0.100757177476267,0.333467157087994,-0.717621332674802,-1.28258844861151,-1.00641740447737,-0.986420720703294,2.09090590366044,6.64186345452002,-1.56586681964777,0.682459310244094,-0.893363857156523,-0.275561661614991,2.72358185217003,2.83013935444317,-1.33999610310528,-0.0600552401239317,-1.09526434460111,-0.72768001109899,2078899
-1.35168810148386,-0.146121344278983,-0.144595895146956,0.0123693890738286,-0.378353885188018,0.0531999548496575,-0.634375860995043,-0.126971290003626,-0.264674676348629,-0.31491388005266,-0.135307975601049,-1.1564656151118,-1.18726380591349,-0.4410138497742,0.931227537396773,0.052568774894727,-0.223121873395404,-0.805536196589326,-0.109874713747624,2085349
-0.369495072513078,0.00409704540080731,-0.486557753371865,0.635337949229592,-0.456267745473305,-0.554840604335403,-0.47587506624663,1.06746475515468,0.480894813388661,-0.727526222303141,0.37769884527681,0.449783920320114,-1.71086054345706,-0.253298402161555,-0.549332557054394,-0.143885148040645,0.392909555011701,0.988909975843287,-0.40822439236571,2086044
-0.845595799680662,-0.845249065427108,-0.290487550742794,1.64723829063574,0.276296659678781,-0.569679585663396,1.55833487867854,-0.513316315240518,-0.531477942698255,0.972843069938466,0.848797109025488,0.555797508056399,-0.851187084350394,-0.272942640764926,0.354030919040406,2.42255095178997,-2.901209678741,0.527152821213422,-0.418578471936606,2091555
-0.945528316117782,-1.06754934797776,-0.144368558683809,0.44341663231187,0.771020371048812,0.562829358008177,1.00737221157915,-1.00712529537936,-0.59279285742382,1.01697119003646,1.19262261780278,0.0542109868707442,-0.248852961688175,-0.936767261086217,0.0772777088290539,0.453067328080307,0.0952054761298866,-0.158599712818591,-0.330655410513889,2092954
0.383850016934045,0.72292536195948,-0.387900212115451,-0.450893424302937,-0.871375870382563,-0.702869786534986,-0.532271819114031,0.369512131576067,0.642186591762231,-1.10869084379346,0.69409642264494,0.331535645616782,-1.56334381542037,0.123043663598052,-0.459555315982913,-1.53910273021342,1.03563777505059,-0.288419450657109,-0.674022358854484,2096627
-1.0320455677541,-0.170147818820634,-0.808389190663991,-0.0827350516417897,-1.15269644514649,-1.01053222225819,-0.902641204339401,1.37971880906509,3.24961739837672,-1.48170715442315,0.35543168306732,0.672104780433722,-1.0739025816895,1.27619483677065,1.43000996352296,-1.87752933894349,0.994124589646142,-0.66909593199455,-0.616535953999808,2100050
1.04588840393468,0.702847542540175,0.153608354117028,-0.558614874095887,-0.615179374908252,1.02677766248764,-0.334240775404918,-0.341281668391646,-0.646621426675849,1.5501419528916,-1.02356729755691,-0.620873470838153,-0.450782590880498,-0.668280562525983,0.574703380555938,-0.678141362386873,0.898368214431105,-0.595775537662977,0.409900072260887,2108003
-0.754934081263597,0.239827962869455,0.533795562131947,0.247284997346203,-0.245455494609058,-0.166525491397124,0.136711221512373,0.221160696576627,-0.383627409328548,0.0616420157478632,0.412034713155093,0.421310557564333,-0.0545684418760016,-0.775553540932822,-0.713527988758311,0.627376058482353,0.3865853370624,-0.322393067240361,-0.791500128027858,2109902
-1.06443069370292,-1.3565633466005,-1.49341230787052,-0.0189152327621985,0.0343174215713355,-0.215184040809454,0.458012566932097,0.290309935559078,-0.483260413037743,0.526332713793314,-0.216747257584732,0.453676277031041,-1.89882429926271,-0.795138269039439,-0.343825340146336,0.160939607809738,1.12269265352827,3.27899768708579,-0.282905851815211,2110540
1.07800787040305,0.175551210225566,0.079155054584872,-1.85476472672588,-0.891474875002728,-0.780940026546157,-0.88499818114787,0.353718879653736,2.10582566806729,-1.46603092826541,-1.80232340866355,0.0910326735532941,-0.193412574251832,1.87321914911807,2.08667726286709,-1.25436646327916,-0.0943344674654197,-1.25284574733328,-0.109005665485153,2116787
0.0226626413624815,-1.37615775171733,0.606186624122294,-1.76105320039542,-0.161477864994682,-0.107984026478848,0.0993175767308633,-0.0235246606911836,-0.428972408433135,0.196485502966577,-0.712998286189243,0.70040214009293,1.12342789057088,-0.895779257794328,-0.946503590609045,0.406769325621632,1.30167695473059,-0.746789358380055,-0.876325581345498,2119177
-1.53263920344988,-0.950235778556766,0.286887901437421,0.275926007432322,-0.297349321630767,-0.597471276405551,-0.0996405746109957,0.985000313081219,0.14172152964794,-0.199620919969287,-0.836840905525321,0.758721023965406,-0.969012268573277,-0.936232471563382,-0.0406654096249213,1.52685173707832,-0.435417322467058,2.54154966713642,-1.03782806522989,2131601
1.07277202349444,0.668970493021259,-0.35816492692329,-0.196568993906303,-0.563701533750306,-0.528629443196513,-0.89755011262095,0.478458552254349,0.360042425935023,-1.07582189284132,-1.33943999991431,0.0657972640214766,-0.324375542139137,0.666870197584006,1.91906766339679,-1.25315504115298,0.429890761466409,-0.745895140703249,0.0221603848313039,2132424
0.521651761155441,0.0249734138988879,0.00876220311106384,-1.3955625424488,-0.676928758104135,0.483706304260253,-0.395241256110596,-1.0262046361473,-0.403219171203692,0.12659172272544,0.518145621839927,-1.16909314962019,-0.996208226125468,0.398950849545217,1.22451379155368,-1.63941509175301,0.524414363042881,-0.901430287704834,0.298572735856174,2132982
0.764589995163186,-0.376769889664138,-0.0982958459546865,-1.54784110268802,0.0377318538221828,0.0586527880275583,-0.293068560131174,-0.700971979246523,-0.330472027137685,-0.102175455894701,0.330186033441409,-2.23817620873314,-0.471034608632998,0.133636171134285,0.0196034214778763,-0.582013194704526,0.227261723808476,-0.13058926177863,0.528392020540818,2133204
1.69469968206303,0.91763197149809,-0.567478592925102,-0.355997316361151,-0.385150216280292,-0.879145766892941,-0.890923943737302,1.15264585848074,5.08054768003969,-1.55830975488428,-0.270429000994877,0.289731016588043,-0.706218216324332,3.5211907866627,2.90921068541872,-1.38368115584087,-0.208751123721948,-0.444677710019376,-0.299885964153861,2133380
0.65477298080012,-1.27810794088601,-0.126059666096562,-1.23563057812079,2.26857864152101,0.400673039158564,-0.874181146556784,0.67759725320937,3.31373956689077,-1.50595971284592,-0.731431731198669,0.315652894520886,-0.192986493223776,4.80703577723747,1.24889799326412,-1.23244356310955,-0.695415364963908,1.66858022913234,-0.259803659462915,2134220
2.01409762048296,0.609772241363312,0.844005689102984,0.644910757841979,0.931477800788766,-0.111523440215064,-0.0836240149876798,0.992339256847299,0.145339313065283,-0.497610036034271,0.573016666878718,0.703142446524943,0.018948398307799,-0.808923685465212,-0.847548295792996,1.02732500065666,-0.235488055895972,1.10842172871816,-1.02040071241285,2135748
-0.147476343487264,0.103042129153747,-1.85644351498742,0.449863996361246,-0.631607494957451,-0.791175363688118,-0.897348758813285,1.08184703757206,1.2270396216045,-1.29962894258307,-0.428132830353976,0.703002652373465,-1.51244157438159,1.36506720790978,2.04167201889981,-1.02611102530905,0.334233448621673,0.876434028991033,-0.417847866183595,2137799
0.976351292207183,0.554341104428546,0.185557434493097,0.360838971841876,0.703602924619112,0.280398935708571,1.23709410012233,0.189789308329441,-0.402257073391458,0.519253124839103,1.23020322247704,0.302838034121518,0.280035368410202,-0.894309824094969,-1.12065844841144,0.175539548894338,1.42815438610225,-0.505750263546839,-0.706512160889648,2138375
-0.391288769775571,-0.38924112255418,0.202939556151258,0.257335571087211,-0.441061131808315,-0.0320350760914736,-0.381004900181591,0.665001867462231,-0.0140134434617078,-0.206832204573037,0.383404025866976,0.239509827697208,-0.465612318479216,-0.588705887742783,-0.78941397215549,-0.0211088959527258,0.540014345610985,-0.280117927435667,-0.935242190642865,2138678
-1.47417591695438,-1.75386415761664,-0.40739482037323,0.261615595763242,-0.539424498369763,-0.304583482510633,-0.467164367777383,0.852788528155587,-0.14922994266055,-0.345937656356647,-0.0262813442785404,0.761395203832984,-0.0149514733389766,-0.228351149408031,-1.02405999801405,-0.0388231643857239,0.228990872212569,-0.838696175230006,-0.874847909870685,2139733
0.614912498130128,0.0395200036030996,-1.22601316244881,-0.112471510954476,-0.292684643263897,-0.581186065367358,-0.661306490889834,-0.0537569149253346,0.644481760536951,-1.2876190422789,0.385791491275364,-3.41116342768765,-1.93513702146469,1.80786338282742,1.13360219297057,-0.963361953977548,0.467844309264885,-0.43865672999091,1.46748690137647,2141116
-2.2421431286749,-0.904479958601092,0.00513170868444319,-0.560695793532468,-0.67527655909219,-0.927291731209702,-0.955215574754882,2.89722899053281,3.24354143709901,-1.5195516960048,-0.466471473337239,0.752198477625088,0.284880499161382,-0.205222740641883,0.46024515626323,-1.09302439408669,0.261525111595506,0.552206957235231,-0.225879880214861,2144796
-0.543460337564375,0.766276801611754,-1.36083786829679,0.194802160185207,-0.502668770561738,-0.343210582688863,-0.824349428659305,0.632289395954476,0.0390090657985752,-0.92572833473418,-0.475946528411993,0.746009420852847,-0.806948225327622,-0.21232099561612,0.452059796965795,-0.954518966242504,0.720251136967242,-0.973735531574064,-0.223061406088662,2145166
-1.4527331200106,-1.12881033540321,-0.341063227426444,0.190327472771767,0.402882284290992,-0.577370923271592,-0.586948346917616,0.467001105945917,1.321079946487,-1.34414438909427,-0.678825059732183,0.197744975492792,-0.666478079051572,2.10599269145279,0.37883766542472,0.412570115939661,-1.51466334177977,0.14144208007982,0.0573323161030295,2145694
-0.708144632398255,0.31578430629246,-0.265478108390599,-0.469222021258019,-1.17246465116033,-0.900979361559461,-0.751044765631108,0.938169658905214,0.395993062694555,-1.05031016222447,-0.898711407887898,0.361894434796534,0.0642138002933299,0.484544154195793,0.241284494678995,-1.08217925791092,0.126861830313594,-0.0632276948824277,-0.378115215107349,2146138
0.592912462857213,-0.0986997910146555,0.214101330734006,-0.736380306888357,0.671661696211882,-0.787697327585521,0.319187795745698,-0.0452172205468187,0.0631005249893319,-0.614054707542732,-0.41512290047203,-0.0670605250117171,-0.337760349291391,0.516003415102226,-0.101348662529738,-0.433333706900106,-0.394118305192086,0.735248873785627,0.466894737145043,2151024
-0.103644381954109,0.84051468172083,0.15831758234917,1.33723890581304,-0.502933291339012,-0.62599334984083,-0.0814146674496396,-0.277810838067151,-0.392691846093278,-0.217080480656379,0.0447445776919365,0.251394124111707,0.357914038122743,-0.386314521145448,-0.386153765991395,-0.0109937930209984,-0.412381320929019,-0.342983144736618,-0.0508198078485134,215131
1.77092468844852,1.5372801343341,0.660489646239145,0.910057471780801,-0.217635586475226,-0.388561242927198,-0.557784603264356,1.11426027588349,0.531469656340181,-0.66549804620306,-1.24387783228808,0.784447662515524,0.329895891028299,-0.718000374818519,-0.908583920185787,0.446090239333991,0.513141577021449,-0.859604848070135,-0.930398940607899,2152442
0.945409165828756,1.52500002885946,-0.475146354437426,-0.692934216114824,0.685333740052662,0.975677789677077,-0.212987976695018,-0.169482113126993,-0.551573397037314,0.31939671710751,-2.47505904226572,-6.81648598769149,1.95734981755176,-0.362106795312093,0.5840074526794,-0.402637552448158,-0.386192989991452,0.276371621672928,7.39223453332465,2157529
0.374312299638591,1.09778903225948,0.697571019495351,0.121645517638329,-0.610457933640946,-0.529387894780152,-0.611327829352561,-0.0396017021045818,-0.371408307832445,-0.312394235718576,0.532302661420011,0.685132398294839,-0.0134667656097334,-0.666272063896676,0.226177686265991,0.804480361850639,-0.342171210604197,-0.44744200011905,-0.350855334585238,2158101
-2.00968820925369,-2.63686345578586,-0.225359909011712,0.660351164155748,-0.864646613817983,0.278518357914927,-0.275022423308573,0.0161048097664764,-0.582096027338483,0.916587997378996,-0.275099280677942,-0.0701706964842265,0.174987732474776,-0.716011040160591,-0.637011018039976,-0.0518692755485741,0.731002333626259,-0.685970906491583,-1.0278961016773,2158329
0.492687994320989,1.25106629520799,-1.98278423475261,0.86329247963809,1.33070390512318,-0.331351273202592,0.638563346922863,-1.14862517308381,-0.47987322425779,0.0798385519065707,0.37717847485016,0.247267715659452,-3.88302532005394,0.298770590025063,0.0227122873284733,-0.000973796044578767,-0.699952393204461,1.51214847022836,1.73283632573955,2168082
-0.634524445731623,0.414995593760223,0.328894898061813,1.31295020504916,0.952925662126048,2.47614335989149,0.436060809042491,-1.62692893086735,-0.686752964385762,1.95528813748292,1.22742501138776,0.548892844044819,-0.515269130057339,-0.994079512517765,0.0262887829048424,0.199219505727444,0.475996967841979,-0.835122872438442,0.2286662845272,2172217
1.87111035434032,0.584356949161065,-0.0144500249558251,-0.589198810584236,0.718788240517221,0.0442929250426458,0.497326265064408,-0.201175441744768,-0.362406181417232,-0.159953356733573,0.80294318900326,0.577972077627701,-0.233875129354513,-0.821870802989227,-1.98930793771705,-0.997723744994745,1.50194011159045,0.431649464438777,-0.032466269888332,2176530
0.799763937243079,1.66244433980194,-0.0395502397995446,-0.011509733000292,0.0721802347043803,0.267127358736087,-0.272087629848797,-2.38516942979908,-0.590192622905836,1.34694038273522,-1.87325339850146,0.7670443935415,-1.34215392094191,0.51148191265614,0.124042726399126,1.35230806792713,-2.45493943064903,0.879957734436935,0.31194474548066,2176784
-0.298266395678243,0.644524427405027,-0.445981639191987,2.06875084677752,-0.075909367542357,-0.196155517077544,0.925104765961859,0.743464574626291,-0.26271839461457,0.585119284699536,-0.457968550136103,0.748980513119839,0.949431051460042,-0.865381946082049,-0.433287489567966,1.74483226710363,0.344752135062195,0.15017272505472,-0.52743593914977,2181724
-0.698628997910653,-0.365854840690294,-0.00213009063747244,0.130842200538155,-0.155558309452988,-0.326737464177107,0.147221120757855,-0.00942576070935289,-0.384627706653821,0.18955310056277,-0.0415516576733779,0.637949782417212,-0.630445022288984,-0.487399378039892,-0.360483207860609,0.90958101984348,0.526457639735502,0.84118137734536,-0.810274303738282,2183291
-1.46357959428963,-0.270742216557821,0.193578642962851,0.750478922530484,-0.963624473249347,-0.568827839542051,-0.19711110098167,0.306988514146555,-0.211974610754717,-0.355471622482779,0.00764862082702012,0.612143725455299,-0.747270272280096,-0.109758801683223,-0.078980391847279,1.48068160485902,-1.68024283482969,-0.370551215602508,-0.942658603677718,2183356
0.594777211961644,0.843883616902731,-0.453828191662425,1.30771085470564,0.706244368480888,1.30937291882755,0.433283919890292,-0.460701670698154,-0.593107308111168,1.10702869322107,-0.539513196606698,0.541207583188094,-0.773635790139714,-0.770596121578009,-0.248564182622116,0.950104709937352,0.42360077158473,-1.0650124093952,-0.295852815208159,2185290
0.700701207541361,0.531421742049124,-0.0995613927896387,0.541291883079441,-0.0202361383331346,0.103869400581557,0.759150458819017,0.604895204941745,-0.180718220881891,0.385391015279623,0.268234425012947,0.71073952345206,-0.0433595009139415,-0.868589735412546,-0.779383066286946,0.537445051245792,-0.0114654295429268,1.92467741412049,-0.761102123114947,2186951
-0.127209014057478,-1.2071542495553,0.310894794039482,-1.23576430023371,-0.570687223380573,-0.520200813226636,-0.497136356741017,0.0774515702331099,-0.334362709070328,-0.389411314382656,0.925023201271548,-1.45088785305334,0.434546806878481,0.0856597426088747,-0.515304679170951,-0.28803813194175,0.124004607647981,-0.337071636970871,-0.229956699647953,2196212
-1.31227964952173,-0.684435424573519,0.283321839270409,-1.91316525733128,0.272918441270536,0.406799990260715,0.874704592979169,0.460094449651568,-0.323951924167161,1.01316284681509,0.14106163428636,0.621888888975022,1.12146072986434,-0.979121895521972,-1.93989734644887,-0.0899380609577697,1.71364906396656,-0.49949480290897,-0.943629095334899,2199403
-2.39389663691186,-0.480256328340481,-1.14118789005703,0.163679700928103,-0.822708945396392,-1.00940961628948,-0.784324128061581,1.41195071981259,2.68207192514358,-1.41599538606994,0.401777044975272,0.648171176499995,-0.401148736679568,3.71211167249455,1.56793772675788,0.0445746630974721,-1.77092821300552,-1.64342839365423,-0.100916852850874,2200416
-0.696969473467385,0.0074058939244319,-0.383791946405318,0.648150895415323,-0.372576609568363,-0.786547783597182,0.199465232850156,0.249667332201535,-0.448580511967951,-0.0490081035856525,-0.390094567562022,0.273762506314116,0.156408845428105,-0.174339537651656,0.100607917239688,-0.635898914614654,0.573871780550197,-0.0752145490003347,0.42632912248448,2200813
0.0967393869274883,-0.0893525795629725,0.373620206619876,-0.48147382078709,0.260283012971527,-0.416086412062698,-0.427123821135399,0.687033541091362,0.334978672729711,-0.93353277639906,-0.384838103678228,0.204072149661774,0.416748306161914,-0.54831351709069,-0.200716428837234,0.288250853142447,-0.119346560918688,-0.757783107182192,-0.183986583896503,2205389
-0.327974359353684,0.00955740485531746,-0.237316753363969,0.149790211827811,-0.266783358896765,-0.806009427914876,-0.446362453625437,0.665165963336627,-0.00944062460404587,-0.808068978378624,-0.487394424345146,0.139350264681984,-0.0744467806874633,-0.0869458192340563,-0.178826807092611,-0.689451639092664,0.159775912148069,1.68457336976638,0.240527331551928,2212664
-0.819013213000494,0.753876603021779,0.135287304499666,-1.02960979875664,0.00270638404403841,-0.799893078199975,0.566939747322691,0.352019606369711,-0.208650177247074,-0.561844249636216,0.81933059376625,-5.73275433694001,1.08305661512469,0.716667241716768,0.250353801334927,-0.156644712212095,-0.85218569915669,1.274292065043,2.78670522421527,2217034
0.59600648082854,1.15168689707525,1.21001253195765,1.07995853543055,-0.307379993805781,0.173266785538857,-0.516895664735979,0.479737215787246,-0.470036854875968,0.420536928347516,0.208244466453611,0.773040895585233,1.6192602217566,-0.797333859383233,-0.754838103609719,0.249701234122444,1.06147254114855,-0.626453182579369,-0.79248865327966,2218615
-0.407642704940069,-0.162289294532762,-2.15372261425967,0.723726348050165,5.06329514614388,0.460631425686064,1.453026113109,-0.357340816528988,-0.591360473497868,0.961004815885235,-0.905237728218462,0.16326121713778,-0.548494920522047,-0.326985510477755,0.952033316807702,1.5395412807804,-1.64503948053046,0.479845323750733,0.0141834637814067,2219842
0.798378778614085,-0.751099515997896,0.400815077752379,0.376778996300124,0.592065821025438,0.326808070899888,1.55372769271829,-0.234748702116083,-0.59037254205881,1.26546168910312,0.207708294577769,0.43851387314037,0.937460420696929,-0.9601545774691,-1.25242393047239,0.856742363924293,1.69122521135499,-0.212378803339805,-1.02462482760377,2224150
0.93878230183111,1.14788882008765,0.42105855906523,-1.68918541371972,2.28276447636239,1.20774014310283,1.05263663316047,-0.357176338506333,-0.695608480386514,2.16354308121973,-1.55754245432032,-2.86255367068561,1.12451620602145,-0.358100567845444,-1.05990179235492,-0.546394928553134,0.180894694069994,1.55970140997744,5.92586636814278,2228399
1.32053877146635,1.40549303179218,0.463145386854042,-1.26526976448544,0.120846014692017,-0.352751526440583,0.509682116738623,0.361393090659833,-0.143930381006601,-0.101892598297705,-0.374630071068492,-3.45555097439764,1.10254022417895,-0.367052818535862,-1.23241017241583,-0.772002037743824,1.01823985480378,-0.324597915039323,1.29406495449093,2228400
0.397288091869932,0.650972906216635,0.642603413065556,-0.734326973264232,-1.30590643291061,-0.99486144184037,-0.981328449674026,2.19757571931567,4.54420389520864,-1.53130335604049,0.760821427827525,-0.248536811079486,-0.127409408406976,1.15334270622184,2.23761003091357,-1.61761119475144,0.393592732116443,1.07207323720376,-0.417999379372111,2234271
-1.24035367508968,-0.798891411349611,1.28966539326991,0.624374633697576,-1.25929192916477,-0.90832677306552,-0.918093393245659,1.97517984108607,1.7069436927011,-1.37512458693044,0.990887313648932,-0.160675991915121,0.445899693632699,0.561575140734262,0.870562474432306,-0.682632843191806,-0.289740135497312,-1.01756308317017,-0.590221418879713,2234422
0.135155869662634,-0.254481904310293,0.268530785964052,2.63579621789889,1.3698224859092,1.68470193546595,0.675336702434345,-2.74485355369743,-0.661090059523556,1.85423834268006,0.898579150745297,0.446552842844339,0.231573027262514,-0.460904086751495,0.468315961138062,1.22298179006272,-1.07303320207143,0.231256067318207,-0.293980560530616,2237571
-0.417084805223878,-1.08198434930286,0.247602863855736,0.330946973077139,-1.07393070604981,-0.282954107848338,-0.315728308766628,0.160729486110742,-0.468229060234065,0.251112225476026,-0.353211630556362,0.697542559869969,0.574683652563452,-0.836911267304401,-1.21617103807584,-0.251434516071519,1.20988655984031,-0.227462691947155,-0.976710624350259,2244172
1.07698051802676,1.19796011319553,0.233376707215381,-0.0407721624787251,-1.14821325684219,-1.05490944698466,0.128801958878477,1.35214181297894,0.367649171758698,-0.871316319985214,1.53982776479836,0.252051391924282,-1.0586072720419,0.700470742685552,2.04208522602077,-0.0706823785926494,-1.51294977277584,2.62370632181973,-0.303062459471754,2247869
0.00511366324624502,0.753928282790796,0.0526616440899948,0.776267016423139,-0.0557605589106418,0.448067217595726,-0.0538882349945045,-0.351081873542259,-0.624002428752865,1.32859468584946,-2.98206413985187,0.679744818106819,0.612324220266361,-0.43358718624853,-0.93705503490752,-0.0192334765683207,0.543705547166632,-0.601460439075118,-0.0941850655523547,2250648
0.650178251652974,0.52827338324136,0.474213957539243,1.42581667944603,-1.00087376829658,-0.718606208729206,-0.605096921525884,0.423176104546397,-0.135753944133934,-0.719170118547287,1.13268325172845,-0.668870412918101,0.212940175541186,1.05670256111278,1.46814545448606,0.902830285475934,-2.03445034755532,-0.625082710448594,-0.230700674344802,2250836
0.287502806860767,0.653821962674855,-0.823252375682362,0.145074938636728,-0.644782692731003,-0.589471790850704,-0.418202624201035,0.867099146164281,0.88430575696147,-1.0931802928586,0.130910216502907,0.288725138893761,-1.63239263369225,0.180297958786158,0.72390949561289,-0.483612905206554,-0.407141822653274,0.641737499297716,-0.137343671847168,2267382
0.713355439203871,0.457036873594675,0.277908718994619,-1.61483647351782,-0.652038296272396,-0.602527920159137,-0.508078092226282,1.72888974786089,1.79561700579148,-0.721515882892834,0.348315735040043,0.70983012219025,-0.623321329963029,-0.239681079971836,0.0593929242363321,0.712496613695486,-1.26071051135276,0.71166698100924,-1.09422670305371,2269346
-1.15816819171594,-1.0197467097641,0.0680637907767899,-0.385597535942357,-1.22862199926479,-0.970311535056065,-0.8885212993941,0.916018595264769,2.11564751214908,-1.42877166434026,-0.0735170083352952,0.449278016913224,0.46734132765339,0.279254585345162,0.64591500457308,-1.2883928128938,0.490049223189241,-0.938381688479398,-0.504383259066151,2271329
0.549404935136304,-0.29564728668704,0.100896687242206,-0.348564210315976,2.49141499316224,-0.0909419209110401,2.36579464560016,-0.67732258433762,-0.61829717559396,1.41462842858616,1.94218570496044,0.277472716257179,-0.353866377605298,-0.271695116787633,0.487396278881046,1.82309992078288,-2.1842390854309,1.79215000747284,0.326182872773137,2274521
1.18364654837574,0.609965181687357,0.698108765460763,-1.54382924116227,1.2272606322619,1.87290188041336,0.211153062625123,-1.52605120588444,-0.548735775238054,0.995422653332401,0.708084090148884,-0.936143451884126,1.29804082897588,-0.893035167640824,-0.723756614427059,0.548503036314003,0.61987738358014,0.0307245625704927,0.164202992703698,2276121
-2.68510695009715,-0.411414243780642,1.29897281552581,-0.44242257105679,-0.419532812638385,-0.515535192898904,0.446752199694239,0.270852232874287,-0.569011278027578,0.825990342795639,-1.70503264301317,0.783390000901724,-2.15487670255913,-0.956569761127159,-2.10281613199446,-0.0419715184907068,2.90448094698143,0.0959721265991531,-1.00399947015934,2278618
0.0627469826023023,0.43350941230006,0.278985831862792,0.763745637344003,-0.758371184435974,-0.701236124740806,-0.495024203005234,0.600358876137211,0.174494786283145,-0.985623194472033,0.975265384123172,0.522516855419564,0.073184549615459,-0.471722830565961,-0.259541825595232,0.410281502902569,-0.133814586045881,-0.182974052719016,-0.648049781973393,2285214
0.407260216489955,-2.22698463218435,-0.243624631056209,1.15030753773554,-0.647210217342799,-0.539575600194502,0.125599104769753,-0.639414368838841,-0.443421102757391,0.121669865976368,0.480202391111804,-0.36952428040555,-0.209188309867918,0.113087661691841,0.0971691202222673,0.0350972633905835,-0.582393425939355,-0.167269624909905,-0.200147120775438,2286108
-0.573307878100435,-1.4265319541212,-1.13108904514065,0.529849143744678,-0.677692367978791,-0.239672721328126,1.49515766038045,-0.235807695002839,-0.568306387512397,1.20935689592668,-0.640550537257283,0.0704912544659455,-0.384276256732951,-0.89391414286214,-1.19189807227642,-0.333809672180099,2.10029475515347,-0.00950487451128045,-0.957272226290466,2293123
-0.0842581847308578,0.440261437854265,0.137045211054268,0.45324259240114,0.734676525596048,2.7566465708681,0.0316502933524431,-1.35039774359994,-0.661058740104024,1.64582499195295,0.156901737133648,-0.471543311509146,0.0917075931827605,-0.313603056456587,-0.651845714531216,-0.723180726138016,0.259202739217742,0.916401308627575,0.108217946227105,2294852
-1.36244586984862,0.12093435656221,-0.133088050440273,-0.56578872559759,-0.405288885350648,1.01527329656243,-0.653979167100314,0.0656936043761516,-0.598135909568467,0.972101191605958,-0.656055613491015,-0.22517676393617,0.939265499765991,-0.667418071634608,1.36517556069573,-0.515112902850795,1.79781695762994,0.423871950105498,3.11092420383105,2294873
1.05151022927119,-2.22135663395886,0.414350309847875,0.365114234085929,3.60967170601742,3.00841621718105,2.67526577002274,-2.04412062015626,-0.675255732294248,1.8773410478844,0.523055813276162,0.325658578805599,0.604404412161042,-0.921272467831868,-1.71783349763496,-0.694404574049888,2.57360567181241,-0.072709023919048,-0.58873070535269,2296332
0.0246746007087301,-0.079036318844331,0.104408448008038,-0.609770265536227,0.0993157920574984,-0.609856366021874,-0.0273533040523322,-0.0784960624549351,-0.118912671023543,-0.649354993780329,0.0283109162182895,0.504056581307787,0.841927111618158,1.34550776141477,-0.573821153103511,-0.866561648720292,-0.103224796395771,0.433044017449264,0.369229361180846,2305114
0.802971843864825,1.05091411216456,0.627805876009805,1.10563400176544,-0.523290392269803,-0.529482252776752,-0.50521083916998,0.254390289038539,-0.137308296646188,-0.583512549595376,0.96374724060907,0.14744788969887,0.407814944070258,-0.519375733776063,-0.58696075872778,-0.125381110082558,0.267487949570884,0.243885015325032,-0.348443596292794,2305115
0.327230890570275,0.780059167883707,1.19453663262149,-0.561686917893309,-0.71193632198666,-0.677190948037353,-0.364663627606053,0.218736270106009,-0.196483857353847,-0.702925304804119,0.815345888685933,0.686812662881237,1.45662749091516,0.335875147159071,-0.393214835916412,-0.468923334301571,-0.791824555318712,-0.816983063415184,0.355770578054162,2306459
-0.634492278226385,-0.480856192651335,-0.164320271273905,-0.634723042355989,-1.01231895165256,-0.650856288664953,-0.812691045446175,-0.0873675974876297,-0.374085146305906,-0.234036830529192,-0.797976025074904,0.431525159013867,-0.621191994861431,-0.111294427805245,-0.122007441611756,-1.55028626193553,0.722663168245848,4.98319716102831,-0.0806676426514273,2306893
-0.0890738527163246,0.446623010153074,0.336214645893942,0.405502927277706,-0.143974513154996,-0.305308680151433,-0.418127782350531,-0.0472110883601142,-0.0102240087359788,-0.579365917629918,-0.123532276872967,-1.10495109029403,0.297994520865782,0.646339074774268,0.296815880290361,-0.628502887931647,-0.358208954637959,0.0738015232678644,-0.242824880580503,2317120
-1.61367010193134,-1.09832459520783,0.372504191255337,-0.862030023940525,0.130673458395922,0.557394926199326,0.0517221980820376,-1.16177055045491,-0.633233999560494,1.31349708376209,0.315610300535455,-1.63697438871838,-0.184542072425743,0.143026417118703,-0.0460257749538716,-0.0325169350220477,-0.137799474492058,-0.366436776645087,0.37835897790745,2319068
-0.198259213832942,0.285839916130023,0.304370521211198,-1.29320300287657,-1.08985377496737,-0.873410866711328,-0.503613920793064,0.426035194610042,0.243763070576523,-0.948057695049536,0.470109437289996,-0.528410646767543,-0.179557177273246,0.0359730770733888,0.0778925992334735,-1.01667451793169,0.14848793061149,-0.60706350562159,-0.347632732168528,2321962
-0.227412851533743,0.718292664013482,0.0974927188100576,1.56478809900296,-0.482508939296328,-0.363274007403911,-0.168419936610817,-0.0273857115584107,-0.125683979043339,-0.573103662690519,0.622205964613914,0.347728298838984,-1.10772332826937,0.900064544728359,0.848848523427699,-0.461927711697033,-0.61536792645572,0.37312588846039,0.00679577014151121,2331869
-0.100077158902714,1.22048304672132,0.592531847897334,2.08626580123475,2.73185258144061,0.88741516716742,0.612849569666872,-0.357670311835658,-0.552375133594829,0.726006081919647,-1.46380137122372,0.655421634169824,1.05942681433927,-0.365453415453066,0.887566342829775,1.61187130003645,-1.63530891239663,-1.06793358531453,0.393509065562086,2336735
-0.40199154776579,-1.04565316707185,0.472522509415935,-1.15706808820861,-0.648758441012405,-0.173733826652375,-0.500534823268308,0.00549576736426632,-0.378983315304414,-0.07479019421601,0.331424797194952,-0.0797955982357243,0.10396514319088,-0.597381193909307,-0.458096204599495,-0.176476732126969,0.546914335280377,-0.0987502364214263,-0.664428014285722,2339674
1.02923837883991,0.5362194506874,0.233591076179739,-0.533580298758147,1.26671087261798,0.0341301283706688,2.04273209907621,-0.467194203387791,-0.574867177775352,0.801919149506731,-1.38974270245419,-0.271666321768698,0.318341092840819,-0.702890946810246,-0.676091836782523,0.696044831691006,0.624669243523058,-0.557106264806926,-0.052529996062703,2340155
-0.446289312440536,-0.953100820757883,1.5631110402364,0.902066117205977,-0.712951246154719,-0.308516847900407,0.352257646267565,1.08201629048003,-0.157980120021753,0.523581865907362,0.412116759057486,0.645980092214069,0.0651628611307925,-0.876624186274233,-0.426496994422768,1.44482539556203,-0.5651919824653,-0.223823457136866,-1.09617382742075,2340322
-0.320626953867911,0.547292512454508,-0.166072504547787,-0.0266274995172882,-0.884094363163939,-0.963708661844429,-0.523377070054722,0.66647143593565,1.3841347249613,-1.31755278541198,0.412799887796636,-0.261794229930668,-1.17700083586452,4.19049470101939,1.54886032072331,-0.691418352675365,-0.630776175280492,-0.136539562170653,0.18772931844747,2350037
-1.23957667486284,-0.639631621344843,-0.0509940574809563,-0.969846290389548,-0.445441379988108,-0.540159093230178,-0.456735584645632,-0.239581249296273,-0.203803176788327,-0.717670545200689,1.11195723038898,0.228067600584127,-0.167619703766176,0.0824743574652296,-0.649784712085009,-0.920717255631352,0.368002662238412,0.0211206332647312,0.426465792151563,2352038
-0.866130722444108,0.979288889617039,0.489341355345443,-1.68930628060897,1.3067455264945,5.33302096926742,-0.502283580461626,-0.150181297534771,-0.598684636851184,0.909642602094718,-1.43909527946632,0.579594860506075,0.75514554182096,0.00250555358768525,-0.429004855727006,-1.68382861824747,1.15436782271218,-0.521758669254549,0.0582397042491165,2359944
0.921753575191422,0.0966623187546752,0.0844591668239654,-1.51848653808535,0.131722905340527,1.23770776496002,-0.22411087128223,-0.603351494892203,-0.560736375431957,0.652716364806235,0.92244700865577,0.240857382821616,-0.836294711014355,0.139240612329736,-0.3188787818068,-1.28952654156824,0.291480307036795,-0.136748527322285,0.371456888709986,2381907
-0.315626994903982,-0.187534078982892,1.24296051497482,-0.283271517453027,-0.342941174667437,0.255115275981982,0.480025177780966,-0.0591052563731036,-0.533209663286214,1.00942687323003,1.24300581125289,0.19219613129755,0.522797902302113,-0.939593303359901,-1.0904448488479,0.819981513642616,0.344740890232066,-0.0361906195222716,-0.777354157933084,2393207
1.2948323093773,-0.254123011948792,-0.204427934560025,-0.989611974654809,-0.383252556552701,-0.361056597033073,-0.323046379379993,0.0722461928150938,-0.338718652462145,-0.0703150567503762,0.0902378946971884,-0.0357457658254202,-0.603026449428131,-0.300907103318328,-0.311699303619894,-0.586049171017879,0.501421863018114,0.382209033351617,0.0476031487393372,2395415
-0.191962690336822,0.324034634419258,0.52828072803753,-1.15970618463412,-0.404727658690988,0.583030046925927,-0.173990564444972,-0.531338436289255,-0.627615948410269,1.25590927937986,-2.30326383427796,0.144218086328835,0.109330725060437,-0.207451607638974,-0.976329781162204,-0.664271561956635,0.0404659134706485,0.641874047192848,0.449817718788777,2395943
-0.493768673179932,-0.498761093663463,0.341117981373584,-0.0764357357055435,-0.385807612282582,-0.238122994931227,-0.280264422788774,-0.320407002811894,-0.405081953451531,-0.0531196301246693,0.785795231306277,0.144873293220834,-0.0587576452932189,0.231416813885799,-0.650046276295337,-0.454805971843031,-0.0864232118145548,-0.432060646006445,0.0787406913121366,2401405
-0.610571630414412,-1.0709332538312,0.622259028402752,-0.472350832962152,-0.803326696963411,-0.494253551017173,-0.454299666255744,-0.0217574123594391,-0.273428349540291,-0.515218698400502,0.709299704366811,-0.228800734843646,0.342335960102717,-0.446521252020803,0.0744732495620852,0.116450933260989,-0.398552586753726,-0.0972967008316162,-0.253477942368709,2405144
-0.472570163251261,-0.043687323184922,0.728419078177355,-0.886879958491059,0.0600254642691193,-0.173844923234985,-0.437328760564669,0.220562886614972,0.0601860602329142,-0.548103457449675,0.310615533821658,0.54878568197839,0.218965262288696,-0.304671522480017,-0.22204763613945,0.664513613272301,0.0521087096103637,0.428562230857734,-0.813455039758055,2414406
-0.193633598537647,1.10656246716797,0.002179171303892,-0.582238109741475,-0.866344668321136,-0.833439739933276,-0.0389625747921696,0.0288103117993737,-0.248423441508201,-0.45938816581183,1.37357444662815,-0.334840565214583,0.906868783714647,-0.232161885769147,-1.00770376639248,-0.726998440146445,0.636501790675755,-0.332402498193292,-0.06524028939017,2419459
0.805861587554845,0.0490230067787362,-0.143423146975214,-0.388938771540532,-0.891660917321257,-0.940061282522396,-0.580192460185263,0.616874607907478,0.798758482156635,-1.24849853650202,0.948428853170314,-0.10906962866611,-1.20789376611405,2.90853819604914,2.98078420706233,-0.0715993814576763,-1.62004127738447,-0.54174714831974,0.0546418365529052,2425694
-0.305473517949968,-0.317337405714035,0.254975697386034,-0.443198587695235,-0.0478134572727621,0.00177152040297213,0.0351243686554325,-0.515415017175152,-0.477054893475585,0.176073043591117,0.500974153785067,-0.522837081555878,-0.449056130316853,-0.0756538432302541,-0.478511994768087,-0.626526535228427,0.132580930790764,-0.0316612568995937,-0.0759399849415018,2426863
-0.806290978847373,-0.391502930105295,0.357858211841683,0.370679327422314,-0.593833960181189,-0.760993332250911,-0.709481253434917,0.586545847044057,0.516438507762166,-1.12021725771367,-0.106853851686462,0.258000097358757,0.844490546841819,0.559232753462214,0.733871897577218,0.211729781710777,-1.29025801395442,-0.861920010226596,0.489285112169622,2430773
0.257916986227222,1.33406672100001,0.175763731032603,-1.24746092627701,-0.644553973171637,-0.489194955424352,-0.752977750281312,-0.338989625173365,-0.20844444036536,-0.630623998312466,0.96571301765217,0.540308122667319,-0.0081786863736645,0.0297443135067187,0.237779178281339,-0.906799517487813,-0.188298019211906,0.623558013628268,0.469335208765514,2439458
-0.493013443093954,-1.91002038450637,-0.316489817221033,1.14488759179209,-0.830792702186719,-0.687066532251262,-0.48191243626076,-0.257114500063848,-0.256869649677923,-0.388273367538367,0.485586563571952,0.462197460853557,-0.562366693573034,0.187927850976901,-0.45244029913775,-0.514417838797336,0.494310825325311,0.553894916685231,0.0270547528789254,2443354
-0.0292097166592532,0.136483855434604,0.0259113150253578,1.38247042401964,-0.263177456017116,-0.12267802714071,0.110394911765904,0.0355830151099548,-0.492351389660547,0.511887110973655,0.236821464760368,-0.403083049347065,-0.435484227640233,-0.236501619821124,-0.207093565052304,-0.521193497669321,0.329236395485842,0.0503073251912589,0.433043883086642,2445526
0.705607110000562,-0.221639636804929,0.660026058157434,0.234838006670954,-0.261731323858835,-0.303339079005094,0.593238459707136,-0.100049204957379,-0.460145651070704,0.304110669361596,-0.0664610123336819,0.704610808449562,0.795076208024205,-0.828644686422572,-0.936933691839747,0.367357441091531,0.910301764834963,-0.845038961949696,-0.749052133960721,2448298
-1.07938515100957,-1.80472481596983,-0.0697580282288347,-0.67012557637086,-0.451368230929799,-0.715981587972987,-0.611800001792322,0.691063226258558,0.287701443774583,-1.0568291491516,0.434492805736143,0.29597278288814,0.11074036320831,1.75528357940381,1.13180345896316,0.186553188268434,-0.894802201236511,0.121728357593114,0.170173713876063,2453577
-0.673214662020841,-0.505280381616423,-0.654537111748972,-0.122307301099191,-0.598083635967567,-0.522872422251134,-0.498844169783491,-0.39318163807371,-0.102276641756701,-0.805181591325237,0.815571936822607,0.523874354019419,-0.115962408249047,-0.116592693863873,-0.593511624331349,-1.24767864374908,0.817037388659995,-0.509339214519046,0.430082625444242,2474709
1.21330940311375,-0.0968109581590088,0.29977354289045,-0.29301297922105,-1.0140923563186,-0.547344416639449,-0.46679686069029,0.306108274117585,-0.451874132841423,0.0216949235155742,-0.527817990536875,0.611581576183141,1.52714023610368,-0.598706231007765,-0.53697657313688,-0.886319095431717,0.334266729758272,-0.598904131081075,-0.301874247108076,2480056
0.577231526598128,-2.60011221054484,-0.019252862319851,-1.33761145928731,0.104134861040826,-0.478717854713906,-0.3612077921884,0.785734279010519,1.01816449064558,-1.01051270309905,0.0639414086188398,-0.353778640369205,-0.670653775382839,2.07822955283252,0.486011378477576,-0.976317794649752,-0.385193505235337,1.37355829397412,0.294423338941299,2480330
0.339406942868972,-0.481514413708625,0.342377044459141,2.01208078953596,0.803008434574828,0.0547737760079615,-0.0187883394615367,-0.010935814498759,-0.318554533622476,-0.191418459748741,-0.115621581455623,-0.553153294322924,-0.115525918959326,-0.549467908683756,-0.96096688041515,-0.813632934931548,1.39875988084511,0.454347373563212,0.366319109093008,2487135
1.25975340006199,0.466057872122139,-0.169615873591918,0.106525910473518,-0.610707205463191,-0.507829749432102,0.789197154383587,-0.0480923213435618,-0.547222987280737,0.75844904239648,0.430445450089643,-0.691046439728363,-0.137279899218762,-0.0901064571692908,-0.057717878837185,0.443044046133569,-0.0835111803514186,-0.197208826622686,1.26647999915558,2488660
1.37162472631182,-1.00490783003102,0.506695921068678,0.695886291348496,-0.254382385992477,-0.492925011662192,-0.671018905886928,0.893479341189525,0.48629723641827,-1.19632820335683,0.111791067497065,0.28131074184657,0.14714952720873,0.392432171209666,0.0426924485159948,-0.155766192544926,-0.194088462341692,-0.923527130590657,0.191040410914639,2490180
-2.05921764316387,-1.5443649474806,0.41081180361579,0.47775127862022,-0.404418966846043,-0.240760925131505,-0.342174030212991,-0.180009855287768,-0.538889740852919,0.423057547882448,-1.63465075442722,-0.597652920191864,0.0925669611828626,0.194380642478007,0.0148760593666625,0.0878854546052826,-0.383295980531174,-0.248191139392568,0.199638479383286,2493534
-1.25123197239437,-3.66706392350761,0.959634444399679,0.515592135513843,0.0014270186995804,-0.652428461199638,-0.312370313192353,0.489018391378637,-0.0749139389991618,-0.770527337530371,-0.729578318734756,0.74736396983073,-0.0152874154504414,-1.09288438494616,-1.27016097199836,0.113428800270033,1.18839214382641,-0.957104791431555,-0.11891373247426,2498991
-1.35966155567184,-1.50778876299653,0.276487967408535,-0.677774942150515,-1.1289630534456,-0.518985553956711,-0.138600880443097,0.172892117271617,-0.465719417370111,0.535536235352941,0.33657238119637,-0.135328025774474,-0.0106711534158109,-0.327628720924372,0.184054962448604,-0.62470900811812,-0.069080466752161,-0.335997689870583,-0.14913492925214,2500377
0.381846871349885,1.17621527723018,1.36515892934556,0.70294275372258,0.140232397268489,-0.179446229171089,-0.692530684278244,0.33758993365746,-0.215563645606811,-0.719321047439615,1.5207169321743,0.428807212370101,2.1271010341847,-0.349111187638582,-0.848055292239273,-0.486568349546622,-0.177554862443739,0.937205001933647,0.678936989123109,2504802
-3.29998836288584,-1.55040950594314,-0.144317904391664,-1.41242884552705,0.0993255559417876,-0.568332022557824,-0.406206446559449,0.230744732453546,0.0419194673625045,-0.862226490033451,1.12095950761561,0.112231644017488,0.0966675266470023,2.11292636985889,0.686899299027312,0.804592263202427,-1.58562164321737,1.6026641537898,0.0698257092232951,2510402
-0.328757323158754,-0.849672886781736,0.108465654191689,-0.656430152199732,-0.310746834824742,-0.491011577908934,-0.110542991508298,-0.372391079693772,-0.271200793339782,-0.0223728094433168,0.705398505577023,0.562850945743032,-0.510304412520895,-0.595955543927203,-0.386661899824112,1.37382902384002,-1.02227964437446,0.45287013311954,-0.620696110480463,2520618
-0.0282510620777345,-0.517338350083794,1.47547668341943,0.296333905649092,-0.407192940078598,0.177872607611502,0.325331393837063,0.0418457863699148,-0.499435383514323,0.614935182189086,0.135684523663479,0.218393009378626,0.943182240616323,-1.00772795463091,-1.3122411624324,0.924804277049115,0.654626460536498,-0.533348924565669,-0.880315472527431,2559453
1.6886100985038,1.5381102950631,0.77448287575106,0.575753373242255,1.6159505116889,0.538090231500734,0.20892858660334,-2.11894067767816,-0.539326269631507,0.607804295191122,-2.7007395561187,0.58860141746724,2.9246725150503,-0.985844590100696,-0.000585297203950609,1.66460099332142,-0.44246460609642,-0.205356555212016,1.39650035925572,277752
0.339699822312071,1.18982869674812,0.369262316558053,0.783045771039121,2.66880634124863,4.01579823854705,0.869458128311249,-3.17856807066193,-0.698322935949353,2.17610560543633,3.06783562325749,-0.174373450552508,0.590646639020619,-0.876915810059677,0.269042647046024,2.19890339675156,-1.58108424289442,-0.357559140321508,0.326647180879598,308862
-1.75689911835342,-1.52028450797122,0.109167520063651,-4.09931426243932,0.216891939046112,-0.0186209686185888,-0.00679309800665163,-0.31756074482289,-0.516727043116844,0.409601876016559,0.39378804026066,-0.170990784698531,0.0169390063929428,-0.121403931202568,0.160867911537823,1.90226385783708,-1.72657839937731,-0.48847310586824,-0.171888581583712,58325
0.861361670032316,-2.65887032986506,-0.895709896104003,-0.078687439895049,-1.04048112895098,-0.809611655780296,-0.572826790696909,0.737900631639631,0.244511712306096,-0.844352229317547,0.0300831866105003,-0.86521197880201,-0.885342780492219,0.681619374196164,1.0920569808508,-0.81810810838953,-0.231881765563346,-0.822169794653913,-0.347885450132154,92173
-0.314006893417326,-0.210098612982391,0.756717402409945,1.26173379072227,2.22480433218197,1.62135189432074,0.866224177850502,-2.0181175410711,-0.66540168156762,1.76411866093955,1.09213146872543,0.619028422115477,-0.509899493717154,-0.523997157188876,0.79275077106292,1.66717071094598,-1.72666470154355,0.400012563810038,-0.407459550270999,923666
-0.663874938532155,0.310692098662394,-0.0303562831580479,-0.699340297249726,-1.05196841330216,-0.626339628681659,-0.790091347168973,0.573370188471073,0.306417109019564,-0.974654882535845,-0.112665375051757,-0.0202919760964042,-0.0524298716403213,0.472469428983128,1.32787683220183,-1.37209918882164,0.522885796716202,0.176185982970379,-0.233308077387182,965005
1.00723802354498,0.952087123001404,0.565262818881132,0.472208927819143,1.16217326851944,-0.375434288147547,-0.297740375438222,-0.111527068219176,-0.0309337084160435,-0.912624895984698,1.61365432471788,0.587269672265851,1.99133912044161,-0.327719637090806,-0.363484499978515,3.1016908116656,-2.90041528389876,-0.631764247728521,0.807239940380544,983079
