pgsalome/predictR/output_NEW/signficant_features_results/pfs/pcaElbow15_mkm6d_gtv.csv
"mkm6d_gtv_original_shape_Elongation_250","mkm6d_gtv_original_shape_Flatness_250","mkm6d_gtv_original_glcm_ClusterShade_250","mkm6d_gtv_wavelet.HLH_firstorder_Skewness_250","mkm6d_gtv_wavelet.HLH_glcm_ClusterShade_250","mkm6d_gtv_wavelet.HHL_firstorder_Mean_250","mkm6d_gtv_wavelet.HHL_glcm_JointEnergy_250","mkm6d_gtv_wavelet.HHH_glcm_ClusterShade_250","mkm6d_gtv_wavelet.HHH_glcm_JointEnergy_250","mkm6d_gtv_wavelet.HHH_glszm_SizeZoneNonUniformityNormalized_250","mkm6d_gtv_lbp.3D.m1_firstorder_Skewness_250","mkm6d_gtv_lbp.3D.m1_glcm_ClusterShade_250","mkm6d_gtv_lbp.3D.m2_firstorder_Skewness_250","mkm6d_gtv_lbp.3D.m2_glcm_ClusterProminence_250","mkm6d_gtv_wavelet.LHL_firstorder_Median_249","mkm6d_gtv_wavelet.HHL_glszm_LargeAreaLowGrayLevelEmphasis_249","mkm6d_gtv_wavelet.LHL_firstorder_Mean_248","mkm6d_gtv_wavelet.LHL_glcm_JointEnergy_248","mkm6d_gtv_wavelet.LHH_firstorder_90Percentile_248","sub"
0.69847015605371,1.10620067850787,0.0317970753540201,-0.0312868934428022,-0.128655178074328,0.441882624550261,-0.817531584500421,0.163746158335647,-0.820019219992787,0.811032662820986,-0.0584453818166142,-0.603313209763951,0.667248068723246,0.390806236546679,-0.697013811563537,-0.202284487731466,-0.122341128748115,-0.652098660450361,-0.0342537014507247,1085983
0.962137579248856,0.796438141055738,0.104710199496727,0.0962034054699701,-0.094498581475244,0.413300734625627,-0.750801606796259,0.0922509342963006,0.0508248300713369,-0.728019577689232,0.149026864824492,-0.296467352295874,0.604926185876762,0.639546636366243,-0.270689295312366,-0.188030659172736,0.0169554440039422,-0.0307588945818365,-0.866214669615512,1125173
-0.8858295034978,-1.6700560069843,-1.96331710495497,0.533838011284996,1.79766146170991,-3.15907983679098,-0.692304591217181,-3.26628551690711,-1.15188526761866,-0.781950566386547,-1.36347476654282,-0.157546707305266,-2.7142273928104,0.364702245122619,0.574706149210387,-0.203166345425924,0.548722589445928,-0.673314611855089,2.72322025445705,1154608
0.623014364482949,0.822227092376877,-0.491776097762979,-0.4224956659386,-0.148554019745853,0.252550166197708,-0.0651839419252741,0.101650871757246,0.208992257172553,0.883521566009976,-1.72832359115976,-0.840154617669053,-1.48077970229958,-0.676997830391079,0.242181912157696,-0.0538073448025684,0.385103093086353,-0.567201508175927,-0.544166956520218,1181124
1.17941388477205,-0.241603380840388,0.0499831327723578,-0.335838393431669,-0.247040334507295,1.4948780519608,-0.522542028122362,-0.0740859867636989,-0.651301147040134,-0.95226331434297,0.445444394079616,0.621077184801511,-0.101251319295767,0.221730975860133,-0.671161597442209,-0.200408072916963,0.343705228175555,-0.581821332731007,0.289161425924308,1183075
-0.643321885140262,-0.347241854915511,0.0815572108286302,1.18891393654931,1.86279325505324,1.1861902022084,0.222849224678966,-0.29316649613026,-0.387010679635897,-1.06180564321563,-0.312018884665409,-0.909565746367084,0.232439096473029,-0.250331116777596,-0.428222366742399,-0.112276006861218,0.00224351404385006,-0.569930787693618,-0.407960888847694,1232870
0.753640874637782,0.738301545200129,0.364033536015061,0.0432076158903051,-0.114607373721233,0.320719138215179,-0.722300692038476,0.0362143174823555,-0.757190380970368,-0.272999294328616,0.10266990809253,-0.139793017571022,0.880645987529475,0.238341137049401,-0.981794584059213,-0.188719015993898,-0.409879514205823,-0.388351109223131,-0.0206107260222749,1279943
-1.48853422497875,-1.60397004644515,0.0809699465622331,-0.399910839033575,-0.185073084177428,-0.168771909791315,-0.604442489103188,0.0794134556364303,-1.09601492797248,0.194585040766768,0.233589020380385,0.475329146315016,-0.98458764142455,0.404355859387614,0.437879057491512,-0.202208080238655,0.841186418806329,-0.268475995838667,0.0452634981088215,1329352
-0.447657071602672,-1.37603671622577,0.0598220969630821,-0.188961580494436,-0.123124231276264,-0.0920137772282267,-0.251768776834648,0.0639367576794238,1.6045684789496,1.62025580789017,-0.0134976631493401,0.0346094699413591,-1.00569584248658,-1.25954995914001,-0.417634426404007,-0.190330783257427,-0.236613430152416,-0.622403127637381,-0.275884922365673,1330263
0.655066831636685,-0.578075999521888,0.0556127097601149,0.0755849534719575,-0.0653918054245037,1.17133907909019,2.41883243181957,0.52220787474015,-0.25390420919732,-1.87966784441568,-0.475384200708121,1.38628132363886,-0.806472002624879,-2.35687835951517,-0.275964482099427,-0.201816207367946,-0.0970291924475531,6.27166412170297,-1.67339488158243,1364384
0.363635750342831,-0.943475186393943,0.0896510234522895,0.100873354670192,-0.0440106199345699,0.746974770295075,-0.391177292165039,0.211294833351942,-0.785240559804628,1.50465760625196,1.66268757033322,2.73242097719045,-0.367712161355792,0.345645239332645,-0.21849713195872,-0.202065550614566,1.04826113620332,-0.151583628663015,0.275083314675014,1386095
-0.362001457343579,-0.982195069017342,0.332150014957772,-0.447676646438209,-0.165016436851795,0.035614813642743,-0.84130073491194,0.217781628996416,-0.791620886301915,0.389137727436995,0.691724939470648,0.555089783181567,0.430813391655387,0.638537935035253,0.150408282226732,-0.203243062391547,0.328531730918394,-0.23852592140273,-0.177054119605743,1458656
0.146635415210695,0.532727165187558,0.0476373785149987,-0.237171142493607,-0.123482130618254,0.261598573533497,-0.274050294787572,0.0424798979104815,0.956699123588169,-2.22676134011154,-0.224239050218965,-0.463872176108909,-0.218950073931672,0.0316407481358393,-0.0817002624044646,-0.0386478796514181,0.096708669254111,0.347223303533274,-0.92696817402929,1485662
-0.378308628064865,-0.213830036761333,0.310835464256939,-0.086390499369168,-0.119327725802357,0.49352630210738,0.103084751649244,0.0950225403469735,0.254090805063091,-0.363512088420274,-1.67457527406857,-0.482437388815478,-1.7163342205764,-1.05532314142806,1.35188284276469,-0.0836475968516406,1.14844938945193,-0.557912103790824,0.274823094719535,1497807
1.46732281128987,1.70581052643604,0.0625783674229731,0.0517038197154709,-0.122266020444692,0.0580344012584044,-0.460657904967538,0.129601931153517,0.726697604099221,-1.61451795357602,0.0218736065211991,-0.0554260531817757,0.596013585687734,0.0375248685755447,-0.299663894345405,-0.177504228937509,0.00416040146674944,0.634405757395471,-1.12766890358297,1501387
-2.11439199153579,-1.33821568673436,0.0461125921384199,-0.686322001160904,-0.161213595913973,-3.36867220657876,-0.533984699825061,0.115099367900906,-0.135665525490269,-0.997866046312322,-0.472831944919242,-2.93530354022426,0.603800173213965,0.0311741861100291,1.66130365402711,-0.202944256592483,1.60283638583878,-0.277467568101074,1.01039193160428,1518948
1.18685892917443,-0.349201686809449,0.360842418368288,0.135252221391539,-0.261489415283093,-0.0183275280015566,-0.607788769970313,0.958803742494942,-0.954082191175989,-0.274830640194606,0.398883953651262,0.246115963090354,-0.411837808434512,-1.15982499671302,1.29233911869095,-0.200752920294427,0.933804438470857,-0.422525539835087,0.447982408310525,1526417
0.353180363437608,1.23937153475419,-0.871884527241715,0.629898415105863,0.104484307238958,0.512273220601906,-0.829620942645544,-2.09221124412413,-0.988530491317258,0.120677570923909,0.59819195776739,0.371106469975843,0.518266102519475,0.562219085434257,-3.42552548640154,-0.203201275446971,-4.87161994398725,-0.907211590916555,2.12937065147422,1565177
0.44411516853019,-0.0479086016323747,0.222879869544933,0.0227804469765378,-0.121442867088121,0.310764421684206,1.74770388910572,0.112622283501687,1.37138969564332,0.0929084047708719,-0.0601037682450879,0.270099908571241,-0.736251515224576,-0.830470658276115,-0.375497365148838,2.14027065860264,-0.287237633721887,0.508599601628261,-0.754747160713096,1606693
-0.520238955852486,0.403256439431639,0.0741268594017618,-0.12092612002515,-0.125321944267665,0.101268285683691,0.0124346029035654,0.0944017108374333,1.61786590485048,0.778157209513543,0.704128074495398,0.46757349687399,1.32882509101753,-0.575716833597536,-0.364562828742346,0.0738555422783022,-0.196745195624656,1.52649091182542,-1.39162078258136,1612262
-0.310872187356838,0.430438044809545,0.153304219790953,-1.41091437006609,-0.167094559657796,-0.213484038011172,-0.224679514136284,0.293586743633932,0.280181081057794,-0.993839969599576,-1.31825905237592,-1.22542760559154,0.180741638734642,-0.477391664892928,2.07505160767266,-0.190622724852074,0.570950953618702,-0.769232919862171,0.523889752819222,1614566
-0.32339521099519,-0.715574095612324,0.0539417281174835,-0.156404112387287,-0.125138725251135,-0.0137234492349515,2.21177517189759,0.0919780666262681,1.88970332662728,2.0283413062527,0.560273619928338,0.370894205711254,-0.745766950620277,-0.0490061526184759,-0.186810323769123,1.09150131432572,0.448031880716843,5.98582853884515,-1.53104222419397,1644034
-1.01341278083625,-0.840884954206186,0.0284838341678282,0.0122673141713578,-0.110905254156252,0.237785660587205,-0.80008762738047,0.327320554086088,-0.674014926781344,-0.563181901370073,-0.00709544284045944,-0.630785927949798,0.601278622639332,1.07086400733336,-0.623822016351155,-0.202259305631701,-0.447305745396439,-0.209323631420085,-0.121978859666687,1668599
-1.33231230633857,-1.05973398640578,0.00744647044664235,0.00207270512529774,0.443758086739659,3.75858928603224,-0.750415545253042,-1.91353678555687,-1.08895417967525,0.132200632886521,-0.966636547776139,-1.6691209141434,1.06673586451547,-0.131539294653281,0.598059674918779,-0.203619560858558,0.541010783667401,-0.82160569793551,0.717922767093707,1671370
0.79617137603312,0.439891853901493,0.0810751165127374,0.0993391008913977,0.150481326148987,0.121060724686674,-0.652209582318856,0.867416141148455,-1.20847349485056,0.481803230053277,0.161881291430901,0.159751963669226,0.482902817784072,0.370140772113912,-0.194488824644415,-0.202379279475164,-0.0489670164558254,-0.709763112487519,1.56031596489992,1684230
1.21009201148683,2.13895556958249,0.0671700120917247,-0.237930915175415,-0.127040720071327,0.284345871146975,-0.110787220216794,0.0447011515876268,1.53795123865543,0.256895708212169,-0.391817699335173,-0.0579212551113244,0.541328218589654,-0.0798814678436613,0.410678955922323,-0.136016365972261,0.857939853400438,-0.733537759930669,0.339916360874498,1692385
-0.328802924185343,-0.59684527512536,0.280033120805117,1.09961005232323,-0.0184263931129647,-0.11588553845918,-0.0771012061880619,0.0851113998871479,0.232851385424566,0.839342880811757,-0.0156414169245115,0.0224860848440724,-0.83593380847573,-0.149299990028353,-0.449660601121057,-0.156874979743605,-0.564336752217407,0.0936618214240499,-0.846422019035753,1720713
1.13386657406349,2.27236949683126,-0.0650975682850651,0.0409381472283039,-0.0849077403887198,-0.334301855657869,0.567068113843775,0.0532023426745892,-0.162577790351542,0.403697507150171,0.162820729019314,0.120152875259835,-0.384976987501422,-0.0366954589987152,-0.966477872135953,0.0174745687623564,-0.821027343322985,0.0323912561715435,-0.648450245280493,1738800
-1.2927661108235,-1.04667599375971,0.16700239997117,-0.145425599594413,-0.140726689962728,0.0764549670347651,-0.364565250131646,-0.0661485019421801,-1.11105078699197,0.809051017064042,0.528027348838553,0.36909710050584,0.000835980891114502,1.12245837372366,-0.670020471021584,-0.116605833615821,-0.404820517497023,1.25812266704826,-0.695362099057515,1740845
-0.364968697797447,-0.38251068760625,0.06447826925666,-0.112300578942749,-0.11416586895923,0.841876253956804,-0.682017969297156,0.759079491110464,-1.19476794352964,-0.525847784408141,0.513476551226362,1.74300318112574,0.168356381688595,0.0329321616640731,-0.292340110786129,-0.202522898565264,0.104120602435493,-0.374575238834814,0.477313779239057,1742294
-0.278366282503119,0.308141245948789,-0.0430175516564334,0.0728465505071958,-0.0555233222401463,-1.01439642240294,-1.00788173258115,0.208068908847181,-1.14393893498475,0.594152195760401,1.2577023577607,2.01340271034281,0.518413021292666,2.74695250520429,-0.0103054419114563,-0.20379901753948,0.0656760414246334,-0.846662422144689,0.541403757205035,1767700
0.346343764089411,0.146638646983544,0.119300178415678,-0.232011915741722,-0.133680293471543,0.22843628159631,2.8711715724406,0.165758742240407,1.29590476146081,0.616227021296653,-0.434465837762025,-0.0776345036291778,0.00771145445514401,-0.906603723573693,0.420931019856335,0.245577724125529,0.288726282218063,-0.417985540811969,-0.374422713103335,1768972
0.344240716889966,0.00696185386081,-3.12005459722065,0.221413691246061,-0.104341427341079,-0.690653944981874,-0.727780514118489,-0.0948707848483856,-0.434354635679183,0.470389701897362,-0.291208971149665,-0.519333229591694,-0.0274931848593607,-0.435463129633277,0.214929995684446,-0.198551178012866,-0.247056419187026,-0.724176961380394,-0.0113570879778045,1889409
-0.577509722958234,0.442788700561938,0.0537017970804857,-0.197582731385435,-0.12350936479549,-0.880609283130058,3.44837244421726,0.0826362228682711,2.492152901032,1.60000850322915,0.0344431462072482,-0.898378213928571,-0.600729187079154,-0.231516833914434,1.67822530479775,0.613519754538127,0.867024602990429,0.00742449995122481,-0.950849294780214,1915938
-1.03786059356782,-0.985615695821922,0.117798467395396,0.309128222066776,0.0262458856614483,0.326885776221522,-0.0106221689194726,0.0403870206280632,0.225857064607739,-0.365735116848363,-0.582615709898933,-1.23118588833279,-1.66218739171627,0.313391404730547,-0.470330030422466,0.0622027790377445,-0.0722453878329375,0.533461856494369,-0.367449986886518,1916742
1.8427269248102,1.24703259868161,0.043462284574052,0.0515137483082181,-0.118042119646043,-0.232904577159881,3.87764773604183,0.0986547599541128,2.34453347156676,0.867540249177096,-4.29261030133656,-1.75711371392682,-2.53451763876019,-1.00326615806482,0.053545784386523,0.220269510582938,0.459978087407435,-0.374118309297561,0.286603763958417,1919296
0.771152517679206,1.73857332311571,0.0693736548427788,0.0393613088285832,-0.121758649335493,0.080876584911096,-0.435819502602325,0.121924353574301,1.10919053198864,-2.00373530670697,-0.402062271489083,-0.250760696474504,-0.134885856050665,0.431652085565419,0.157729448193704,-0.197913645512103,0.226341736699168,-0.627945778180884,0.0731510343365045,1926770
-0.834611120491842,-0.761800223154846,-0.825394247408766,2.93570165029491,-0.137521917790982,0.206255089269202,0.282257929242748,0.302325193210828,0.467350694843905,0.906528373324026,0.313607681322549,0.217896122696916,-0.111876698841996,-0.451984629269809,0.0696097086475893,-0.129659494551057,-0.309756747537365,-0.481082982322254,-0.0556923200121364,1938156
0.416692437082743,1.2562956144084,0.0695034050441892,-0.0453128979224285,-0.120872191400747,0.140839054974216,0.462540749096953,0.117548073520838,-0.224315090272949,0.12639992329998,0.0417375475111602,-0.12149840624697,-1.22967979908382,-0.313184605039696,-0.252879293161032,0.368408892172121,-0.126794990581176,0.775581205222416,-0.555386672740169,1938561
-0.382074986644887,-0.361338733660135,0.065908421368496,-0.000698928074665491,-0.125040373430578,0.517614004062529,0.317416384931466,0.177731834356273,-0.0500096980210833,-1.5141502590197,-1.47404441895836,0.0529557238442118,-2.84415471591623,-0.664395042620353,0.23882694506097,-0.122834447446308,0.397721748349242,0.0855968220884817,-0.226377576502067,1966316
-0.547924233463134,-0.335140774967176,0.0432035693687636,-0.158578112613328,-0.123344626524301,0.458514140622728,-0.157167451338664,0.0932753867226376,0.80111670642353,-1.38966367903255,-0.416231749559812,0.246297221555007,-0.531546892821665,-0.511713976582472,0.29664152409429,-0.132594628444327,0.570523996972878,0.904291490919741,-0.689346275160657,1967281
-1.15730347984324,-0.280617972851056,0.0747915313168764,-1.40803669619404,-0.12629532722311,-1.67663288091126,0.3268362008929,0.114062379237169,2.23519538994555,-2.72155419567799,2.34704642600324,1.86128200824938,0.0934663017150175,-0.890252685889478,-1.61755854770871,-0.16416389599479,-0.690775743234428,-0.605393736961705,1.1281973421214,1973544
-0.21703094704056,0.427454114694408,0.0593894899358387,0.124236469161859,-0.0922697134049074,-0.048507425153069,-0.612411689301189,-0.488135614058993,-0.753566479521704,1.44266347087723,-0.231542606153462,-0.771222365210871,1.03375887864979,0.708753853318271,0.602574053229255,-0.198466766019663,0.824862443090321,-0.400836842893937,0.396395717491646,1975401
1.03252010456709,0.509930861525611,0.0770410562647931,0.0797630663040635,-0.120577857335848,-0.0943481396911908,-0.473065981981319,0.100260534155075,0.230851559474155,-1.32698070349688,0.80198328247197,0.716027875636916,-0.496466901957103,0.856474533089453,-0.454328142140171,-0.174463534545672,-0.0940206659085807,0.433109889178044,-0.864231837674999,1976407
0.0351420845702384,-0.064073624996048,0.0688800495191261,-0.00100959716140005,-0.120036311273785,-0.320257927692902,-0.536172856871613,0.263389939604697,-0.624410972586677,-0.903079676951411,0.666774672415783,0.914778597549544,0.844066512592027,-1.21554360004903,-0.101132136253023,-0.201610097872951,-0.140874636398956,-0.411104143172612,1.08692968869157,1978972
-0.577341057944758,-0.345372093150059,0.0592988051081323,-0.142708187294674,-0.138665269918871,-1.17501295434594,-0.096948134253529,0.0633178221569867,-0.103433936543547,-0.81623245334751,-0.944498970809464,-1.6730816597749,-1.60338401106613,-0.299145896223855,-0.404139424488565,-0.154910463673529,-0.721104889017262,-0.31562664420472,0.146907204358165,1979045
0.0236697483678978,-0.378005160806538,0.0562316677009386,-0.52035799284073,-0.131469285314557,0.0505204096136898,6.95894699863186,0.0953787232814769,2.1870945431962,1.26632852082766,-0.0726706915389606,-0.29322545271191,-0.926601464638791,-1.2211684719749,0.520219996997249,12.9078069381273,0.514438133897677,5.16371545475577,-1.66496613170448,1979422
0.343070831821898,1.05766164775072,0.050487954608477,-0.199403580643673,-0.113753380152086,0.808794146686464,1.64947765865699,-0.273975347796502,-0.18111466354572,-1.92397765237686,-3.55363250127236,-1.28019431771982,-2.52407543352929,-1.59566751005619,6.52205059930852,-0.182729743811659,1.80903657544838,0.498472239560787,-2.53882815256422,1980052
-2.19121090030807,-1.43450092633157,0.000294109880817109,-0.603933404687805,-0.132669146269132,0.152234868987769,-0.821621167103655,0.1147421045454,0.026173911969427,-1.2998458223507,1.11790976395066,1.06209383249063,1.24896723228765,1.18712847969094,-0.783096143825416,-0.201886238384469,-0.961217051350164,-0.332378870081634,-0.741850607252255,2001182
-1.22181136349908,-0.453477607326258,0.0582392550800659,-0.542083694055352,-0.209459875126954,-4.80935016486991,-0.576574821260048,1.8155276452062,-1.07697594343602,-0.801388667680517,2.33129873373141,4.2699156055043,2.24730168972066,0.96117531283161,0.609705563607342,-0.203386813718824,0.513312051823495,-0.106408312092605,0.890905897853116,2002465
0.372198135177628,0.442172552647169,0.0670408794938169,-0.259735049879732,-0.123294615574971,0.466771976083866,0.0991710588609305,0.095208018379879,2.20227745641069,-0.0223178776464779,-0.831294541178973,0.149594506443432,0.444235931931636,0.20170046175361,-0.70839751913873,-0.14568338344525,-0.379869865688778,-0.861071859082865,0.0704076947451468,2004451
0.647199389606937,0.772404288106745,0.0772455350111279,0.281087793848226,-0.0838987173308771,0.581848997208019,-0.16521557178816,0.627604774914616,-0.73628816703101,-0.317262896202904,0.292287418761073,0.702662814054834,-1.29748239592288,-0.424523144568699,-0.153183179740278,-0.18564654471043,-0.454630884109148,-0.0246780351837675,-0.261027507649069,2006164
0.514079988310174,0.746043146170833,-0.0107905753340491,0.108362195646841,-0.123734967873851,0.271122962173674,-0.300782424182394,-0.060124745522988,-0.016074161620776,0.519678821696358,-0.311494944529147,-0.26531943037033,-0.377113025405577,-0.522585786007998,0.405661232829536,-0.145016904420982,0.502016377684229,-0.521786889169328,-0.207236235990737,2007309
0.885186056919769,0.486699643587093,0.078047151820381,0.0354909595157436,-0.115302041203861,0.36980704072213,0.915807450994267,0.0935149606275421,2.32283134929581,1.98913226319431,0.430942196376413,0.659556098052975,0.717384392583015,-0.717184275982622,-0.372365785105188,0.429505066331601,-0.13946107262609,0.165995287109076,-1.26452617698553,2009915
-0.450471195547387,-0.234061239857471,0.0800019759005001,-0.539988737537425,-0.15287161860717,-0.685921299495466,-0.600191156796981,0.148072943282782,-0.603442176851921,0.00349964707943829,-0.465473780461313,-1.03147118186506,0.19735163299344,0.613240811720453,-0.0446270820785281,-0.186471849511598,0.105039333621587,-0.386487620796535,0.0359964749389042,2010259
0.585254796088233,0.43034206122469,0.127162325229389,0.460245376929345,0.0917634152549392,-0.000221783928360226,0.241982819710942,0.255960681491058,1.10534754662744,-0.0412488402242948,-1.75341309561968,-0.653680090890316,-1.18327102848772,-0.4948133702154,-0.326175712962494,-0.178671418913397,-1.16239162221295,-0.632173549717583,0.28512973074515,2010554
0.678192645633134,0.478817889294204,0.188378149084576,-1.12020248953661,-0.268612052662093,-0.489161818533582,0.153691056263143,0.976894403033303,-0.835854408345935,0.305896771329567,-1.60607146883123,-0.699145470553153,-0.761674525404298,-1.01118483242589,1.06889438270173,-0.171655723537475,0.761612187821108,-0.146725300044289,-0.145422146703998,2026671
-1.58854706210476,-1.03515676602848,0.0606456802547843,0.247183927434231,-0.0575065673912418,1.01410171600441,-0.75923172669344,0.0674637990782491,-0.716445776357541,0.31178891380487,-0.799388791834761,-1.63018913415948,0.506221019215141,0.780638535385314,-0.851952475078924,-0.199842679075558,-0.307953844904766,-0.588013245327534,0.0655052211378123,2033049
1.0466531711338,0.776569667685776,7.23743643371955,0.593567834356088,-0.00399977144196397,0.365373674316567,1.92215065175526,-0.080515439891622,0.201831099600464,0.489027237056759,-0.538518930783551,0.340358175201457,1.35772671622555,-1.48153434919318,-0.589718523258427,0.107486114434826,-0.705438565656695,2.85452627943089,0.669182487294306,2034136
-0.00270695504409918,0.153303632369458,-0.334362744184559,0.919349427615372,0.109705192180183,-1.91017492457062,0.363302575591191,0.0125443404975757,1.24682678089176,-0.73313622068902,-0.926525844266837,-0.631933466242051,0.000575841115698057,-0.938907168506614,0.681124527314345,-0.113183667384026,-1.64278988728348,-0.909407505634409,0.404480273638528,2040495
0.302764231776339,-0.0731567912313076,0.0693016590013192,-0.0955391902027391,-0.12424162901292,2.43962982398483,0.183428186357042,0.27428670899132,0.360199591548642,-0.0223178776464779,-0.983154011342102,0.309133127472313,-0.230536849757573,-1.65085526110174,-1.21847465297206,-0.20217895581463,0.480270280925187,0.636677198194679,0.126265671507557,2047354
0.788102502295654,0.454618051219092,0.0647016336492814,0.062083040150325,-0.103184609536807,0.502719430752075,-0.378007285636496,0.0439339334906878,-0.438394369471788,0.463713778494085,-0.379163480382031,-1.09485881185185,0.0366845774139796,0.40027865929044,-0.14973390261462,-0.161456186333503,0.0966294824468097,0.461400434735427,-0.64114979216706,2051378
-0.198209299264224,0.0714198307559272,0.0535007466493805,0.0614093776116625,-0.111877946452869,0.015135802386814,1.50805704726308,0.0501859097244474,-0.146161013304681,1.11965573507509,-0.330475473607754,-0.0471589786769586,-1.10194458309328,-1.2747704671401,0.439438643915459,1.15435456927217,0.574397266633982,0.859244210217851,-0.423271221628634,2055667
-1.58528290215196,-0.57374190885243,0.052980635436135,-1.39717490810896,-0.140471267927164,0.0280367239165676,1.00516349634996,0.0825524320561415,1.96935238443487,0.965649155672334,0.344638200819193,-0.108853732204091,0.496810654662017,-0.856657800756227,0.432947782062495,0.629729141120145,0.425068545386252,0.0111029254835622,-1.15771049105628,2057358
0.510499569468789,0.539081283123891,0.0704013124048728,1.26079587263096,1.71151417556106,0.761276857309272,-0.302745238536007,-0.491000403966896,-1.10989076190494,0.629270397309485,0.40527438477224,0.179059290827685,-0.953342434593719,1.68307490049036,-0.244981470650747,-0.146195025475831,-0.0446350966549069,1.58219620206041,-0.341181842160899,2059713
-0.874997442682632,0.0647948177149462,0.297322506656509,-1.44613934942962,-0.285179267166392,0.993882456755059,0.753964896121567,0.445848222380422,-0.183969648984233,-1.6960986400051,1.10078218274352,0.733545797062246,1.66030434098201,-1.76777011347301,1.4200165651304,-0.128896881942497,1.47943248679125,-0.274529495746903,-0.903368945808898,2069079
-0.234723487803068,0.520089656951165,0.310911841976506,-0.0800006358240863,-0.122798660085311,0.460369547668285,0.182493539896788,0.0551658362613123,1.19287389298895,-1.19590895038839,0.490335688555996,0.439473287241349,0.907020237384403,-0.942017744171719,0.498701087081438,-0.158651440826727,0.398264261647625,-0.037166716349678,-1.05001928675465,2070958
0.637006286057911,1.21540810717446,0.0779678947478489,0.417897952802902,-0.0562187411223821,0.199617034890708,-0.421478842227259,-0.356641829624775,-0.787755464565527,0.609363306294172,-0.994680300832039,-1.81187957022146,0.489521168745735,1.15486422072895,-0.412542356019197,-0.165723716136606,0.0553966998935144,-0.24479164794689,0.0502058140773078,2072215
0.0814454885282906,0.570864953549801,0.0848560219808447,-0.536754650253503,-0.126132537151765,-0.101659637791424,1.82627694626068,0.155820948635969,1.09336136162845,0.225028454857628,0.658965224987036,0.599554119016359,0.279069469981356,-1.44874489001656,0.223142447036676,0.295883142501553,0.353651886666296,0.440915849949298,-0.786766258868803,2075832
0.518945383196301,0.737617989760641,0.0714345629286799,-0.192192281240131,-0.126205750453216,0.132007429069843,-0.342856369205263,-0.05280657853471,-0.414985180916856,0.0521870145129752,0.086832174877553,-0.218326347241702,-0.188569261075812,0.0233134754726197,-0.114831828133658,-0.129665190732751,0.372636004389902,0.0559540453619035,-0.633946343949391,2075846
1.43976150825143,0.471198225516391,0.0766287153182984,-0.104974329450752,-0.121248675977609,0.434046562204097,-0.976378975977464,0.0357345555354746,0.425346797823647,-0.519874754838942,0.143051381179772,-0.148028151493366,1.67247979383643,1.43080137548689,-0.559764903953771,-0.203592664150672,-0.081155578852128,-0.737780026682014,-0.450937605176776,2076301
0.93375773319947,1.51168731831603,0.402515439664989,0.786403863585291,-0.0990262168762895,0.0561795013108117,0.431999958679012,0.0198388845616638,0.531165235865637,0.279859339833158,-1.17895076950564,-0.602480877868501,0.159617438571326,-0.680075189008355,-0.254570123553668,-0.0869698676828497,-0.532732952269899,-0.505863003525145,0.0455456142216261,2078198
1.08052341945232,0.282082302169222,0.108913179780681,-0.356220899606367,-0.691496846704036,0.00440241062797759,-0.990654903423001,-0.878042363966264,-1.40058427489053,0.706335191804053,0.646660578749543,0.496327672088196,1.32306253557464,2.18171618430214,-0.28755855588393,-0.203608157319731,-0.0237785335743184,-0.712351110494072,2.68003507001608,2078899
-1.47592074322733,-1.5128820344396,0.108637247911961,-0.435155165796116,-0.131966409669309,-0.775259099046728,-0.631528284547177,0.00792313938379811,-0.501243390559503,-0.207273727944339,-0.0202147984570354,0.110034558162837,-1.19052850241791,0.173195629195286,0.0307742271120524,-0.19872063233677,0.0933636692479842,-0.148188745980636,-0.282655008515204,2085349
-0.963367336552622,-0.865925462163489,0.144791605786948,0.60038550979466,0.399730528188681,1.07576478624778,-0.69047472391632,-2.07646431300759,-0.866115308815254,0.482750259715082,0.600478715547962,0.739577774163649,0.485504806038345,-0.564509950872315,-1.07213592117584,-0.203733821060455,-2.48899419362464,-0.641485666152877,0.499341283698113,2086044
-0.277441920443354,-0.639969979047102,0.130420423926496,-0.0872885545586034,-0.134941174884236,-0.132627324433446,1.73863060768848,-0.0600740893666423,1.18638343160654,1.43582310719767,-0.237990940040059,-0.345634395818823,-2.65891729086182,0.218719124488056,-0.322574059364715,0.0494112090783773,0.0513223182887969,-0.427267794612363,0.747981764173385,2091555
-1.2288434823846,-1.30091134352397,0.0586908748988947,-0.140104657271922,-0.122798127278486,-0.230019970112323,1.14704685784828,0.160120749289805,0.860617065943581,0.101075782606392,-0.323251937137006,-0.296983686026983,-0.183765314378534,-0.114071515210647,-0.0946586099564137,-0.0460824382937132,0.258676427058194,-0.48166228913075,0.0279800666690105,2092954
0.811028516226543,0.341945804417394,0.0917669753332182,-0.136657028605141,-0.122491467872908,0.889895305979315,-0.71547075535058,-0.0889058007486246,-1.17654329980044,0.242064739431776,0.443452909369974,-0.125262713348185,0.61357801476642,0.814487661599097,0.0160528879964887,-0.198623664426551,0.0195967329787003,-0.0335015674015124,-0.123733742026541,2096627
-1.61723324137741,-1.54680000823308,0.0907466803988644,-0.0570641212543136,0.0976991332959299,-0.663754237752988,-0.867685955741654,-6.97611311839744,-1.34737089708855,-0.819597915612512,1.97295744745029,2.70954460690801,1.82323310023286,1.69333177927062,-1.4666509571644,-0.203416954807262,-0.314158977717588,-0.518626213845233,2.2465550696792,2100050
0.65107443659903,0.347760754540267,0.0804528840037374,-0.90663103074992,-0.138788168196405,0.351114542613717,-0.388912666539049,0.132764452216559,1.57200298746377,-0.771799903536029,1.28657886647533,1.45468104500924,1.22483675286642,0.0106856696867621,-0.178500532500898,-0.181658180928237,0.235822771345774,0.396062139603949,-1.25152246054096,2108003
-0.579137527617302,-0.647003672373744,0.0890004486674602,-0.169540048564994,-0.133591748397033,-0.00750924059950605,0.129579706642339,0.111245388169184,0.214554741074258,0.406087178921349,-1.07568373672945,-0.245901444139459,-0.680532144466927,-0.907189637126953,0.43001070926233,-0.0151055674566713,0.352853986349044,-0.130126703990673,-0.464121074316561,2109902
-1.00870233100653,-1.1419123702386,-0.898304458086598,-0.350502372146057,-0.161984392727127,-0.219855477727671,0.361345065684495,0.182042711358536,0.329477515851251,0.614452604769053,-1.14941866553592,-0.290123214320914,-0.414302445375096,-1.22549082640077,-0.818268396020412,-0.170119970110323,-1.5559857691932,-0.206218734049702,-0.414540959875649,2110540
-0.282689237492029,0.898159705694384,0.109817536659426,-0.187623684129297,-0.12626763326848,0.0325167766125972,-0.941287710118832,3.07882245526851,-1.35906546306871,-0.689978359920213,0.229369167138337,-0.319414759992066,1.14678050384084,2.18007078586312,0.291117618097133,-0.203185122038226,0.440421220651884,-0.42873716453635,1.4945805108333,2116787
0.596201423943628,0.13822047208558,-1.21450167301368,-5.01134780615642,-0.917185728809823,-0.335398306375563,0.135872585229649,0.430853326840783,0.138473034778707,-0.291451662489458,-0.820930582017812,-0.407304816702571,-0.0658950655493452,-1.03723869129664,0.129611597668716,-0.187648325782928,0.533963934704854,-0.119646896879704,-0.0380461635971517,2119177
-1.91942972262445,-1.55187043980609,-3.48878807685105,-0.901782865461902,-4.01619626696946,0.535823144233648,-0.412581459416742,0.682722387445528,-0.407772650670878,-0.507214880112673,-0.497029488185526,0.0714479329539668,-0.361844190792769,-1.17226212177586,-0.370826717536661,-0.202263010140415,-1.20449327449849,-0.785955756454697,1.98345611979082,2131601
0.175738352897081,0.106031187669125,0.0533467422085395,-0.337099242211729,-0.142696134501803,0.41005100002149,-0.890311028830971,0.188879159322589,-1.01676431739039,-1.67058093809889,0.620967063856321,0.464684210837331,1.22720801931799,1.66240965297163,0.512578123237707,-0.203358730575466,0.684473434279646,-0.629982035816211,0.517194358054559,2132424
0.392679323655687,0.511034793104355,0.121193755161776,-0.258883546886281,-0.127326226825213,0.283668277443764,-0.622086069371766,0.072026298417731,-0.060559746130847,0.495172619798306,0.381052397375645,0.0843456419994364,1.26254801752566,1.36071687585211,-0.418563662083542,-0.15047668551392,-0.137835139540254,0.636202239033454,-0.970344744896445,2132982
0.759244580460027,0.573837795299104,0.0570970688350776,-0.258022311910831,-0.131928278593453,0.111436879556729,-0.487129739595479,0.19217410347456,-0.253180333231465,0.621315271990704,-0.280856557475686,-0.89531765324791,0.347808788610508,0.342025256342459,-0.106973298272678,-0.175731885302597,0.112509340706478,0.293746729410596,-0.540219194126562,2133204
1.62063023517723,1.82316197968891,0.0636022598827752,-0.140481972696754,-0.106389298848656,0.614885267441415,-0.95208635841455,3.99581679411062,-1.42868679426799,0.131559706624603,0.785193811727191,1.14069357658949,1.35835578101719,3.9007435949237,-0.233329483835058,-0.203618318837166,0.0290915300703611,-0.631814529407673,3.95758596991819,2133380
0.461584670197623,1.5677657101161,0.0979361842567833,2.80879541270892,0.0116713896046229,-0.364512215513365,-0.913588081510372,-0.526374193888094,-1.3855009199345,-0.00512863272964705,0.351224999565511,-0.125622246074594,0.549505018961709,2.95353088752722,-0.813453713713784,-0.20347559423639,-1.1226288576953,-0.558385926386278,2.57513819696967,2134220
1.66246866076595,2.15395465938949,-0.037249877371569,2.34246834377841,0.86527706201947,-0.325715053732948,-0.114719699514744,-0.514592004448599,-0.434387170966199,0.730494088001687,-0.21157437954212,-0.300254110778271,-0.85371796186196,-0.660827904834403,0.554230249150942,-0.189594639476855,-0.190710362285707,-0.603213289736806,0.039107607370306,2135748
1.03170229872514,-0.216163063505936,0.11647694776637,0.00267943332192362,-0.0913565489051727,-2.018623422932,-0.883720328067663,3.28387222390173,-1.20796185712755,0.370894192953679,0.45228408130165,0.0950380425736374,0.936267079704199,2.11374431292075,0.259268749302716,-0.203621258291005,0.50045448313572,-0.454748126105646,0.609580163290744,2137799
1.23099825543478,0.936222166486533,0.203274288305348,0.312046120148358,-0.0714782987339129,0.0364189805679433,0.98775228929271,0.0758563250756611,0.24743670082499,0.499392515186389,-0.619329648327572,0.178999263215629,0.848304513002823,-1.3391829157212,-0.000558563703793462,0.112380579297184,0.310049144618212,-0.124137576761116,-0.552903016506833,2138375
0.404945351629495,-0.309558549851542,0.190497556423024,3.33857856556776,0.563137339627641,0.020082818158305,-0.421847775216338,-0.0298708194313927,-0.173466240380797,-0.223878491468431,-1.05829972420779,-0.617616387098148,0.114889604299857,-0.750264168881833,0.830018316846404,-0.191221973924907,0.346691342690756,-0.619771516519635,-0.177219794070467,2138678
0.711154850993972,-1.71187627432904,0.391626005407367,-1.04766994689981,-0.248103609255441,-2.0456305724722,-0.380334346114144,-0.206286208819487,-0.469631044548611,-1.90272367357753,-1.35763731652326,-2.52278052152819,-0.709077568324746,-0.680710323292434,2.23361380517277,-0.201837628470451,1.79496658374233,-0.417889097987902,0.347065359355806,2139733
0.828222250128241,0.338523578532022,0.0504386387716706,-0.0608616896861833,-0.119332630396936,-0.290616222665429,-0.717067654134416,0.123814304781199,-1.21623020885495,-0.141799831267392,0.243246499551588,-0.372425592378778,0.406463304671467,0.301725505731927,-0.6812982320277,-0.198989742838661,-0.469597321045295,-0.265619080018669,0.860513405454166,2141116
-1.16997529686111,-2.43244707845226,0.126530572284029,-0.152336352620263,-0.179808621376934,-5.0515660140297,-0.870216053875468,0.0167967536653003,-1.33628527777679,0.507059848855188,-0.559222260658452,-1.62114534631068,0.448928657062874,0.730174381184965,0.562885907780251,-0.2036991064663,-0.142770533496665,-0.730228137619474,1.68412497681627,2144796
-1.21213826956798,-1.66087365449925,0.0467967271291333,-0.63360194820633,-0.137003989127562,-0.36605402882763,-0.57198781678783,-0.332877769270791,-0.704123950929183,-1.75171999657513,1.26716064694818,0.935114467455669,0.456699354315696,0.207575778408453,-0.0169046893446405,-0.202938017025686,0.138770438143527,0.232928692026439,-0.293397749218178,2145166
-1.94533783358834,-1.45270728113733,0.0780731064540919,-0.137243624150472,-0.117583281489082,-0.285917014045732,-0.637209745888429,-0.155587770374284,-1.29043035016329,-0.700125996791253,0.0833399417446377,-0.479927738831753,-1.12576449181443,1.67482409504716,0.931247380532061,-0.200372937193673,1.01129427991197,-0.308928170715736,0.0638947282102393,2145694
0.256617482807473,-0.935682879270665,0.0680549054651581,0.220381496910132,0.152022301032554,0.404405054185066,-0.717286835705358,-0.263164899391793,-0.990980845562757,-1.45747675990726,0.0495235007546621,-0.270934811852862,0.478035147827201,0.42896108674471,0.38085278603634,-0.201687311626094,0.20499616076615,-0.213682130396084,0.589995131210232,2146138
-0.150842105640216,0.476463923880031,0.0886562597072278,-0.0473744622502387,-0.0697919700821863,0.53187260076738,0.148943890394439,0.313807863036956,-0.753224288646986,0.0803392535507529,1.01080330250504,1.37063325472109,0.361746339891076,0.512176311302695,-0.359111563328678,-0.00659621352931947,-0.213866562499646,2.62802948729331,-0.631195506899125,2151024
-0.676020906485583,-0.348384838551272,0.0565963025956617,-0.118152428942873,-0.132746969190018,0.139962979848499,-0.155034902263714,0.0771916514267074,-0.226001562932961,-1.07884181003588,-0.229531683661626,-0.464881971697595,-0.508665015417559,0.119124933478303,-0.210939999154414,-0.131490105828436,0.242434283914292,0.493127487096598,-0.986915798496171,215131
1.18746518944587,0.48542790691272,0.112010528996405,-0.0783688851126214,-0.117168308011189,-2.26025729358933,-0.631930853050942,0.422306123610532,-0.810745023719194,-0.243764463511181,-3.35155355066622,-1.83471817419801,-1.02008465126111,-0.510039049484024,-2.35977099656778,-0.202971753192104,-1.40389557358452,-0.461825814977501,0.774467618411529,2152442
1.54085505221775,0.850062014786956,0.053383778578807,-0.417692393480415,-0.127344400993253,0.503174061047271,-0.14373070505617,0.0769200839829936,-0.018310812893839,-2.76224687645866,0.0100338185824206,0.399082865637443,0.175976330081927,1.09717534763087,-0.0572923168219728,-0.198366564447557,0.717324842293519,0.659286696864739,-0.456986876981763,2157529
-0.127979438218689,-0.727749079666295,0.055361064044244,-0.253860029813406,-0.131517371021562,-0.0635248408150719,-0.632468492341391,0.113232545734436,-0.221160244473725,-0.722093276571867,-0.758043806211612,-1.42636890983971,-0.549260889264984,0.407127156479894,-0.733065402184046,-0.201448527783365,-0.285633836267636,-0.616104296402762,-0.138562642550522,2158101
-0.266789248160318,0.170673210039386,-0.271014815785419,-0.178053604854853,-0.15275798265831,0.154343013642168,-0.463081267574826,0.19927048214164,0.687972107998542,-1.15649924574782,-0.0176535270758094,0.194760214164774,0.602093771622493,-0.91050466271805,0.553786006342842,-0.20183562583486,-0.0294097737103993,-0.846947893268734,1.73452674120711,2158329
-0.314425412825082,0.159850965595553,0.0570466735683509,0.0181643624764131,-0.123112940027327,-0.501008571904503,0.659230210172268,0.0272213605922438,-0.203372683614918,-1.37358392208228,-0.408496566614978,-1.88092997263853,-3.07830639310615,0.946981745816122,-0.277481304927499,-0.109149187896547,-0.829284475486132,0.59135031966956,-0.892030432874251,2168082
-1.26339605153975,-1.14296012443341,0.117758873217011,0.016610353821156,-0.123182274052165,0.0259533589487552,0.112631901975626,0.125721397379099,1.67799815076435,1.36307597134644,1.98963489553422,1.56069142849501,-0.149646436168907,-0.646390092857831,0.801251955431131,-0.119899893239037,0.4785641313978,0.158810240320331,-0.919307052897599,2172217
0.643908338073263,1.63327776812404,0.0458398659516011,-0.34743686365331,-0.140695703566663,0.436335058075531,0.533641956718975,0.29283543750583,-0.365821127847419,0.224663153471902,0.671425670010355,-0.31538969170658,0.730134823072078,-0.863239658390096,-0.924051705960862,-0.0967473163692844,-0.735006266108294,-0.407629253687613,0.640744431887126,2176530
-1.17609751493327,-0.521657464953468,0.132737382999704,-4.52954626581913,-0.816961018240151,-2.39128511841701,0.231059367477098,0.458067338431323,1.41252051292792,1.63875062575753,2.71339672273232,1.15907609687247,0.189271843754066,-1.78888994267634,-0.825303640366528,-0.201332052583302,-0.482451270832506,0.234257750289047,0.103335461071658,2176784
0.613580800527581,-0.132764810793344,0.026365150152748,-0.460220416381752,-0.0674009744919467,-0.42137984745278,1.67672677292298,0.10556711238554,1.15296496581737,-0.697011941478098,1.62389820407332,1.13752101312536,-0.595311637966136,-0.83303333418276,0.835306275182727,-0.146517777361358,0.814742620564716,-0.096011982295697,-0.236231652194985,2181724
-0.404479952618977,-0.0868651303122379,-0.542711065862248,0.533951227230099,-0.0330454748474575,0.0840773240786876,0.0215082146185303,-0.667851847148338,0.0959372745359495,0.233517009055183,-1.02631016115666,-0.31804026643538,-0.354034152955389,-0.703741586198051,-0.895932302139341,-0.141860238554169,-0.444099918785053,-0.619966181663502,0.485969692433335,2183291
-0.485987197468912,-0.856257366456982,0.386644219685789,-0.185877748927627,-0.126286789670981,0.0563897284910193,-0.450921890607597,0.0952416668793692,-0.360313680020732,0.516475583033802,-0.874760423634406,-0.398538509559317,-2.30425551393751,0.525805059037834,-1.37370736894447,-0.188286064799805,-0.903665569477486,-0.27906911883238,-0.321897185412199,2183356
1.12577796179179,0.430046711793469,0.194996307300673,-0.227252038344533,-0.125009829194825,0.565332167125155,0.347077476131545,0.0809236096629074,1.10607646252877,0.630618418854085,0.103233100521193,0.77288334275369,-0.169015292235894,-1.21595769651654,0.525117406726571,-0.101462270920521,0.216320350855586,-0.0973567527960909,-0.820589308240677,2185290
0.389588823223062,0.927558975875454,0.685327052285372,3.44317622269491,1.33487965755712,0.0595917815625174,0.660717733865216,-1.14862321472949,0.56820384861389,1.42010127837612,-0.220450609659415,-0.129071541517969,-0.794668093431617,-0.541616450542044,0.532379547425335,-0.196153066683137,0.397199533973164,-0.482733799017353,-0.143726528552127,2186951
0.542405279254365,0.151820853091267,0.149636295467932,-0.0298770162249009,-0.107318080699355,-0.710501936305209,-0.617164151078511,-0.010984632366798,-0.562799001175326,0.611838789970797,-0.318214349872341,-0.509221176546927,0.105785306757537,0.10606207621051,-0.140036231306965,-0.18475370339803,-0.00199543416523519,-0.783050474445826,1.05065909907629,2196212
-1.31588969450682,-1.35350026963594,0.479798238595457,-3.16857133124328,-1.28722442469361,-0.91261020016849,0.655700206679217,0.0800477046358203,1.47805278590945,-1.38187484560187,-0.111798201238913,-0.129329783522318,1.08725116138664,-1.53517352423413,2.45279644889068,-0.165441732363788,1.52481182903419,-0.486372158273309,-0.843292105693371,2199403
-3.09632341471798,-2.96958333153507,0.0545788287707374,-0.0950638196554122,-0.138113786518436,-0.751318588492221,-0.520590245907665,-6.91541171499009,-1.20697503623727,1.58438251380938,-0.414609801828449,-1.07522516049626,-0.14044419984941,1.79298921698989,-0.691552171663156,-0.203032950145504,0.383150200272877,1.38374774769119,-0.0150129264495879,2200416
1.08340670556585,-0.413388766583921,0.0802765596332739,0.0029696501461824,-0.0823121543154955,-0.0759818714747575,0.22846079805847,0.107516576780669,-0.19069246609827,-0.49168772659189,-0.0831159858097222,-0.31757835351223,0.320208710200349,-0.363702292420953,-0.300351582825992,-0.103266435696961,-0.0344505866259207,0.271400736063337,-0.583639363537064,2200813
-0.565318058793912,-0.188506419866587,0.0387924598358981,-0.26063587658886,-0.14457169172386,0.580104412380899,-0.562495334219281,0.174482795112065,-1.08641383226568,0.134937473866259,0.633007291054619,0.274661529480976,0.0157707898929882,-0.468296354522831,0.278969228392276,-0.197251617315602,0.599889097624992,-0.330994534728715,0.48431411041392,2205389
-0.969638558416546,-0.24541719093878,0.0729600933948157,0.116293646298557,-0.0610789616501259,0.517192310417414,-0.511551871028896,-0.115636017107737,-0.760224221007856,0.116253748413633,0.472762898946116,0.561434950293145,0.598552264995666,0.23732271990193,0.161158781758953,-0.193045785087832,0.391974592700825,0.540222490029156,-0.479767704647938,2212664
-1.44436487196656,-1.0676863355403,0.058374994837861,-0.107150897329158,-0.112322052636793,0.0375861087337293,0.393010035906916,0.0320077188714326,-0.595871489615925,0.651613551364769,0.0723113738288331,-0.698717829901088,-0.441799172642707,1.05720584830136,-0.445794896701119,0.0803840053155282,0.121256556156828,2.78085911635899,-0.856579153047765,2217034
0.691709785097993,-0.71633635215037,0.0607893712147711,0.145254192499261,-0.113085532334432,0.790306844365225,-0.164318979334655,0.129074572607593,1.1717929096255,-1.34113325534911,-2.69166095251977,-1.1280276947899,-0.579142404992181,-1.30957394995793,1.70695484733227,-0.194163863206233,1.86724160663467,-0.55095822944982,0.438226738628956,2218615
0.862790503302103,0.125613307763027,0.136916706571374,0.337000545021158,-0.0550530485686937,-0.28526202911076,0.909549613264962,0.193238802294112,0.583422663022129,-2.11133224879253,1.09620407598875,1.44862918545608,-0.923433060005205,0.814729458276515,-1.11829187832433,0.158829606105669,-1.23781002288748,-0.85853092354172,5.43840487537764,2219842
0.792592428069282,1.39157940005862,0.720485960246171,-0.00569396519533872,0.000353283508682495,0.234370607849219,1.89117139121745,0.0581195723907699,1.35177312300412,-0.0715784467889009,1.44240601959999,0.534524098224276,0.354207405329007,-1.1439827017957,1.34706378821597,0.327445864089989,0.293855130165428,-0.726891462867586,0.359923814397231,2224150
0.976348649085494,0.491883001873623,0.0595431030347029,-0.0783210331857372,-0.122930738944058,-0.185258962902822,0.847217757959064,0.110445196825888,2.40705865845922,3.53711462964782,0.747982309863162,0.528394831725328,0.322160301560396,-0.594421406320725,0.186666979051484,-0.0743039534698206,0.591257559372512,3.44953765262252,-1.50306394337418,2228399
0.723891944943586,1.45628313098918,0.0558953803178579,-0.460604107894511,-0.147808702680011,0.396679339996361,0.326369269820673,0.184840015809699,0.0342022292738945,0.48653060417762,0.593373361405883,-0.332952278283407,0.678743242407583,-0.417588173810128,0.477967032973706,0.201952691248851,0.944778654430641,0.757515219088846,-0.672291777063508,2228400
0.596696918154888,0.362547636536768,0.0848688045326953,0.0317593968269725,-0.0128804159824069,0.627695082996683,-0.980384692232843,2.85720463064017,-1.34761354506337,0.299811619957244,0.270822420291641,-0.0292554829868389,1.33092742275997,1.55741390588703,-0.357818376848188,-0.203769523166812,0.140460056725257,-0.632287498763607,1.94495119798821,2234271
-1.5783978417463,-1.21092775176269,0.0918936707441951,-0.110862441136719,-0.0806156640549768,0.110037525178129,-0.91114729617215,1.3194395940161,-1.25387886053078,0.734309151804174,0.657381727482662,0.423824806843252,1.03886025582401,1.19355565223314,-0.928443872434334,-0.203503882023581,-0.290245050894156,-0.689452608982767,1.38450994397622,2234422
0.373991172290205,0.0174495835981285,0.242460064300523,-0.21260055066651,-0.132929257765064,-0.247565508303426,0.805380357794608,0.077824356462398,2.08912779115515,2.23827114364287,1.0002354185293,0.779855471879864,-0.896138093880966,0.0851566650001441,-0.577603184251997,-0.0365089216897332,0.102767044669704,-0.662526707424053,-0.237585591916369,2237571
0.00883582998078685,-0.368146584566269,0.244186203871282,-0.250809507046625,-0.164469278954744,-0.96459661922924,-0.168150961475858,0.187553361926245,0.244322599627535,-0.352235315215011,1.04594916513142,0.576888414581775,1.3209170072955,-1.51689716556376,1.36876284217648,-0.18708329614095,0.818360221035359,-0.666583677647159,-0.256893799331217,2244172
1.59046987461327,1.46046603575632,0.0744108517620765,0.300910292627573,2.71273417455415,0.545010276127671,0.226175235775108,-0.192135623665023,-0.643888032695142,1.14063448021098,0.854770183849723,1.52587605832405,0.385168722186346,2.404398057366,-0.142864611702904,-0.04712993678174,0.268991981808433,0.938772241257856,-0.796784324706647,2247869
0.474021129580263,-0.60620266714862,0.0726603373343297,-0.347025193909587,-0.127710729829023,0.552833729213315,0.0830040847188532,0.0696591791132714,1.53936257381012,0.369054909613891,1.45555741191012,2.15195643790682,1.1971548842955,-1.49197723935664,-0.992092460652663,-0.193166586321516,-0.0337963663810378,-0.515339153122767,-0.451410064331823,2250648
-0.150773615415505,0.714246806410511,0.0842424736206378,0.0373336350228861,-0.0803648510727959,0.104769418400096,-0.672395432645361,-0.0908477953379705,-0.73794766165872,1.2913521682779,0.688775352163631,0.406925259393371,-0.451863285057133,0.781862746175347,-0.583281516209754,-0.196026422490015,-0.294582655505827,-0.23041217137397,-0.265787276143918,2250836
0.351942814041002,0.884916875407764,0.138204823607523,-0.280267481822724,-0.163355287190934,0.758414044750172,-0.554868039823257,-0.0180441853676491,-1.06156533676839,0.909593223152824,1.17267250427368,2.23541571556936,0.298462468540976,0.916453466036158,-0.91179617714831,-0.189710494152229,-0.857188826698883,0.592196696169288,-0.525895678973785,2267382
0.481074868852358,0.949334846541333,0.662317913241591,-0.796213238577031,-0.333216882745781,-0.4696583735742,-0.463785513353934,1.17185740016996,-0.549324819511237,0.0551188164361251,-1.52650557064365,-1.92247072019126,-1.10272380422559,0.00584898622607247,0.00874595099280762,-0.198345410401478,0.138488522416745,-0.765634919223997,1.23380422303579,2269346
-0.00380793486415735,-1.01416526884891,0.114151138039593,-0.472252355922555,-0.686431889945308,-1.35526773880335,-0.898702324048873,-2.23668164800723,-1.30568808376287,-0.1533442102429,0.974910480669219,1.18589703706054,1.40808272181821,0.380524734413053,0.891160747404894,-0.203714075147918,1.02384236667698,-0.768972395789346,1.93847395990062,2271329
0.176927244099817,0.00679825767381911,0.212409973848159,0.306037989590504,-0.0842675430570301,0.434333265869163,2.4131520694218,0.0708886263438995,1.34247720419934,0.733724629134351,0.899321566532274,0.874844349264353,-1.66148186906546,0.245442823193462,-0.450184119581781,1.60489873978742,-0.363177051138875,-0.00861691932905524,0.917060343539875,2274521
0.985009278007516,1.07009904270962,-0.0286513593457637,-0.49132012027284,-0.12621694004307,0.352051263539243,0.103347956494523,0.0871608487278834,1.19561684215819,0.450094101283062,0.155006149857912,-0.0784445682769161,0.181470907696938,-0.546436676924002,0.00854912339277565,0.332941728083127,0.329766522831297,0.62649617344947,-1.13090895355332,2276121
-2.65608044675613,-2.48146952487975,0.543170516000738,-0.429075844600903,-0.234246304103051,1.57242216451478,1.06731252770876,0.121283581145795,1.23275017590395,-1.23806182513789,2.11237562618801,1.51244517209723,3.60047393761983,-1.99777011896448,4.01673532477965,-0.139141960535102,3.08774384699802,-0.512564521234257,-0.0587153312167747,2278618
-0.668671858529148,0.120696561341397,-0.0147850665493217,-0.0799993071774807,-0.103714054267787,0.255275666255983,-0.574523022873395,0.0297489780476093,-0.969283498731172,0.0280736228968228,0.200883075174063,0.0877862035304528,-0.510253038567348,-0.373900306980585,-0.368945656260128,-0.174144771393533,-0.0435961717966347,0.119892786198082,-0.137436235056219,2285214
-0.917188119462901,0.0931677353198432,0.118132557652462,0.658118655584758,0.144338501369853,0.0515955051365458,0.114358018715997,0.0464452264342989,0.105334908243386,0.152526848351866,-0.131816084258334,-0.293090130358385,-0.474472773466188,-0.0666352584519281,-0.0191207640830363,-0.17239606275068,0.154052589500743,-0.426729827708585,-0.391443494993627,2286108
-0.765044059585851,-0.227004631007545,-1.47665974511914,0.366378716769086,-0.0738548616713414,0.111324154150722,1.62978574478805,0.0496446784961264,1.35133451799402,-0.408413726973353,-0.781627692519874,-0.215360778569106,0.503502969838214,-1.05258043359027,0.0967107827687492,0.031652720464743,0.0389694520856451,0.0714545000556283,-0.719406047325544,2293123
-0.671267788708524,0.113982417952226,0.13640912894836,1.58191037240224,-0.113816660408262,0.500418412855227,-0.17317053243928,0.0711167246449135,1.49641408182798,-0.292389278335079,-0.791586432758386,-0.71783537469511,0.337593966722189,0.018066689802106,-0.208333855221528,0.151765097375271,-0.0741832833434274,-0.0404207230849875,-1.06048341413378,2294852
-2.2228782500932,-1.81464887504744,-0.384015500551564,0.155656047025092,-0.127569865771976,-0.711268025855259,-0.607139198469246,0.00358628186600838,0.584775514943079,-2.79620736013097,1.43348692484821,2.44764982968455,0.439888967098215,2.35715625549626,1.56207508286244,-0.202848512253383,2.52787209293978,-0.507923171673646,-0.0134639037417614,2294873
0.614854590865542,1.58873042549151,0.181839639327933,0.812596067771808,-0.114325576282951,-0.168562198832704,2.58229768503023,0.101962317084335,1.89682813006174,-0.233094682225262,0.799395487417757,0.508522287312729,2.19659473835026,-1.59369307752421,-0.144997633018098,0.313079857850561,-2.34495584973177,-0.289415420350406,-0.797026956189941,2296332
-0.944097027597603,-0.858681236363903,0.0562066656428285,-0.0436025912924676,-0.123751916188441,-0.466984240367512,-0.375618690017935,-0.113275695027976,-0.993596990910882,-1.4049838791051,0.113528520435733,0.0318075438194732,0.704086261756962,0.621407593931546,-0.4343367267749,-0.194831564458093,0.00787328437715273,0.82819341757373,-0.335536225792635,2305114
1.54090329665011,0.678982620645194,0.3832200593813,0.558460886807679,0.481160831196074,0.48354560448445,-0.467938077004937,-0.0285216175383015,-0.444978653131422,0.904208714763281,0.550845331708605,0.449467273687252,0.174951868439426,-0.618378944539846,0.263707802319649,-0.168552729926953,0.347345801522585,-0.240992077439868,-0.495382660823891,2305115
-0.469487291772843,0.218082939681389,0.0779422228429186,-0.324631242300807,-0.208078930972244,-1.33889428568021,-0.294445655823497,1.03887525119001,-0.63015662873737,0.277642916597037,-1.14931396799057,-2.67719299818831,-0.0900261149304629,-0.389325416968874,1.85695327999296,-0.198177013125631,1.36138583986929,-0.392761672758755,0.105911754893682,2306459
-1.02613018105618,-0.732855928121595,-0.0604786181374995,1.3442314993752,0.614387352813323,-0.817105570532675,-0.785699645004074,0.107429207112407,-0.156930919659953,-1.0297806331183,0.481776858864161,1.49756161166155,1.22132199257572,0.421100813420383,-0.502012926605984,-0.203318712249945,-0.494891840025565,-0.218555943900187,-0.35105243313109,2306893
0.862886469815465,0.196712412949358,0.194558148384789,0.496864760733187,-0.0905357641650522,-0.104000308538793,-0.584939218495911,0.184451328168922,-0.72676010693912,0.0126072032562939,-0.100666235338883,-0.452702218174226,0.369775449741648,0.509222783564183,-0.0402344745455464,-0.148739569859959,0.269973166607955,-0.313732782470001,0.00204127353786297,2317120
-1.11177402168498,-1.25099291612695,0.10327563752446,0.232903339927905,-0.104045119029072,0.487838992568724,-0.144434462408809,0.0624804235121057,1.11184283516717,-0.403062280495157,-0.101148584191791,-0.272087131449621,-0.164414699548155,0.235167773387774,-0.18583581237216,0.273110725748823,0.0588847622676626,0.564622631624243,-0.967147101030654,2319068
1.27201770318929,0.631699847487318,0.0864463382242745,-0.114097105097907,-0.0984635726839476,0.0626085278424028,-0.591569248981155,0.304537051412783,-0.939446801095237,0.349693577694232,0.520669842078504,0.455209299321502,0.705521955318665,0.501025339362921,-0.433158858179522,-0.180638932074301,-0.182952830718992,0.47110996678749,-0.483919746712223,2321962
-0.494208393595623,-0.0801224141365286,-0.202873075749069,-0.215992852366015,-0.134307795072952,0.323774781975199,-0.552773623342971,0.156909248112621,-0.818623218498211,0.279807181059609,0.932025534485086,1.58262120643089,-0.107364447862273,1.22613244120994,-1.30835941679083,-0.181307385864943,-0.774399824925904,0.244786389745685,-0.0172026316151036,2331869
0.437938483147475,0.056741752418524,0.0692526782960953,-0.0993047190020868,-0.120919186256571,-1.52585965035751,0.376663911476219,0.0308059727909794,0.495210977601004,0.165326118661972,0.535995733370493,0.0419868304312067,-0.433251090570214,0.0487095105914394,1.2374665599949,-0.155779789601383,1.06347314016376,-0.796889506695137,2.1998820613923,2336735
0.665981154450617,0.0377043424584366,0.0270222308175837,0.863689238944568,0.0309253752004643,0.884253431853008,-0.620856518436915,-0.107905970542589,-0.237856059910508,0.250157723589393,0.200871693893708,0.0229484460328559,0.252408118100537,-0.393693518422498,-0.586383281589418,-0.184838799616017,-0.954673792420418,-0.35054547515985,-0.303550277435355,2339674
0.805638481537991,1.21265909994569,0.131722199830441,0.0422940272855248,-0.116713416826552,0.0668942736134689,1.7453829399082,0.0946190180884709,0.491657066303412,-0.528889349999933,0.193971113426367,0.16632844448784,-0.738553174436148,-0.686627971204777,0.354113802595597,3.55950213642288,0.388079190923153,0.216070743869866,-0.183431490944468,2340155
0.697918505887181,-0.142598647094511,1.69312293628889,0.873245968000356,1.86690220791848,0.503986619867801,0.288859606863083,-1.27633194895208,0.709994520577631,0.803724636402556,-2.14625129340233,-0.492928913286175,-2.12513624731172,-0.473289231618682,0.38167875626126,-0.17984869692317,0.0860912666678613,-0.258365425478931,-0.713081814040509,2340322
-0.267541603527099,-0.445483527244484,0.0573995489362807,-0.246217518732557,-0.227083208368107,0.301088449461152,-0.595097236174091,-0.550984736360921,-1.23053456727889,0.493144048236173,0.212499189568023,-0.724246129195663,0.0489854900150852,1.73417832516737,-0.273723746381526,-0.197441292799187,-0.0724282168016203,0.290368814307506,-0.0309540146352723,2350037
-1.62843023196744,-2.00873917157198,0.0607350845878603,-0.437936600042633,-0.151900198113291,1.49481147376745,-0.58258526704267,-0.481375329186972,-0.820042792045022,-1.13646318713789,0.851694411376163,0.472719110029686,1.21266378876711,-0.300967845108703,0.1728380375582,-0.199379178302756,0.490062308123082,0.440950992579589,-0.358196155070742,2352038
-0.327008254349914,-1.0727941499547,0.10253746480745,-0.587961354239651,-0.124084145580695,-1.78646030194879,-0.60418107571332,0.153227583174987,0.66610606623094,-2.06677598776644,0.18521966087407,-0.231766128016668,2.03787308303567,0.368120408690163,2.95087812560978,-0.198860722229096,2.02371217097142,-1.00930596262095,3.65382542361623,2359944
0.52893415509897,1.17868783041859,0.111709072477695,0.00440619527394725,-0.12181374558863,0.248421036801173,-0.430095157540955,0.0936851663476608,0.12628125810412,1.11627879934106,-0.144971474915738,-0.692668404461994,0.978848366106218,0.118917821039035,-0.323488299020943,-0.109694072011903,-0.00336521560123033,1.16505803445233,-0.960382902547663,2381907
-0.582033799411317,-0.142104774913684,0.278557421858968,-0.909735735195818,-0.313322703886396,-0.0141470674405871,0.0991976855018209,0.0283710066608695,0.909677243407785,1.01832112410135,-0.591328753666071,-0.150277611874323,-0.457523687551981,-1.06236839136143,0.15609829507029,-0.17229454737681,0.0848404114906195,-0.0116784239345969,-0.900227093173108,2393207
1.48211371560253,2.34221567091547,0.303403662239175,1.00580923730736,0.186995025765025,-0.203874518099967,-0.52680832538368,-0.0742949705694844,-0.287255740453278,0.319149580820439,0.525671598163257,0.768555649296311,0.509061630462902,-0.171627482504507,-0.845078716042616,-0.175518596958291,-1.59214627998611,-0.224903322889539,-0.471934484787529,2395415
0.391610550112764,-0.0947126209329558,0.129175778507713,0.0734468134513918,-0.118461563246759,0.713442167896126,-0.290472997486211,0.0787401254134849,1.05321179991791,0.45589309039984,-0.777772110402055,-1.1883616547668,0.309926333742305,-0.0851729606724205,-0.244696622913912,-0.129933196877582,0.00354232609412699,1.5764615322241,-1.18415140525744,2395943
-0.196373083295275,-0.725579993920798,0.0786560007608038,-0.125309647165025,-0.122156145441577,0.155601351072093,-0.527429920183586,0.0692212109235313,-0.309881781593263,0.432202243287768,-0.0370932813798571,-0.429333368073207,-0.0425227903018386,-0.0757354022460125,-0.286493224581107,-0.183761295220993,-0.0302926141861783,1.01709180304367,-0.9049005141939,2401405
-1.59034292545739,-0.62996038341641,0.115727049376438,1.40239004530369,-0.134652779721156,0.0773663484781974,-0.563464010664443,0.136137560667725,-0.617711144363817,1.23513785024252,0.436912946823278,0.138121675875544,-0.188579183081307,0.00614579681206077,-0.0381303713929443,-0.182023582168068,0.22075270701261,0.278445295685767,-0.381863620601031,2405144
0.00569517953620561,-0.628105766968696,-8.79306857908223,0.593732693485877,1.17470865887987,0.330860654353575,-0.629913899988845,-0.940699775105464,-0.743942779938875,0.468280973274329,-0.253425244957846,0.0616858955247411,-0.670814596013039,-0.143539610385948,-0.752912639031113,-0.200117358342831,-1.51850840600671,-0.727096758618532,0.864923282596346,2414406
-0.048728334177061,-0.169891566786338,0.048685457220856,0.280775488166635,0.00253442586308751,0.247965640124916,-0.12253592599945,-0.118199317481898,-0.593809361544867,0.459177897584649,0.105132673326494,-0.515182200541662,0.564629938496278,-0.424007553401221,0.524271416235241,-0.164334307738812,0.0415238333276666,-0.443680389142227,-0.488023077651837,2419459
0.247656398073319,0.975617241015594,0.103395630037403,-0.115181361298743,-0.117857202669749,0.233613038846872,-0.690785520711519,0.173415958786469,-1.18252593267294,0.709373041651565,0.4035407475047,-0.292325646501422,0.376028640094833,2.5523458017408,-0.420435998052397,-0.1977742026552,-0.291094623933456,0.97243085198273,-0.233776033178756,2425694
-0.0716196818557047,0.145606826841871,0.429937985004964,0.837154644152482,0.000311720708759062,0.50080318294019,-0.0791544515310425,0.041533559313192,0.0507492305306491,0.572587557882884,-0.518910252547664,-0.503828072812627,-0.356104090621536,-0.130318846059254,-0.522398083465569,0.195638548196831,-0.296101416875047,0.333724627090526,-0.810873406392834,2426863
0.601133397127539,1.27849553478489,0.0518222738112374,-0.974942262129486,-0.268998532639205,3.06125276684077,-0.203514411774339,-0.823268841959009,-0.916697331373483,-1.57498604315925,-2.26660211569383,-2.97814473948605,-0.225715827903631,-0.0936227244158222,-1.23893254629763,-0.201530536448022,-0.876009457625681,0.446687856725731,0.211350054773793,2430773
0.403744438963613,0.320157821288022,0.0617340974724769,-0.148825888297523,-0.125782892368244,-1.10728046828928,-0.787556870685099,-0.190151072216468,-0.791262577259426,0.299379692344255,0.0340099176154405,-0.369392521026679,0.467573002222789,0.433728613684038,0.288908945487889,-0.202811939336131,0.487332142128336,-0.107269930350799,-0.373620872542847,2439458
-0.993320575304859,-0.412792626933663,-0.754353009043492,-0.572854495870897,-0.142186329088227,0.596318559773734,-0.410095192185045,-0.38761108023812,-0.392082518728637,-0.609750963225055,-0.159806579898427,-0.0384137745744933,0.00174248895074162,-0.123966560721903,0.184136946648656,-0.198056753924562,0.790155128491885,-0.115325878660537,-0.261125436684898,2443354
0.947520160246129,0.308365232333617,0.333608948582709,0.263428068870048,-0.123268419859096,0.556562723172105,-0.12090967071145,0.0654105343963557,0.420363591560761,-0.594997934242402,0.556929001717078,0.64748206002535,0.243814141672395,-0.411925799554446,-0.914999649891932,-0.166856761313398,-2.06813530704744,0.0493255173416608,-0.749644148711845,2445526
0.497474819764765,0.82104735868662,0.12278018666799,-0.471579997634787,-0.133893272093388,0.608091795934781,1.65474762699934,0.274690540081286,0.820788021046522,-0.199218377488164,-3.48714553912641,-1.46464463893659,-0.526577658786281,-0.899044492912605,1.80421943803271,0.0525162273839357,1.62694305582123,-0.174673282973274,-0.683571711442477,2448298
-1.04922563250274,-0.538612061823148,0.0548636556425609,-0.464801983635753,-0.211166761152729,-1.4346161562952,-0.697698500427424,0.0607449654508387,-1.04572738575853,0.195400867019262,0.225830634183506,-0.0609256205775973,-0.231406096012538,0.997375467203529,0.784496756683904,-0.198538137879268,0.527459496217333,-0.626807079012765,0.670515872352007,2453577
-1.0042606702468,-0.370413637529496,0.165784745221956,-0.228684041717309,-0.162288299178907,2.79298976848416,-0.666744286874256,-0.840835661031768,-0.929075824784011,0.215433933749199,0.514016679706837,0.0111801998092189,0.659541002476248,-0.123775345815803,-3.00568393128517,-0.203376408902243,-7.04111570161185,-0.772330553906304,-0.136919700382307,2474709
0.976272264496466,1.22757954910264,0.104096682664975,-0.197093142930007,-0.12594946494292,-0.725498013589008,-0.567136617215772,0.0330912738840112,-0.186244521170685,-0.935600292471549,0.0174779187491591,-1.01200004158122,0.78397010627502,0.331058569069127,0.42989841167603,-0.200272169107164,0.913704763413468,-0.672820128119068,-0.251342802981134,2480056
1.05047352623718,0.673895205279498,0.178777532591791,0.244533745623568,-0.0530844898696119,-0.367558821130609,-0.527720898212579,-0.485367887764186,-1.0320836343105,0.353224535378737,0.513671710866304,0.0811041526208936,0.186801925493742,0.933358661870606,-0.393400737680585,-0.180763042314372,-0.756949031655785,0.225303337363054,0.107534067870788,2480330
1.10606858674729,0.852702250650153,-0.0169260508268212,0.981960826497294,-0.047898582579709,-0.0729062892090588,-0.205485504062546,-0.00248552501443848,-0.364432670923437,-0.0616229965541854,-0.100207480732144,-0.136162679659342,0.568197495017366,-0.497765114876583,-0.398483890992712,-0.0424940291187605,-0.918402996925913,-0.387074758923276,-0.347348062400453,2487135
0.86384808486688,1.72898509722018,-0.75605365863655,-0.435960614517131,-0.202735157255651,-0.438148707703357,0.483172041007745,0.153067717897961,0.490025056289137,0.0228250244992448,-0.177193027777867,-0.158016989622738,-0.531858995218155,-0.00924181941140261,-0.249508582157484,0.0272214997090584,-1.44684262465398,-0.277790119801623,-0.257825511381687,2488660
0.457473961669387,1.29078680587881,0.105477541657564,-0.058849563592434,-0.106939100744017,-0.271270953430974,-0.763071097438124,0.119966739958168,-1.17370788344928,-0.667880253285794,-0.36978173782241,-1.49073474683315,0.1049676470423,0.132718745704038,0.61561614455842,-0.20235326361178,0.222670758722311,-0.325477660593041,0.161016736369639,2490180
-0.840181309680952,-1.63573139695041,0.187899632412445,-0.14329214221217,-0.14161028858725,-0.717607288965305,-0.480385308568674,0.0451467664474539,0.134634657124992,-0.127135059305703,0.094676122971335,0.0355804215372485,-0.581217924626795,-0.0023086380997781,-0.118389337427533,-0.157683141362226,-0.125606645299461,-0.301965722958902,-0.0219520855143986,2493534
-1.52926985863685,-1.14829203986268,0.209351283924075,-0.0687927031199355,-0.228307490303393,-0.697829753095506,-0.335644468184068,-1.50390119208243,-0.73656573356467,1.57453134656647,-0.365592975822866,-0.346605671073129,-0.253499939851283,-1.33469727135239,0.479851814491315,-0.202345326125453,-2.74299137599981,-0.620289027977763,0.874504707159371,2498991
0.214250694668852,-1.66644427758114,0.28349655431643,1.10106500238737,0.193783646669397,0.184286528314757,-0.20716955951491,0.00265589329137232,0.399897433504695,0.383193866387989,0.939072465392347,0.805726644674787,0.605782635420294,-0.288504503243126,0.455649536875536,-0.189307002390099,0.337803642543373,0.0158835022192859,-0.690631545313081,2500377
0.0131662796200682,0.226685814118851,0.0558696347907689,0.0950895778015615,-0.114322456718457,2.36796347685823,-0.607890371528669,0.276377077458388,-0.792175703105377,2.01959525616762,0.138599770058435,-0.736294194469863,1.33162793370362,0.376087892803923,-1.50689897971887,-0.202452046955508,-0.296188172928695,-0.0270852069182661,0.158557033250546,2504802
-3.56490109803309,-2.82786225545807,0.128358449934509,-0.341511584931757,-0.134086262181548,-0.40042388810791,-0.441046478384575,0.258171358494512,-0.847561810267629,0.0590350628069256,0.427978627633656,0.0281907142512946,-1.00536408868122,0.429774789237415,0.166327922498842,-0.192040203966938,0.422879070123477,0.0574065727406915,-0.266533414907314,2510402
1.54439226209418,-0.0290918086197587,-4.90574931627021,6.92751596831867,12.1169578995536,0.239913281300541,-0.208202740836713,-0.336531789854525,0.00290609506058309,0.0194259647107523,-0.31501596046314,-0.261977231103747,-0.958630250646042,-0.282260373706268,-0.453640875542592,-0.199981048829584,-0.731436630041818,-0.58950113762015,0.149005270602485,2520618
0.0973193611559645,0.087867840118878,0.324133020099783,0.772644643119171,-0.0711487684849911,0.340934154392661,0.203661288628105,0.0577675173411391,0.639423329619459,0.425401815552022,-1.3121227422699,-0.54162258749216,-0.604314948519216,-1.093319166203,0.83411971004442,-0.142807203730936,0.180568101025194,-0.391670297153286,-0.704508283461303,2559453
1.74606729567088,2.16075522535239,0.052649050921802,-0.597222707391723,-0.12582138325507,1.01359985731739,0.715048389791583,0.140478075355176,0.762192246365394,-0.79660734809135,-0.260709183769863,1.43759582924678,0.27735708213539,-0.456862234755862,-1.88837042861123,-0.188697493729235,-0.31990954850324,-7.81649458125818e-05,-0.0129006701836397,277752
0.93201283840556,0.136570745668241,0.0762031607717541,-0.664643969061897,-0.124705083128536,0.00746313437218237,0.577684202775664,0.0944545291750216,2.22776852237307,1.60000850322915,1.61399943964211,1.04108372091099,-0.924044894710892,-0.383766050301557,-0.201045576952729,0.101501883208232,-0.0267740619131297,-0.442252617738273,-0.290832306589168,308862
-1.62173293692513,-1.58426747718927,0.139894719061321,-0.491430065079826,-0.126801875939452,0.395763644280872,-0.264787373008994,0.0805433352526167,0.215090046570946,0.229159202155275,-0.222760021693244,-0.274534976029998,-1.21920289567938,-0.0182054673162796,-0.503321473463289,-0.0345103830706961,-0.0877409490038229,-0.147312272729745,0.0999813394253304,58325
1.30483313900889,1.51509760497956,0.285122985418226,-0.171699503187569,-0.14071861019052,-0.223598398050245,-0.671444101135503,0.527212882858902,-0.960820787697848,-0.0914044024303414,0.387570865958762,0.127968867614368,0.414921168570332,0.610571576919304,-0.884222900881477,-0.198114180166797,-0.396169814057467,-0.365256711203885,0.384574833254488,92173
0.480287095170157,-0.303376539592044,0.287217340787302,0.0626421690435725,-0.122543283444301,0.145484710288175,0.518633137082819,0.0911864505270761,1.85401401549319,1.52092671420437,0.727495636771978,0.68017333829562,-1.2187925562776,-0.00891630261433655,0.123995989646681,0.176568496340055,0.277019627116307,-0.702952934224644,0.638274712282177,923666
0.301654514283517,0.463397128242179,0.0885325718478653,-0.151481855688451,-0.12485866843617,-0.156434451475385,-0.827862327528301,0.374559036760785,-0.865502339443413,0.0665521851929298,0.543729625031018,0.0131681574275356,1.19290102411899,1.18880300614204,-0.121176737642132,-0.202720426290781,0.128003583936314,-0.0620357890182864,-0.0147278441452869,965005
1.64686895508772,0.440430964705138,0.0575815897226877,-0.213756863620354,-0.138555205820454,-0.398404487867992,-0.435831483806923,0.526122169952277,-0.916070342939541,-0.357439580160704,0.582294413454248,1.07694611396101,-2.52556468467505,0.678230898109542,-0.0462438144736465,-0.199687268641765,0.259912110462821,-0.484088849224088,0.189961220531967,983079
