pgsalome/predictR/output_NEW/signficant_features_results/pfs/pcaElbow15_letd_ctv.csv
"letd_ctv_wavelet.LLH_glcm_Correlation_250","letd_ctv_wavelet.LLH_glcm_Imc2_250","letd_ctv_wavelet.LHL_firstorder_90Percentile_250","letd_ctv_wavelet.HLL_firstorder_Median_250","letd_ctv_wavelet.HLH_firstorder_Mean_250","letd_ctv_wavelet.HLH_firstorder_Skewness_250","letd_ctv_wavelet.HHL_glcm_JointEnergy_250","letd_ctv_wavelet.HHH_firstorder_Skewness_250","letd_ctv_lbp.3D.m2_firstorder_RootMeanSquared_250","letd_ctv_lbp.3D.m2_glcm_JointAverage_250","letd_ctv_lbp.3D.m2_glcm_ClusterShade_250","letd_ctv_lbp.3D.k_firstorder_10Percentile_250","letd_ctv_wavelet.HLH_firstorder_Median_249","letd_ctv_wavelet.HHH_glcm_JointEnergy_249","letd_ctv_logarithm_firstorder_Skewness_249","letd_ctv_wavelet.LLH_firstorder_Skewness_248","letd_ctv_wavelet.HHL_firstorder_Median_248","letd_ctv_wavelet.HHH_firstorder_Mean_248","letd_ctv_wavelet.LHH_glcm_ClusterShade_247","sub"
-1.40101949744206,0.133267022071821,-0.972240881831634,-0.702706884197889,0.464117169755576,-0.0557959889956425,0.0745463867879449,0.032764259649211,0.371289618589012,0.390121693410867,-1.31307176472584,1.0921581675768,0.201314482087542,-0.0826955013255036,0.728912787237915,0.150897922868373,0.25357162296966,0.0531946457755567,-0.0658771639731445,1916742
1.01447209741021,1.4549082745993,3.83087610704674,-1.64268253130089,-0.305873385306372,0.0576740666219712,0.698196613501188,1.71710946083746,0.993832240962539,-2.89323543028955,0.556084560694247,0.405080460594356,-1.65177337370564,-0.620990181821828,-0.181829351547459,-0.0967650036531425,-0.696333748785547,2.10160727530371,-0.425868340356486,1980052
-0.460747481694595,0.95135853815819,0.0243581572220475,-0.750697132833007,-0.122362957032229,-0.558117815817758,-0.537572836279135,0.533307909357697,0.960467444688263,0.827284048740091,-0.803704592943475,0.0373910684018297,0.0599364691311458,0.655939800508814,0.547598996154426,1.19157228345363,0.750673577825866,-0.271615896294626,-0.0576524774551339,1926770
-2.72094922462545,0.999239982497892,-0.807262004873837,-0.617502765191217,0.128728967674337,0.120250524463682,0.49268808284176,-0.245290951021582,0.924998756432356,-0.31362856705801,-0.301253334295288,1.12185726801142,-0.171218825193437,0.238547183091633,-0.229403859448477,0.124824674648553,-0.175509590179509,-0.417023873031263,0.0116953586238943,1979045
-1.00227201996459,-2.20329997704815,-0.182610680829406,0.0594918249481315,0.00562062380282615,-0.136405955242116,-0.472786391222321,0.0940198322027359,-0.63533971781928,-0.199565394283247,-0.214119799804695,0.93069718771427,-0.226015713798191,-0.397715897989468,0.936124133656943,0.00665595662864352,-0.382674315224825,-0.0845293346034697,0.0104825826391871,2196212
0.511711944345727,0.346314979785535,-0.816443162244571,-0.556462064571461,-0.240522449876453,0.223163541541652,0.817797852472925,-3.89878292220696,0.351831255188919,0.499855681306307,0.4636670738922,-0.135505190898538,0.0475341011362381,1.0409688998483,0.846810514373344,-1.08029424320605,0.0224358243695692,0.0795775228639764,0.289579775131228,2393207
-0.203652275977332,-0.189310980122418,-0.309897958383473,-2.08964659543454,2.34698167873394,0.00103494261193231,-0.700862012982862,-0.178028510594032,-1.13199953995806,-0.417547135237521,0.364864174785205,-1.80001423622744,2.10109806007033,-0.708971056298839,-0.371950015991207,0.748555568846376,0.42018678608836,-1.45342820251371,0.0165608802072238,2146138
0.753005754761717,-1.41192105063219,-1.24381059183916,-0.0627327904587917,-0.20174211708148,-0.0963025915253568,1.00561780477679,0.142247878078562,0.471850444481748,0.299935253116524,0.642734793530452,-0.260896483713389,-0.211647584632535,3.1762217552825,0.618365572979911,-0.771863251410087,-0.176815786089719,-0.101312795326505,0.0201952688112053,2228399
0.742552913752855,1.18131836485062,0.863116760722,2.78319112872354,-2.44104665763134,-0.623105994225588,-0.708681411635874,-0.228745618298132,-0.860867465061648,-0.325580456540737,0.412936802625454,-2.2658436282198,-3.11013949433524,-0.892420950950031,0.465772923364997,0.457789468010084,-2.75683790474229,5.44298869675589,-0.00516643505870928,2144796
-1.22058709194831,-1.12880970359421,0.165775971405121,0.632328981228084,-0.413810505182179,-0.0886924628466292,-0.994743119975064,-0.082953884183595,-0.915122519183408,-0.478295566276786,-0.59957357232967,-0.390362640944915,0.648366035775337,-0.927684981260135,-0.126575520554044,0.736853285065362,0.122991191080837,-1.57183961568433,-0.078118125211804,2234271
-0.315793745796279,-0.119476353164366,0.318970522268964,0.454619434073972,-0.604792411516736,-0.185786192041264,2.124432301063,0.0152740832957108,-0.125060644998197,0.24968953746975,2.09612409609806,0.13280457947917,-0.342634743622085,2.13017193554915,-1.25059403328411,0.775582595122624,-0.245189419165186,0.209891893402745,-0.00171816944839341,2296332
-1.15206186347145,0.351307408957202,0.300120091877626,-0.671673158138991,0.976148075410522,-0.145079234531078,-0.594133703366395,0.0504953470169961,-0.698554049019837,-0.248039196681716,-0.0747700327500226,-0.864613645968541,0.928360316264758,-0.857473497826001,0.696272597661032,0.975032675996006,1.45103905167833,-2.54589600215607,-0.0866194756791816,1684230
2.18724065688511,0.484475164821895,-0.763851938355825,-0.0573243823438848,-1.03771413116038,-3.92088510568696,0.134512662979111,1.6306908968539,0.0120919581141686,0.331535253818957,1.06327946937772,-0.534952356686979,-0.252711183008199,0.210574306035947,-0.33156743011097,0.385197298760741,-0.153707585609082,0.16634772743068,-0.00547455931352778,1720713
-0.433881680927048,1.24434876830939,0.251934006001708,0.488246747797514,0.271378434559407,2.80066519035761,1.13909770481519,-5.55528397850284,0.357331264318305,0.483404690859222,-0.00623469066553303,0.330364983723506,0.124497166628309,0.476204748592636,0.802011506510333,-1.63198466131369,-0.26420597234259,-0.266113687316218,0.0790043024785895,2186951
1.76997361750812,0.846114854725202,-0.163103790785105,-0.874980617411627,1.47046297017622,-0.0091675734498029,-0.640448533508833,0.157188948332978,-1.0029872807824,-0.470166975110791,0.10903167076868,-0.134859465928425,1.11005653128264,-0.524546351191971,1.93493347854913,0.0739690414060445,0.839164806200668,-0.709784680724009,0.0131865068602187,2439458
-0.0606200866057278,0.734513097936311,0.600404518793179,-0.53019888605775,-0.24370134361684,1.03866426408815,0.468594134233272,0.0105766170305253,0.615514050464346,0.663365461286866,-0.462408162596325,0.400607965538198,-0.020098773237307,-0.171791374450337,-1.22558033208959,-1.31063877802672,0.214078678239932,0.310226565092185,0.439530735184185,2135748
-1.70418048689169,-1.40507068219527,-0.337419252361673,-0.649709958867836,-0.488118917758561,0.064744584415375,-0.806867213947158,-0.0792445535438195,-0.441364640221011,-0.133681597923115,-0.235119174299087,2.04010366465638,-0.910786942188749,-0.882359211034,-0.553378787130265,-0.689494741522507,-0.43835797275818,0.399430841359162,0.179643605036442,2141116
1.94471161073062,0.0405818834601871,-0.208655842138594,0.00298543818792569,-1.30198649926044,-1.64908133559736,-0.663869853988121,0.22190515520827,-0.703919067950468,-0.557685566224042,0.36958297492052,-0.900193091821792,0.0176790026246328,0.242433174784795,0.367622187308126,0.660325507798332,0.398964754499708,-0.220788778077368,0.00701344139007265,2108003
0.817087360336138,0.538936155720946,-0.364661065789458,-0.971470343840635,1.10182364198668,-0.138477761179595,0.121792174609795,-0.162156268969732,-0.0486016496045864,-0.293194973017077,-0.00998754440423736,-1.15282788854999,0.793412023068646,-0.545652775426998,-0.563837720278331,-0.481622394441702,0.136514842875883,0.0959298213043672,0.0259059067434064,2006164
-1.54197825682339,0.17391072408072,0.218290579921864,-0.543354379187803,0.59426906054789,-0.00348020783006818,0.256538557535405,0.396556783242402,2.45360539603796,1.83043951248756,-1.20475089539424,1.40016133157787,0.305474061092971,4.12817603355154,-0.0463240058455217,-0.355403471234224,-0.376396867088361,0.075397361329314,0.149196421759177,308862
0.0247660568697005,-1.14264650277272,-0.781763297705945,-0.648430788044071,0.779196882189006,0.177271991296409,-0.671990233647485,-0.019880424173616,-1.12027639686686,-0.481548123122981,-0.228457883703132,-1.19998110485442,0.353013781574743,-0.567478069319515,-3.41359490315922,-0.334405552797762,-0.516609707034089,-0.140862014403099,0.00332194880372159,1085983
-1.1574582151345,0.911579642653194,2.44991215506751,-0.239569672014691,0.334365896061653,-1.22656690205522,-0.357311109920955,1.44191270532705,1.58273811909873,1.22812756763721,-3.24133159623037,2.4695209654393,0.412641661942998,2.84056578649724,0.820017986494332,0.141868293235834,-0.455981284669342,0.170815909545072,0.0768169352678487,2004451
1.15519502878901,-0.289241778114916,2.16470794133046,-0.15136667970319,0.403820879359943,0.0159909797669398,-0.447728972202621,0.142783921900313,-1.02061653915414,-0.331837301664382,1.18869193505258,-0.0219629512852676,0.20239162269993,0.297868530973871,-0.0585468179697812,0.265593397286872,1.19183117140732,0.236634807278534,0.042291243157598,2359944
-0.189232654522732,0.647243101846018,0.290956604890081,1.79045797832073,-1.55319294707041,-4.51314521415708,-0.00738459112602491,6.4895336233773,-0.288815953291677,-4.09186077379749,1.91095588849529,-0.806399840636575,0.841879838577153,-0.608338485354466,0.182234952037139,0.782186928646634,0.683892174450235,3.54175767426293,0.0322755475369596,2069079
-0.0888918121104065,-0.334313901818929,0.576347291984408,-0.881358874655868,-0.236551026881601,0.462925317997876,-0.615622256395232,-0.121609263614323,0.661282038154892,0.615293592616957,-2.88776031222929,0.0485680578516233,-2.13011810171593,-0.892201291757526,-0.0472675248117794,-0.243960531810347,0.308095310372134,-0.857074556550119,0.0149541240428761,2059713
0.0576406696415911,-0.257680137834397,-0.0684538748966698,0.332425203765342,-0.62816192553811,-1.53671138527797,-0.627389710302287,0.243369007906887,-0.680432450436921,-0.144164962666584,0.690174164354977,0.588196167184895,-0.905057346987927,0.369411553893905,2.71856136204499,0.474948107374731,-1.66716220492921,0.531231773569529,0.0182257541512262,2294873
0.161207402733179,-0.12458192059837,0.432184700135295,0.129782035219599,0.537922039627298,0.141766400786683,-0.853512647187548,0.111002858172845,-1.0121928588879,-0.491348684864725,-1.21054938510681,-1.06277644363895,-1.59308549565348,-0.771420422919053,-0.787619909029895,1.12024921280686,-0.0480108716249008,-0.267872005933212,0.0272601185397591,2033049
-0.771368930463808,-0.809795994437335,-0.292260752241899,-0.175621584415298,-0.64956644455102,-0.344759640871298,-0.60946729939802,0.00481170095624401,0.625592157909586,0.654168502650363,-0.133981217804723,0.107894039480801,-0.436946777827478,-0.151816267924811,0.184068650235537,1.42066778176304,-0.57560845644738,0.211333136379175,-0.0856896774043518,1485662
1.12971659856296,0.934303376513441,0.195769529022929,0.502558268474537,1.24005098330192,0.481015376073494,-0.647187069603463,0.343886741086968,0.0456408472300554,0.339351681960919,-0.063962974331503,0.807209084285018,0.216073795777712,-0.79144662185375,-1.51830980744954,-0.482074135674564,0.529395732927874,-0.266704760293944,0.0894278844421293,1526417
0.494326355951701,1.42599281943229,0.713071472102618,1.30704444507841,-0.902120499505327,-0.0867122185052484,-0.350552913526859,-0.783807128603532,0.713543994590531,0.789427142146076,-1.54059282629967,0.337069478117141,1.18010232763903,-0.666075940768308,1.19425822158941,-0.190677483590912,0.904248094743225,-0.479609826481526,0.0893542488271896,1386095
0.640917297559062,1.41545814245407,0.364567454428737,0.271670269419781,0.122065686521728,0.0761363770077457,-0.336261494301016,0.150116518714882,2.5882144705312,1.90226741802314,-1.7728285074187,0.934921588439796,-1.41862345205427,-0.773284746038241,-0.215152184151172,-0.770445250778202,-0.152066548641501,-0.732005791688268,-0.0114186633168166,983079
0.836255516006738,0.643328236639506,0.434772903125817,-0.518451839800389,0.486689930240956,0.155864593649981,-0.94525826254748,0.110835593861791,-0.779776329540621,-0.279920123324702,-0.318468519065218,-0.0544667071492936,-0.741884039138984,-0.816746979448787,0.0383749583731502,0.447709985646639,-0.947289548855312,-1.20145272874961,0.00548245947026396,2132424
0.381021591964544,-0.446177834348646,-0.250505308933275,0.744395217122325,-0.266299931628212,-0.137066494807744,1.25840378782994,-0.301096878314889,-0.194455772624295,0.204884366223366,1.52937882828985,-0.190213389353286,-0.278779246316819,0.609660336754142,-0.457931257322915,0.337186549013449,-0.112795419732202,-0.277940610622674,0.00361949058085823,2138375
0.379627499558329,-0.579669252615925,-0.150967909303187,-0.740299679743047,0.349484066916281,0.0545735516831483,-0.592948570063697,-0.0481835498542291,0.222195914682329,0.398839692722349,0.0123027075811221,1.96946815003092,-0.408413544793601,-0.769689086849047,0.297377519603743,-0.0852314594507476,-0.258982477626076,-0.539142405745216,0.0229282960097958,2490180
-0.712230092581853,-2.09767575804064,-0.438777307957462,-0.51958093193339,0.51696277174261,0.266123226552583,-0.155796255820515,-0.220595996789821,-0.58102457616991,-0.134562217559523,0.429882323441502,0.992810832010475,-0.0168965783831248,-0.209406402789379,1.05791929453243,-0.248372165365577,-0.0482097419070988,-0.0314790497425657,-0.0506783898384186,2034136
0.770892452658946,0.244419611742273,-0.17524685188468,-0.396614146562551,0.570739388663976,-0.0982716791381078,-0.294245497138019,0.207476258341699,0.876415615822386,0.82062848656537,-0.823076829815015,-0.778592884291996,0.541987635631266,-0.610496419253264,0.736615103871107,0.643882105010821,0.100183460342258,-0.198188603658219,-0.0592223538230844,2510402
0.847982739235599,0.759341664622097,-0.0488199154549029,0.162314440045719,-0.0585557883474531,-1.02214869370005,-0.18335221464773,-0.76785673781701,1.69898179830694,1.38937837987417,-0.886245199311345,1.11361747753752,0.394720373576052,0.864325560762148,-1.59472998655236,1.17142270077795,-0.339737410350066,-0.489157825706218,-0.019994381688145,1330263
-1.53519567142053,0.346166148594913,0.220807281788578,0.00895687659894793,-0.858094566111702,0.0418920550052426,4.94970395753308,0.799750862616472,0.824400619588994,0.769627374799059,0.480212599955314,0.0632786922365544,-0.0603248922610501,2.61536462413645,-1.47392311364166,0.445392587171321,0.0128416033810291,0.131023586717342,-0.0722800556548691,1768972
-0.328253178120196,1.17626393974033,1.10343128381413,-0.430188007601711,1.89170271929514,-0.183980472926998,-0.15790160182486,0.0482878704124854,-0.538498582772069,0.0347604232239558,-0.0497740969973715,0.864012490340157,1.69055242738208,-0.584098079773187,0.760253357271703,-1.03031830739221,2.05936823969453,-1.71067971268094,0.0310701223758764,2306459
0.513210548200775,1.39657707930902,0.616659238739912,3.43988669609329,-3.61391570821396,4.87413558800789,1.23664830250581,-3.38872609085227,1.31841551297755,0.456455715673144,0.160244545731001,0.290138017361675,-1.70888775759241,0.366297700237297,-0.419306627750817,0.603995708448093,-0.244396408474682,0.039559499346725,-0.0121907738179269,2181724
-1.26152151476905,-1.80229327930579,-1.55666378364517,-0.270216005493006,-0.0691579158578699,0.0540250529574998,0.97134012355722,-0.0606592168368522,-0.0351848502993549,0.172143186494031,-0.891587649633405,0.375632853042821,-0.42494911334016,-0.421442072218916,1.42274560852854,-1.2060758142847,0.0103193234824303,0.00995878866631131,0.0152747135496879,2217034
1.30035120585425,1.33281846951863,1.00996420173907,1.70089483471707,0.190497609803243,-0.95822338532527,-0.453890906527472,-0.00100546530774327,0.192433467925972,-1.33262913730863,1.93488267713329,-0.463608243870639,0.373272915863709,0.0157888457529186,0.544879475637316,2.27643709595754,-1.11208024227828,1.66334615097117,0.414573314039384,2218615
0.620331178244072,-0.907248996783099,-1.28902292269955,-1.10987670537394,0.628383271991708,0.0362520883315623,-0.693116921051512,-0.395678657051103,-1.11991394793553,-0.57369664381379,-0.370408359235839,-1.02673904283978,0.161880330109707,-0.688289956149198,0.339769698323238,0.239586744821407,0.191014902684338,-0.237638599508068,-0.00745474183719411,92173
-0.55768694011471,0.994589255482755,0.392760534412662,0.0620780428326274,-0.227103482838366,1.02774050611575,-0.41049466413224,-0.536105654256518,0.395959622010946,0.472738433819093,0.0984712743953727,0.188224774677271,-0.00906836552840973,-0.457245248894438,-0.130502614444674,-1.78987473334175,-0.195490000966598,0.271525249381697,2.10494724787981,2414406
1.42957601533797,-0.918018017926968,-1.25167581380887,-0.895659976589325,0.678470571331791,0.014172544877349,-0.226568476853189,-0.0580528274119866,-1.30754319245637,-0.565485642461477,0.165115908865416,-1.28853888595301,0.406753038277561,0.517225229068127,0.609700545441701,0.618923374705629,0.0963184488993749,-0.10399943151869,0.00871468881755017,2381907
0.97403453279757,1.11993979181553,1.31574978939606,2.87879449535292,-0.749244158249283,-0.071115964208117,-0.821346382834907,-0.155918714707272,-1.14676548891596,-0.603129095708127,0.192507859405598,-2.1885044688388,-0.942038789797859,-0.855381993601976,-1.00401367196225,0.450491323949304,10.2588728740323,-4.56494960658054,-0.00673219312481242,2002465
1.0626710248824,0.356029928514951,1.00726630468149,0.275187623309525,-0.461794361605036,0.191120902993293,-0.287861173850544,-0.15212720847936,-1.20490226335302,-0.411915236580444,1.08844013660308,-0.645559096600589,-0.94534329112005,-0.615619534727532,1.09136379397711,0.256576221285195,0.393079493812009,-1.09046999618193,0.00876334502710571,2474709
-0.309305306874601,-0.780441198715234,-0.981565615163722,0.603937870165594,0.225741803082817,0.384864027235443,0.386823069167194,0.1728654576834,-1.52332818167354,-0.550668898094329,0.640148842540404,0.188113472083741,0.309171960011638,-0.411218525138697,-0.526382906638947,-0.466664670589711,-0.262437482241411,0.995613343859991,0.0700011344760468,2176530
0.0482815896121929,-2.28951591185562,-1.45234275065626,-0.877519619919762,0.710044916577255,0.10641510375442,-0.544316140235964,0.0586181655526107,-1.73558863847229,-0.872654707695988,0.0504397640718898,-1.53176479015616,0.428388342500293,-0.396336683460032,0.439296010128256,-0.475112679914682,0.35422782384197,-0.138144463177747,0.0577011516915375,1279943
-0.152620906322387,0.140742700757677,-0.632617444704266,-0.836213483116343,0.949180590028895,-0.0886245224821098,-0.650813063183807,0.00829824096198282,1.11512713722132,0.915364812220687,-1.91001034695284,2.11363814454242,0.642681135006107,-0.4939214104562,0.209282189396323,-0.102193030659535,0.798871871792272,0.0414577812705618,0.0268003073479533,1976407
-0.428250750298381,-0.725394922155203,-0.565290711243748,-0.639104792967184,0.529598496389688,0.114345361841259,-0.666325319857634,-0.0899020411297803,0.973811040876681,0.746653546051354,-2.52170043451115,2.06219510537733,-0.0242447230078733,-0.622220611903261,0.597043394906706,0.596238381212984,-0.00680964298623224,-0.14132697220634,0.0019727764589507,2250836
0.767179776766981,1.24213175095216,0.465532909516429,0.993029855844799,-1.83811971638863,-0.402855846598678,0.862798601986033,-0.446667117726705,-0.230823775454888,0.186564699383235,1.35547885305719,-0.568270065868602,-0.143102467562942,0.954396414659344,2.40179492329956,0.743451083590113,-0.385828914544318,-0.452823069922157,-0.0788781391070377,1915938
-1.16609265705026,-0.213570215177794,-0.192587202145431,-1.10467901547652,1.32562648479194,0.00887889941652213,-0.948706582961586,0.049001241547611,-1.27080582385745,-0.702678180987878,-0.669118095203743,1.92598537039872,2.30524143994939,-0.958323313087131,-0.574277630936234,-0.5574586831448,0.748783112519468,-0.594352117972019,-0.372229408347119,2133380
-1.36133897032547,0.0584807819196549,1.07487276456974,2.00119786958376,-0.984911135066042,-0.321562483803092,-0.891364072934734,0.291981812277841,-1.17734016794746,-0.523407753661939,0.102677222582158,-1.75948224978104,3.34698617936882,-0.901943478161435,-0.00637973764203389,-0.293149478886467,0.65429396072999,0.558619987284333,-0.0639287037818302,2271329
-0.359711005836793,-1.87585582885743,-0.780545073950735,-1.22404920875404,0.917906634294299,0.138855203907304,0.252269011989904,0.0249426773681428,-0.526645310157819,-0.096353566017449,-0.141184454238884,1.00888598521383,0.327432630180582,-0.12968196284357,-0.430531106295541,0.0266452951223359,0.321013822937974,0.128395720909729,0.0155660395617823,2286108
-0.28594259482616,1.23523451794759,1.7830840523439,2.40650427756586,-1.41267000577625,0.674668543806682,-0.390005142357552,-0.857568702574244,0.200146918798026,0.486347428719373,0.707011177192218,0.287011349085336,-1.84742336827445,-0.151138113917288,-1.06551166003669,-0.358379680431433,-1.57995289772317,0.996660440674571,0.00828557407466851,2040495
1.51476289445887,-0.770610866575785,-0.782332405344061,-0.863446824367055,1.05380416943382,-0.139306946455642,-0.762192638064575,0.237778134980435,-0.519280364289202,-0.135955428966081,-0.745665313358965,0.621148531975517,0.558671479999317,-0.157540771223522,0.281712429564938,0.664459054682918,0.330694901314416,-0.356206960383436,0.0115596596230713,1125173
1.112565760296,0.841346957637396,1.18851512958785,0.255983195829684,-0.9759474016683,-0.535030177508488,-1.04296123622693,0.901313970296351,-0.63949246212207,-0.31776677641411,-1.29535018458579,0.0297324304010329,0.696826730965357,-0.896129477753525,0.769022599567066,0.63451529659038,-2.35454949976065,1.58364295747243,-0.0182574590705866,1767700
0.0929387009304252,0.0674242919702032,0.343553959319931,0.29172213450338,-1.00960587645909,0.678101290719262,-0.47388344319436,-0.21935606383881,-0.174589257197651,0.217384619559642,1.06492928044719,-0.0423848531032226,-0.868318860991277,-0.345302754665256,-0.874786396694213,-1.14596525753816,-0.686549996845642,0.551089180515987,0.166792724383612,2138678
-1.05613591414118,0.876058939270939,-0.152214867920853,-0.957874092558857,1.1009786699965,0.551132064378287,-0.431456783768336,-0.43331872930941,-0.676693971541809,-0.162726082631415,-0.034805400839345,-0.654251744191696,0.561617463663572,-0.432411190735724,0.866370416217484,-1.18596937310641,-0.0233858864815421,0.395304334944366,0.195557333133439,2443354
-0.663051869543605,-0.951861067250019,-0.0411755896668497,1.42455435252732,-0.330413228425403,-0.20888135370699,-0.938445773729076,-0.0444880723658779,-0.929410481782642,-0.448339478819873,-0.627002321672022,-1.2459023458869,-0.374644087275772,-0.873222571759106,-0.215423039122777,0.267739555519257,0.397817697779401,0.121975053825864,-0.0590906747297114,2234422
0.662885662043896,-0.640412478825193,-1.10328583685537,-1.175122510206,0.802350338512423,0.0902701372639536,0.179460832680824,0.045408901025579,-0.594612484918887,-0.108682910165128,-0.0885132640316866,0.990647653360598,0.72723674524401,-0.562516237222509,-0.168811451720471,0.923902752128052,0.515401494862038,-0.0811280342617718,0.00275568853067427,2151024
0.961789810081245,-0.23349572711049,-0.14842540671,-0.116525704312753,-1.01316723672231,-0.233562481473524,0.0997574362462401,0.57338133348791,0.806160150222235,0.806234180459287,0.611494177009366,-0.486511938632935,-0.236283910657025,0.568705647985338,-0.480057790795632,-0.394152406258536,-0.131171237886978,0.772726309032006,0.0169468763056459,2057358
-1.04753246973952,-2.31515885061712,-1.3760193333801,-0.78615828480534,0.360823593747384,0.0245706297913514,-0.513524508368699,0.0163663188665953,0.329642636065508,0.257948540042958,-1.52088672447136,0.424487894498735,-0.253757340613112,-0.807018735833758,-0.372045268964057,-0.314599990466042,0.0151905659221586,0.717904025078218,0.0185987531742002,2425694
-0.878624300869833,-0.267740594849032,0.00387067565358534,0.545747479930288,-0.332506301131617,0.574982773205406,-0.231182806734915,0.276970901944093,-0.418559203646149,-0.0277776870681644,-0.647846909531969,-0.0995060238147105,0.0170301034645656,0.254791963858763,2.11316608305052,0.34035278736907,0.0947384854626916,-0.159817185351871,0.0367459273341582,2500377
1.42966940775453,0.155293773159927,-0.7949591563018,0.277082510517271,-0.54102151609128,-0.117785233989493,-0.070868360934628,-0.5276592272337,1.51628162766509,1.23501690648344,-1.45154208809449,0.378122292730232,-0.472777326996356,-0.342064838196924,-1.19880293002346,0.905685931615687,-0.107933930153194,0.497895998312454,0.021878228273186,2183356
-0.939550208652891,1.42597440684781,1.98376702039236,1.50754804274644,-1.03597780473048,1.71688699505324,-0.0754107129833649,-1.45207482571374,0.977025643301228,0.844544008165621,-0.441756574386286,-0.0525788112498366,-0.899066609295522,0.0281554213904801,0.226148388204847,-2.08835956494152,-0.633765753097647,0.245433125166744,1.75830288282715,2131601
1.55238343765674,1.43797146622646,2.12882752341981,0.331376987564838,-0.646723033724193,-0.662716792809738,-0.265675646106542,0.0948122550035143,-0.0521442816022933,0.238775864099496,0.32913198233444,-2.22346537814174,-0.0800212567830136,-0.415375742729757,-1.83955626118853,0.334461634703623,-0.86405558501432,0.725628617136423,0.0274159333879935,2152442
1.30816852814525,0.177232449801408,-0.00142296463224035,0.306230670485158,1.14011043593521,0.858010899212768,-0.765570168717626,-0.13795943907735,-0.973852292393796,-0.312121599280024,0.201087049094602,-1.7632554926656,-1.31185639317434,-0.269740596031704,-0.892478070420778,-0.0678975483996006,-0.4135584028151,-0.742646167093814,-0.0105949700283602,2306893
0.934312105866544,-0.378131981742027,0.426720191505918,-1.03005603653876,1.56150420338225,0.209185079449681,0.0286897992724875,-0.289569025049375,-1.64554998213101,-0.683423479946158,0.329906874318099,-2.00764795000554,1.12323345040932,2.23558676649937,-0.325313668560448,0.356016550019495,0.50334936500386,-0.428569403272299,0.0208693713291024,2009915
-1.39460863126364,-1.18984690644332,-1.06398474092585,-0.203301502982201,0.209721274139951,-1.84402259671283,0.132430087933943,0.0840011560887856,1.53683181567397,1.15598173678968,-1.58551006221928,0.435871346011347,0.0969221937542225,0.126384463946616,1.27600110832422,3.19938942388123,0.0360214089783966,0.272466273155022,-0.465251809680079,58325
1.96140427855136,-0.397785716077399,-1.12108187974377,-0.886926525774441,0.636497875404364,0.0134566718779982,-0.118202216063351,-0.0246445913273552,-0.903584080417483,-0.255512498423755,0.0350313866679977,-1.5405466497497,-0.448026811269623,1.2074811633352,0.304864803313265,0.457133183923575,-0.0111629311862549,-0.366923308132301,0.0128725448447632,2395943
0.650791515377267,-1.0536397559074,-1.5893834896243,-0.885994901935047,1.02031819607492,0.303504464195362,-0.155743460660904,-0.0646601848632054,-0.786750046975152,-0.261441076290152,-0.34214236564079,-0.603439986148708,0.515563917225183,-0.650535477405297,-0.0351651863523364,-1.53297498793692,0.179778533030987,-0.611060885941269,0.146322219610557,2480330
1.2742440179746,-0.117413697151752,0.273919109916689,-0.142027826712004,0.78055278181139,-0.00606404801840052,-0.993149911260134,-0.287904430652676,-1.27605259438218,-0.650100514395811,-0.395113062511678,-1.11533335837748,0.71386594176931,-0.0591544231025641,-0.0547928578396317,0.745288049721008,-0.613600016474802,-0.274941559818479,0.0116631984458991,2076301
0.223870389412255,0.161134241249663,0.121426719103147,-0.218426034110329,-0.585361914000424,-0.248020636247329,-0.431962402423123,0.163429451881378,0.158585904164877,0.414994560796075,0.524670698675602,0.834574228807939,-0.160300177618649,-0.692404574122554,-0.191169304360107,0.486569761539668,0.0390790274835246,0.339250550792913,-0.125589808440819,2205389
-0.798234533831958,0.425517796322868,1.15638322611885,-0.250895403795611,1.68774571086561,0.235774517299772,-0.706551010626881,-0.328873924874767,-1.47604386600237,-0.726042108654627,-0.0429406832882656,-2.23864416313,-0.273991746228409,-0.779432679718772,-0.349129144444569,0.736515214981739,0.791241826469925,0.0320753737677494,0.0849827125593185,1975401
-0.529624886625327,0.916930183738138,0.676850825552412,1.97611078950763,-2.05643586060613,-0.535188467026645,-0.285457479134242,0.439351493394884,0.422499231054338,0.614903477070158,0.227590169030984,1.03550004963993,-1.61633901252832,0.303564922534309,0.419403023768625,1.01192146835141,-0.640464937273011,0.656055271694881,-0.0135645138285681,2250648
1.40061082117604,-0.148408015056467,-0.965461306567758,0.592447564050688,-0.148106150285506,0.144544999808658,0.746848031538139,0.105814367492819,1.01144018312979,-0.60748727945225,0.723779110599749,0.596974628225958,0.314825492891312,0.733604149796052,-0.0532341388702075,1.13308572930203,-0.184592038394582,-0.311372837096042,0.000718858383262594,2185290
-1.49991787571038,0.0358815876700518,-0.974586780922082,-0.771201655736986,0.479621376494452,-0.0698105817715347,2.67865350929319,-0.331842392208512,2.40497652546621,1.67870721583125,-3.53899354890124,0.0645285099089682,0.678515605161179,1.47577572891401,-0.187624607855601,0.12530842367539,0.300558658358115,0.0718732568823361,0.00811769875076099,2091555
-0.720829549832318,0.387042422588408,0.244279320582696,-0.43029421606455,0.59048875654911,0.555933675633099,-0.0935763235285045,0.364350258405148,-1.10091210892035,-0.278411328386624,-0.0747972753516952,-0.0357551268640114,-2.77762350754937,-0.646677451689071,0.424270507768279,-0.53125634058855,0.858891685573174,1.70786762845767,0.0174380346094867,1232870
1.35680565274,0.963485013584414,0.454956086926659,0.91391604997716,-1.3879734711139,1.49730037374187,-0.413789774694152,-1.61286174879649,0.00503220671119835,0.356014618930382,0.802973540586396,0.0537992797476549,-0.448447246832251,-0.419407326230673,0.311189591049653,0.295259276391196,-0.211284672974782,-0.222802673985402,0.0307415476645318,2139733
1.24634165709391,-0.180789512069685,-0.281394810710884,0.210451195728741,-0.526083403044706,-0.681797671080095,0.5871369061803,-1.3675542371134,0.322657968498438,0.150255740145497,0.803840503389277,0.237796910705261,-0.0359962975012241,0.387417699316406,-1.06375430336937,-0.177249487593297,0.106140857827972,-0.208462589206288,0.00985441900599169,2559453
-0.286011099431176,0.631293489105734,-0.365861061839561,-0.60225529985807,0.512055753293527,1.84570630868819,1.68846368227155,0.048029770147551,0.376214830496067,0.483926422284888,0.962764670972444,0.55812322597808,0.207623664598147,0.815469051408093,-2.2826630821959,-3.2459265785548,0.204407607823817,-0.313361612961819,1.77875894671466,1938156
-0.715925657698217,0.604535444384045,-0.334994328301515,0.841467522058621,0.353750502555903,0.237316602106397,-0.501392163984254,-0.284225150135238,1.62443313910768,1.23124422308851,-1.26755651940688,1.69428225835961,1.01639966259869,-0.289767648779406,-0.767824645881765,-0.674458157454966,0.0530928679401248,0.963282660879622,0.00346152189286787,2158101
-0.185328497287974,0.937002468930686,0.830314169499287,2.18430502281095,-0.740566004691512,1.01886086452779,1.9529084359778,-1.71000584199281,-0.536736670804905,0.00875515809993414,1.58611221787814,0.0363094790768832,-0.215005644701733,1.54620289222489,1.39225573784119,-2.68555966110958,0.0782679015388634,0.664788516674416,-0.095869512936734,2199403
-0.59126431353707,-0.0497030410523141,-0.0632934017657725,-0.892300454468751,0.91627991568371,0.0960392178631713,-0.745803537003273,-0.320986517955737,0.107405727205491,-0.0587078757860127,-0.852369709852002,1.94138421165969,0.58513029484011,-0.818683398322019,0.587040629572504,-0.279321341669845,-1.28633920193071,-0.942480540269884,0.0511958866936954,2430773
-0.0909864054109708,-0.82520223918908,-1.17734511744491,-0.0805004069948262,0.356239293315358,0.112505313369398,2.03091018727608,-0.0730808953990085,0.0085657702187523,0.221589970881675,-0.0167130772911896,0.638096263526634,-0.247883318411602,0.154186042529062,0.509170136409744,-0.723631185920932,0.0144383389454818,-0.472292261383726,0.0182596854567097,1738800
-1.85356533346106,0.136131704165976,0.0960192652035336,0.683474349476225,0.380520341807204,0.350275424298416,-0.924777795928074,0.235635777372494,-0.886971087193784,-0.398502639750961,0.782369001992391,-0.582278899167597,0.0775598347126962,-0.803288557216623,0.86404139831124,-1.57734704467265,-0.525235145647922,0.00247033072971772,1.00492634726801,1565177
0.694753794041489,1.05797261309249,1.68600565537012,-0.897893490385612,1.58392146296909,-0.353921149425478,-0.51684998037911,0.0744684735428395,0.702699058453758,-2.57318355382086,0.656144688954272,1.30544537339589,1.47601347873069,-0.585430985027377,0.0115056040342681,-0.493275878500573,0.0338222892604809,-0.606736219651298,0.0247527032025142,1978972
-0.0968387291640768,-1.30313118303752,0.0860087144668225,-0.473632565388067,0.297918140483424,6.00426292501351,0.0156647997000547,-0.832244974775286,-0.544624573972244,-0.0723795546869512,0.809989832633357,1.26683102018309,-0.0451105276761425,-0.394523144045214,0.691183316147876,-4.09053895115758,0.052652227677803,-0.431090598336967,0.0354860993494333,2487135
1.45039762641493,-0.488679272528497,-0.758521875443427,-0.564998778843959,0.512634951800905,-0.0769693476760433,0.237016963197658,0.173899714923643,-1.32377748384928,-0.72123817583594,0.768757722242018,-1.40570483214198,0.443557868322828,1.04047646754652,0.30134191628334,0.478225124861512,0.243706617777405,0.192808940257041,0.0187388358404236,1612262
0.172164867108263,-0.928459302797914,-0.467879314423533,-0.715699492990822,0.621736140748167,-0.055354128335725,-0.518011292745389,-0.295216398115882,-0.74732833665262,-0.15642979634878,0.600570598970902,-0.411484644572576,0.452302341080306,-0.586312870194736,0.552830177073381,0.374052465164385,0.299482567662895,-0.311916438726836,-0.0235218650604487,2051378
-0.504497898488813,-0.230597125992498,0.0604890093760522,-0.381164996654956,0.151234263262692,-0.551936833989888,0.223804105415564,-0.540425093258151,1.09095250345661,0.9942367068443,0.180424802643345,-0.428163040840112,0.00710647228825136,-0.0320139679473847,-0.769493241749641,-0.0130349569224682,0.043279298884185,-0.063927574285194,-0.0289770439323122,1497807
0.391571520511204,0.714552248393779,0.344220942522066,0.221131488088015,-1.15290607321567,0.693049841444443,-0.13063234294969,-0.709350522522488,0.441871920530201,0.614939241230949,0.663384040033511,0.00821109685764472,-0.104653252884099,-0.763812152489756,0.415418507146476,-0.0239917493018966,-0.613407966750486,-0.935872736736704,0.0502578956357809,2026671
-0.339531327443292,0.449528267504381,0.0381285983242792,0.0423182510218367,-0.74340977533739,0.199404976697652,0.709881622304914,0.425604804574137,0.828996911949997,0.808619038725657,-0.376283935723869,0.350681530414771,-0.719114607700828,0.726644928188142,0.561267656850729,-0.439188345591807,-0.298203499602269,0.00554758457082724,0.13380426396328,2340322
0.992418962658647,-0.0154867892924419,-0.0294729112339885,0.494541899010301,-0.790172238749621,-0.722867571704447,1.24514681912949,-0.117079986942009,-0.256684674206168,0.174491034239668,1.09298804902574,0.227366753161694,-0.26024279610967,0.743565931051508,0.243734669735558,-0.191658274209838,-0.383981155597197,0.347118263878076,0.0579723131417314,2293123
0.33144142573786,-0.334375162530811,-0.537554651624988,-0.0669170136273483,-0.737909401762447,-0.237988623781906,-0.215054109396093,-1.13198161527244,-0.71568960517897,-0.162759283582536,0.73028140334824,-0.177637045922214,-0.290118305399104,-0.17753480355204,1.20203168367821,-0.0675442131282771,-0.238202353741998,-0.129525632146625,0.0569568127389226,2395415
-1.14038162671837,1.01919234604822,0.0664964151215459,0.136406822934505,0.770761048536837,0.385492079675662,-0.188856180527848,-0.000410416632572621,1.28340657129736,1.16581264424563,-0.235223474874305,-0.65288637573516,-0.0322388440943907,-0.545225285165714,-0.414182799553605,0.375328187899832,-0.683509037687405,-0.255746069295058,0.102865136227398,1966316
-2.10186389007718,1.43325327008277,3.08514344893137,-0.6311017344061,0.157486457752788,-2.04085159638692,0.253634962638247,5.63631033408461,3.15881595817556,1.49565197312954,-0.871023034256853,1.9120801929502,0.434095638595579,3.32688147451827,0.783879814082667,0.885003404379416,1.16584155911772,-0.416156669877788,-0.303930053978083,1973544
0.346518108609734,-0.516670800017115,0.68031458127724,0.352468845359036,-1.00756574987867,-0.332234263503538,-0.851283172494805,0.106974370624705,-0.842332549431385,-0.327088584409819,-0.288059224988075,-0.144378811408891,-0.532949647122532,-0.762365553925976,0.126911356340254,0.658950910969752,-0.870940202435801,0.349535225912882,-0.0180354024356198,2010259
1.08946109526774,0.550975348410911,0.866988049903976,-0.490942941947272,1.0254889686495,0.053526919658808,-0.650755461644319,-0.0426359365539653,0.822141674777311,0.726411104843088,-0.529896912686977,0.0445475702745387,1.01223913541933,-0.884615697948406,-0.554962241725791,-0.429679010954033,-0.158733058585245,-0.594741170153962,0.00249892902974867,2145694
-1.12972015350932,-2.80517893461125,-0.407244197714661,-1.01552853600452,0.72382161613965,-0.156576557122623,-0.840810067086814,0.230502873452578,-1.48058874334513,-0.727571469248122,-0.052655193789069,-2.16786845821497,0.913631023376862,-0.701239946633463,0.432086672561044,0.43069920832537,1.94142453197641,0.235522108224023,-0.000500957708834001,965005
0.993662794608834,-0.154030365464421,0.0135101483433595,-0.174800071711918,0.391397051618764,-0.262945303976142,-0.693777296702112,0.168333297112614,-1.12106084333672,-0.430718107698756,0.585106243005277,-0.802045445278901,0.470806809992082,-0.813398175074532,-0.737699135697907,0.374469506585264,-0.465139865347835,-0.198489953073955,-0.0250012526092666,2096627
-0.678703325759621,1.44170889496174,3.10532348550255,-1.17655629832036,-0.455908744614464,-0.437569233859511,-0.356013775469,1.12867981717652,0.146526159882958,-3.00221361547248,1.42796257693657,-0.0525516228300328,0.831802904057171,-0.430211994006105,1.65812177110297,0.0868447188105478,-1.26261165183019,0.156655599025528,-13.0982386779471,2047354
-0.41424275917529,1.46215609590194,1.67860940340319,3.57753147012136,0.206997213131088,-0.791585567881544,0.00792051994666325,0.286947932014759,2.52745282968588,-5.66763000790075,0.722379318257722,1.64411367637239,3.35501270271548,-0.667875655636922,-1.38719741449795,0.266602357653282,-2.32321531979634,7.67588941878372,-0.0865084368511896,1364384
0.789269297251855,0.911812842613912,0.483686818643939,1.12671501948367,0.832411085578439,-0.00639251459467175,-0.291252128616874,0.332640703071238,-0.159405266751387,0.0277860084817246,0.949796973985355,0.224638565162967,0.737954027325334,0.168776915242929,-0.286397573214078,0.637645745352112,-0.0182615530097084,-0.340246625131692,-0.113600115605876,2244172
0.728191262431072,-1.75514186942305,-1.60209024906101,-0.330037469198473,0.261912330186045,-0.370844957373098,-0.622772516714775,0.08822262751803,-1.28759733744638,-0.700520388974093,-0.943313950610669,-2.05596432089431,0.356529198277018,-0.357349473218845,0.342054076552816,0.675913404519576,0.615266449259013,-0.114301043270163,0.00896314267018119,2132982
0.879016202619037,-0.166650289341532,1.77650483430981,-0.815843724395446,0.354304192351245,0.975857854518008,-0.925991293720223,0.00685177188285027,-1.20424118735906,-0.53111099245831,0.835967189459694,0.52144349876128,-0.0203475995023155,-0.950460976332526,-1.00947023234259,-0.310632045848726,0.138483545888764,0.601924980199409,0.12895731721587,2134220
1.05627718046822,0.654908748736597,0.315403498070965,-0.173631743775388,-0.0517376433151805,-0.672029963172346,-0.547797843231455,0.241545105704967,-0.162077458267646,0.194861674664733,0.892451561350693,-0.0243325919979636,0.140401636811022,-0.292682983160474,-1.21125164299604,-0.812626095945544,-0.0633156772026122,0.703451561837516,0.0602640511145477,1889409
1.22958848768827,0.317616522018478,-0.456894597756547,0.587880182005037,-0.740367817754065,-0.128835714558496,-0.131742099772349,-0.0454657441573676,0.429569356702352,0.542110583776146,0.332627267603274,0.250866893883235,-1.05818027718044,-0.611989019358434,1.04491833329707,1.22004203792102,0.0845632012772191,-0.529846532636609,-0.0587925591000594,1938561
-0.773284379225066,-1.13430591217388,0.101051029754849,0.719973821584939,-0.565981667771795,-0.0302503211987172,0.610390785218617,0.0129804178251667,0.423196460843394,0.617777621342116,1.4637129685386,-0.629037883385004,-0.626041075920051,-0.56531200220173,-1.01918411198277,0.274536810757732,-0.388237785213936,0.273714596022551,-0.00603135011497451,2055667
-0.708062826807065,1.4271569313557,2.49194465293703,0.552039564757008,0.516062596410447,-0.0493035741089814,0.0657698153133049,2.38243061114947,3.20247759644146,2.35093511332745,-1.08735119793183,1.33302972455339,0.348338065675573,1.93923811611734,0.844751950068931,-0.76783256086218,-1.11387859245963,0.17582781024906,0.137181598723429,2176784
-0.920432368914787,0.291428217859103,0.408043350500439,-0.884741534053123,0.580513642977475,-0.366622809749127,1.15225488806513,1.61647436993774,1.96840240193885,1.48938263690239,-1.45921814750998,1.15847412200746,0.265742359184256,3.04343714614023,0.61879472596861,2.06847039134606,0.313932069911615,-0.22206692439989,-0.0297872156101355,923666
-0.863458570886507,1.04094684188376,1.02202523816567,0.877347166038401,-0.871648389135432,1.06593804621643,-0.485893050588331,-2.41485537732684,0.319564556062368,0.472943851212489,0.839923233052884,0.91038743812796,-0.885302841216686,-0.633720580714556,1.03794576952891,-0.870013908676713,-0.479861443409853,-0.67156757639841,1.06914039333261,2086044
0.596190219360771,0.388604771271264,-0.118568032342213,-0.616185090315143,-0.347307092180094,3.17742500110824,1.75820254885483,0.294670967337793,0.184287906183605,0.351878931606611,0.843797971011076,0.159272506148869,-0.0224886864882726,0.876582415455487,0.731492440084794,-2.85422327103659,-0.070830610841767,0.448983863715879,-0.995943087572419,2078198
1.35868505749514,-0.32561564087428,-1.02329870002831,0.503533239862414,-0.295245786849352,-0.427863776838779,-0.533188032938854,-0.118551619601979,-1.05792937372634,-0.317033303360976,0.249126760528279,-1.19212365153387,-0.333855511201717,0.162277969756085,-0.392780822484747,0.739228262862057,-0.335436849895942,0.0429528210126318,0.0227822485758417,1501387
1.12893019063791,0.411789164721202,-0.891666966983277,-1.23765148827206,1.08236684672504,0.00742777895299451,-0.685353896872973,0.355837506222702,-0.82878894016854,-0.636662744896785,-0.793915552626513,2.49912915459523,1.39134105678137,-0.578802112351838,-0.985022805553144,-0.068815665212636,3.21864000989428,0.977038982472902,0.0234085352793797,1518948
0.328611285629492,-0.355427120488772,-0.900324208966774,-0.722897973662484,0.411606986449204,-0.116000892972975,1.92240907370775,0.157621625087806,0.68417369713694,0.694062966967565,0.310405018181406,-0.237677573209091,0.17933943222897,1.93253885041214,-0.991159152437876,0.451300901457002,0.0227941936663769,-0.165311625701135,0.0239996786541433,1606693
-0.963760352626843,0.0522137746952406,-0.198286621963551,0.699868782579328,-0.958009778992194,0.92813753578921,-0.485028470386881,0.164235112373754,-0.138374821656518,0.181125578944555,0.340314876369065,-0.0699980919567606,-0.665926718633379,-0.520200558683586,0.793396008068724,-0.878636800150879,-0.143461432067847,-0.280259755128241,0.0754412279260655,2305115
-1.01228102452216,0.00295247088017761,1.02966821982438,-0.284078614218992,0.102111891830837,-0.949730984496352,0.99846614575427,-2.29481883329279,1.94047912938027,1.49742203345435,-0.930035729277293,1.37311650062566,0.161511336442644,4.30772384820421,0.755643828378246,-0.0761221348144357,0.315179861438381,-0.0343962602632346,-0.0407255865150497,2237571
1.49957985527016,0.0481389294493422,-1.11827599336853,0.441001543863249,-0.512333633171075,-0.0163222974486063,-0.380548244891049,0.628751640011124,0.147216124785359,0.386045013507333,0.935126518069988,-0.930428313909235,-0.473909794407809,-0.632155918495105,-1.37815330739076,0.820347951918697,-0.0766020058064535,-0.284044962551366,0.0162513222183828,2285214
-0.0260971331927843,-2.19331407884617,-1.49636223230056,-0.693011232796189,0.319327483761186,0.518012220141161,0.0912672851139728,-0.111567129792646,-0.711016247202651,-0.233361869926951,-0.200672608412769,-0.482267996230676,-0.0364788975336261,0.022283196363856,0.632115088068302,-0.281761875729786,-0.0933907606997264,0.0491367121699029,0.0194021902458362,2426863
0.657031253747051,0.0229868704171033,-1.84414213307973,-0.565441627713456,0.0763716075160516,-0.217451389896448,6.99227685417621,0.379959383512972,1.20041139046052,0.562587839590286,-0.338566629824171,1.3263184330548,1.00770002860358,3.78686701937027,-0.583233579481319,0.0368612524089295,0.376811829540964,-0.347684763645522,0.0194415466837363,1979422
-1.11224834754372,-2.22001232855331,0.432884008008717,-1.77634966249897,1.46991097570647,0.147649633062274,-0.340506609197527,-0.465519199579722,-1.57227772240567,-0.722546025491253,-0.0507395001890343,-2.24063061705122,1.08250672007457,-0.154255218158958,0.351625102254939,0.528670679019463,-0.203616454010364,-0.935493249584339,0.0345040959290584,2480056
1.14986367198271,-0.226609267324954,-0.675516348671886,-0.376808916485506,0.485228895328937,0.0975527718131226,-0.903590186047682,0.0256264077681306,-0.963465363025825,-0.436819953967946,-0.505344270286394,-0.668911400289513,-0.320161045952492,-0.662450260145876,-0.625211551093715,0.547876659812971,-0.66955660373382,0.424048459219895,-0.00276789450160858,1668599
0.635425106745923,-0.406332095088536,-0.591110239134966,-0.759241809255688,0.560770030759178,0.312910202147827,-0.436589470876279,0.0567294674853006,-0.174583681186016,0.171576640258796,0.998136793192332,0.0348404547698719,-0.0174214252376382,-0.110146552314079,-1.40321426928167,-0.506845328400492,0.290124633355583,-0.156414087489585,-0.0127677778435953,2339674
0.164134915707873,-0.266660984792466,-0.664021682449273,-0.487471723229706,-0.145787583955392,0.660099286239274,-0.492252257985203,-0.0848993778753951,-0.772598001690058,-0.273784493529925,0.480140240585107,-0.0127715661185667,-0.344745581282032,-0.399851951876393,1.48316842639378,1.48669386418719,-0.389191331429027,-0.0308109159931323,-0.0105473238462466,2133204
-1.75981742118069,-0.993066970608606,-0.998797156515754,-0.149236307983677,-0.167789915308475,0.122968562883063,-0.0706541506061884,0.238245920986992,-1.00193693489924,-0.369647778992411,-0.0449145057998051,-0.287076383060905,-0.0204622402382459,1.95869011303187,0.667403071348291,-1.00665715410579,-0.330636788302021,-0.0670259611122238,-0.0107489580237313,2294852
-0.668461809774723,-0.759029648999956,-1.12538086432291,-0.51618233081312,-0.0519062190647035,0.219005631964888,0.199463725754312,0.0720115382796677,-0.59298140425597,-0.145960346288199,0.16875625867727,0.468654632816386,0.25046855437305,0.186075775529019,2.39438950211974,-1.02339412326648,0.00319190494136548,-0.126441607704665,0.0274730198550666,2445526
0.453350455836851,1.17386177069504,-0.684020573005054,-0.552064448808932,2.20646675400587,0.0745060911298109,-0.739653921837246,-0.0257708857481263,0.307453936327779,0.424350506481867,-0.0389029114383638,-0.92156573869443,1.95650123016491,-0.902103222300865,-0.327993340204736,-0.406000367722077,1.33163370377649,-0.699920199711197,0.0352834892430316,2200416
0.146082262977733,0.701350726168848,-1.78207758400027,-0.551450230772688,0.300053191278956,0.229599643655028,0.548125702476359,-0.121756753908092,3.02363704442686,2.0846503791301,-3.33254789353558,-0.80999041132565,-0.626461559592938,-0.285310214481475,-0.874752810229194,-0.168145711932438,0.43237071919973,0.212391749485589,0.0238296092919544,2168082
0.331618882309787,-1.30005173731302,-0.574411808981829,-0.35450175929549,0.0295687289086573,0.0576559102102907,-0.132926682962588,-0.0741756969907273,0.176264639894521,0.347460930552553,-0.256905501332815,0.333913922144784,-0.340177728585907,-0.348832480585701,0.475755287098861,0.0267912417922047,-0.252925865190502,-0.00447656152496285,0.00376518287955409,2075846
1.05275030721937,-0.366576648264332,-0.620838150899398,-1.07995691374419,1.05861681888954,0.0792210211098541,-0.0823005010966273,-0.0323730136304835,-0.264609235348908,0.109095464286621,0.407919747602963,-0.97822810482189,0.349750077753079,-0.367044884760964,-0.452956825960688,0.676143834176887,0.617606083210346,-0.0620732358581598,0.0186471989473566,215131
-1.46312035357372,0.24461932286986,-0.431457015689682,-1.0360576509763,1.16678922620221,0.204673934388577,2.29293220975993,-0.391121494750645,1.810243173703,1.34024091977055,-1.97054408924318,0.718294455176625,0.756820297420296,1.1906908840615,0.904492609784645,0.26335476458933,0.0884662682107763,-0.622780765629414,0.221438862637715,2274521
-0.426587955541492,1.43183825210089,2.2482630202975,1.58249790540792,-2.468380397628,-0.337052290264385,-0.123895035079178,-1.07402776420484,1.5601937326783,-2.42438783648794,-0.419694166634571,1.14406765806899,-2.15760455171151,-0.514281537209772,0.782192031885716,-0.073259497259513,-1.25837177822967,-1.28274964293499,-0.21335560386089,277752
-0.608413769533834,-1.22101672806011,-0.154271320233638,0.53457837775582,-1.30359746347459,-0.363597760624765,-1.05536217579476,-0.0445037864895152,-0.837266052531258,-0.514539464305574,-1.52600765409413,1.8289303584763,0.602611711099366,-0.960259575507604,0.266977567087122,0.676648198929327,-0.332746327779401,0.575016554161385,0.0453960155885278,2078899
-0.981568472560149,0.567423104693632,-0.224277083765604,-0.737156111345717,0.511895695587914,-0.784988936322662,-0.1711705447244,0.33548348463141,0.590930138369444,0.656573445059791,0.703688280603795,-0.772415165531874,0.70957022475919,0.701911417629163,0.0233262685463906,2.01114495142867,0.29817405705942,-0.0757361456520367,-0.151283829227457,2172217
1.43439481564061,1.07260813124296,0.977350640997729,0.00189826494626207,-0.183269685156877,-1.11703717999171,-0.280947286482367,-1.66080532572342,-0.106192961086649,0.190886683285,1.38492256423386,-0.080864963493276,0.0411241065825771,-0.136071660687182,1.56567844784342,0.964798777140414,-0.32429330427601,0.00844994644212652,-0.247209049140743,1614566
-1.18826075717166,1.22895305780932,1.49765582797917,-1.68232560665223,1.35179472689959,0.00857264042762193,-0.880334607584394,0.0610121017750184,-1.08467429416036,-0.527272938295378,-0.147842887962763,-0.410456582449105,3.23246528609622,-0.940246179911028,0.0332641434959871,0.222246410376259,1.26475670518015,-0.607613938159238,0.0550310608344277,2100050
0.295814649511298,0.911002914187465,0.716953317617407,-1.1028063769904,0.824357800111317,2.23488429132144,-0.0798814207133476,-0.231889286915892,0.216369479111195,-0.142890364357319,1.06024041693079,0.542171270301921,0.070210270835276,-0.196324456814217,-0.211169856904976,-0.46155655359385,0.19648804056039,-0.179166037145686,0.0557474180418364,2183291
-2.49221573043298,0.587437835395433,1.16661506644094,0.0540744964373956,0.077106155869615,-0.278062389795671,0.906055364585055,-0.480996566527502,1.57615093131219,1.10742980564192,-0.770560483489761,1.612402632873,0.496269080933645,0.500564174909383,0.248910228211872,0.445655180190811,0.00909489907955929,-0.126069906322688,-0.0152616134511921,2336735
-0.09813586817874,-1.03674604752471,-0.403326863907103,1.91762811692774,-0.273866198453837,0.0316271376740909,-0.430397153521201,-0.210618925972263,-0.899227931278466,-0.239821437701066,1.40754020803385,-1.06715887705454,0.127443823836205,-0.593475397657186,0.233671502532343,0.0672248197590654,-0.399124233395321,-0.00831861102392159,0.0164061153115361,2352038
-0.300434550014329,-1.11079114613269,-0.412758012942025,-0.770385735703647,1.15772393745647,0.166999803601558,-0.0325460535424024,0.178024275768819,-1.41424939392346,-0.547688404011764,0.266371596754796,-0.706638731306516,0.964350807993191,-0.572793743578745,0.486677020267391,-0.415626152254398,0.291200568305781,0.290355322080458,0.00243673119466696,2305114
1.46735563340835,0.372553370622553,0.261795981271619,0.723966256243171,-0.309426988103371,-0.771182066867707,0.633818674163378,0.367713347853202,-0.212050288757875,-0.441367692437975,2.08255130273341,0.0125264088618511,-0.250280881193916,0.0994064740530544,-2.31796026926003,0.875363326926808,-0.316519006839705,-0.081960275702498,0.0152918766916966,2448298
0.109121392294014,0.797378838926412,0.584314569432533,-0.0762206728693657,1.37317041453511,0.119867175680612,-0.554332622791075,0.0426485932931586,1.0512299752713,0.88566833156024,-0.557577017770134,0.996867854026648,0.763544355751601,-0.774142337803769,-0.0683211445223418,-0.207020318913997,0.0806944519537955,-0.614679781718973,0.0927900501871023,1329352
0.00229973467769559,1.25015102721321,3.27506151463431,2.27463880498552,-3.35374138887136,0.022451806889341,-0.806243300776957,0.255624489405868,-0.495466468979132,-0.0379087888796614,-1.04528626509552,-0.396836883408422,-3.10491500875475,-0.808512654464169,-0.444333179821461,0.0012932650030709,-1.32605147593102,1.27289090435876,-0.0714909838935461,1183075
-2.00388131282202,1.29636325434638,0.0820629408495887,-0.861953320126319,0.183952796019421,0.338418505437705,-0.0883599144151046,-0.345576348691812,0.384264706691597,0.477879660966752,-0.32285489887176,-0.456056660272779,0.684539562988152,-0.260091656906515,0.178454088473324,-1.92356827826651,-0.00811264880873919,-0.328401582376076,0.0345162160721806,2110540
1.23989767787285,-0.00625865661209844,-0.509643773233784,-0.475759870721515,0.109164368258643,-0.482502472930738,0.0939002712200188,0.796681417998415,0.284275471600433,0.452962952376114,0.910098040848273,-0.269584883113902,0.0315083570154898,0.662610142833465,0.764042506286667,1.93754064240179,0.0255860520873956,-0.0187280990455954,-0.179046584837311,2070958
0.829360502678021,-0.628024944927959,-0.890517408566817,0.307796199953154,0.477769931764751,-0.0966411107989837,2.48290651616111,-0.137285506027207,0.335455314643136,0.482313959688555,1.0529858161501,0.535555987910735,0.00182851215370275,0.611814569954011,-0.427726963756079,-1.21525867685697,0.143744075697529,-0.419060098363873,0.00739479507728612,2340155
0.0471853830537282,-1.55750043520655,-0.510360653139465,0.184749096174557,-0.414832165971283,-0.525560312955534,1.29747567700415,0.349944966686694,0.552504005638726,-0.0284754489030873,1.38565816729712,-0.358115475792707,-0.254643868375159,1.11533413343805,-1.55204771691178,0.330456760633853,-0.209051439726417,-0.344124243110859,-0.0103727404115593,2075832
-0.00487138515977967,1.37740719211826,1.62792772832618,2.00739907787797,-1.77964506460804,-0.349045186812477,-0.194023119155623,0.04231975377349,-0.0488962405502439,-4.07443032948019,1.1126239086279,1.16974287237405,-2.54175141116353,-0.629962032892632,0.605722774467787,-0.0586177534914983,-0.773252799756383,-1.50192629018026,0.0273576562332201,2498991
-2.28540464463455,1.39507087058753,0.534430913775846,0.823495154562073,-0.535520885448692,0.326667959441422,2.84862605439727,0.489925929396291,0.906235001373543,-2.8447495924768,0.818668559315037,-0.877314036564938,-1.37676512029275,2.62970934698018,-0.985952956155418,1.1042945422921,-0.129195488754457,-0.0368965577513502,-0.145788134418256,1919296
0.974184396812368,-1.24705091059951,-1.48561680343856,-0.516199718615928,0.593161247618034,-0.0922001598216824,-0.303017154813083,0.121549390325205,-0.48569998504208,-0.0403697034290163,0.554654988189363,-0.202937569816994,0.532058904767385,-0.253526943483952,0.325728190470277,0.487864841237539,-0.17135263737718,0.352896046056643,0.00904585813654404,2401405
0.0622569434660856,-0.846905755115678,-0.674022348917838,0.571989263432128,-0.630663208178252,-0.00999690992260729,0.705489657848346,-0.0350345196210052,0.647065106155702,0.422597156879839,-0.135816075753061,0.223033598756985,-0.632618710674876,0.446534159501393,1.10399213888805,0.256842703619557,-0.183786267353268,-0.00429434085868709,0.00934626839463521,1644034
0.403872396969049,-0.423481497936075,-0.921549994551146,-0.945781799106676,0.64359215894096,3.23628761884772,-0.413378911282932,-0.241373672519865,-0.00183422098762025,0.257472979462208,0.0265015328686583,-0.89136450213173,0.563793586946415,-0.449944465521996,-0.368960073915153,-0.151800005219682,0.521818307941064,-0.470264135728669,0.0468612078868528,2405144
-0.501994542674717,-0.229757226645543,0.216749617600253,-0.0834400955640477,0.34595157301212,-1.92571611651387,-0.042942889696655,0.463965333247084,-0.300386976907673,0.0623565378683851,0.906911667663666,0.51422667258214,0.408718967834221,1.09987326712508,-2.34979733405459,0.526015557970425,0.115457686190376,0.0309356883958045,-0.314729418119421,2158329
-0.598712288867475,-0.936721222095066,-0.873421198090106,-0.61273791485196,0.286058693846257,1.04673101525956,-0.326341582577133,-0.0782477878748598,-0.0782581840101818,0.1477490112258,-0.341952291952068,-0.411034336369733,0.0738523618522782,0.251681497925804,0.0838784600039888,-1.82319460572058,-0.116896766190975,0.140812399823832,0.0284492095047597,2319068
0.301453038632234,-0.292399661113431,0.380714644028799,1.64080035811582,0.150014822641005,-0.125312365834929,-0.511192454526107,-0.0157774722772212,-1.06865298425223,-0.68211071042445,0.298538262745869,-1.02670080912446,0.49414234283275,-0.517652891262196,0.49740533244551,0.404346800371492,-0.220683809896326,1.39837845012934,0.03245717660546,2504802
0.178818114215913,-1.84987178685459,-1.95023674472403,-1.36792736199605,0.308423483586112,0.015142164434721,0.140927510128929,0.10805577691659,-0.00567126898831291,0.168681786815854,-0.62603045758017,-0.346512817645497,-0.0428016922409359,-0.231676709573214,-4.49189022257064,-0.135348879046966,0.107498471077684,0.19363940760599,0.0188811116946277,2331869
0.383436499215565,-1.89234404371109,-1.07683360106001,-0.814205734133987,0.893678774100565,0.508483247766297,-0.457430403414813,-0.24186304677144,-0.924862295809691,-0.389359201831344,-0.323956210301026,0.677844883627719,0.0642576725515303,-0.511134554300855,0.73586291659176,-0.458013515622179,-0.0350066133683888,0.191972764738635,0.0381771263685361,2317120
-0.408898356915476,-0.704763621322148,-0.351586621412778,-0.648499537813487,1.25946902658105,0.0719858480384477,-0.720697147073002,-0.198136783184752,-1.00467613545102,-0.433971990843136,-0.374333664290576,-0.242861215370501,0.243028946130153,-0.797193519777337,0.473285604796718,0.446497379564181,0.389783499494144,-0.389507976574079,-0.0317936771783282,2072215
-1.37726103324407,-2.93471152458172,-1.00723848543121,-0.104673076807885,-0.203260259234373,-0.370142334088268,0.529037933749922,0.0109384102276928,-0.553588276894376,-0.0683316019376631,0.753579203754837,0.385423233083114,0.296238575021365,-0.291548066713262,-0.127105638981846,-0.485256796135786,0.43346775491522,-0.202835564199465,0.00556131002046606,2228400
1.92711289824191,1.32637306901345,-0.272675640427125,-0.637575641988429,0.224789460783336,-0.685529976457635,-0.765041872397962,-0.359162597192705,-0.433165575084675,-0.00182270057781939,-0.290612513372321,-0.751319500685886,1.17836982906416,-0.723845862781643,-0.662335271101726,-0.32665969858578,-0.0568727848880921,-0.778357955670471,0.0281200964719562,2145166
-1.37616649500903,0.630406129721386,1.40014206423594,0.98832253508958,-1.00586860264455,-0.358697305111539,-0.282031008821008,-0.0769527138088086,0.0389189118902169,0.322974275795042,0.0738050089377379,1.48025416810115,-0.597843748721882,0.306855506823781,0.66513099214435,-0.0851525051891666,-0.617521998372817,0.460461328376987,0.00615763868794922,1692385
0.156819180702747,-1.50090226473087,-0.351687857300128,0.478604914955806,-0.415209483474642,-0.29073469493027,-0.088053085638773,0.205502633099552,0.273220855048348,0.50743491908934,1.33131810775743,-0.470706120713163,0.168768131711112,-0.314599282371434,-1.72329485111006,-0.228166669835208,-0.129300750907605,-0.526662563620208,0.00347994275049763,2109902
-1.14501114312109,0.965248005595392,-0.684444252406026,-0.691845274339801,1.13919370612066,-0.222655766642361,2.12012145912909,-0.288595436351617,0.434268830081256,0.338088464171667,-0.0510215257863642,0.61172434596434,0.505743987714419,0.688273317652308,0.497050747574656,0.574675234559674,0.252645968539894,-0.510598555364835,0.0417109095968083,2219842
-1.08280045238382,1.03790387999394,-0.0644590241669493,-0.608117289193705,0.174821834335873,0.93548581060345,0.0961738868287604,0.538674766312857,1.04922688628729,0.874790220274001,-1.37092894852501,0.674629852987046,0.457598270396985,-0.0266745828967286,-0.572399211487994,-2.27406267934574,0.221307459938064,-0.0330795977189542,1.39897995335977,2520618
-0.319414356177503,-1.07678678984435,-0.286112868589247,-1.26635030072271,2.63979255179997,0.242676710542073,0.133974906752531,0.175843169270939,-1.48510828532832,-0.576103469022642,0.6518755875646,0.109668083872367,1.3998214523214,-0.389205905072129,-0.581622125656383,-0.728037783799806,0.792548623878152,0.117889724320461,0.013543239429736,2419459
0.752215759473447,-0.781613464628563,-1.02093060641204,-0.195396359703458,-0.903310356271105,-0.774144983176615,0.0441468865021647,0.511593520708444,0.522069506786815,0.607299778302915,0.267360559970774,-0.609672931386538,-0.285345527050271,0.862261874562771,-1.56340591253052,0.0986898369737257,-0.0932684632634258,0.379404876546097,0.0373373455403039,2276121
-0.384497060303844,-1.00852470043843,-1.26902755638532,-0.278969143900247,-0.0221186829810184,0.0170142016067489,-0.465815260928294,0.0722961214497792,-0.329747201705784,-0.0094409398974254,-0.542093592977379,-0.806431277246971,-0.388056265574121,-0.842389331829782,-0.496705189289415,-0.800540582951097,0.0745284957713797,-0.685218341978236,0.0328029792924323,2350037
0.846727324751211,0.197492512911284,-0.363043619230406,0.152202195705214,-0.630592705452328,-0.543279782747525,-0.864556364842738,0.260405795432198,-1.1419522019889,-0.489315735652049,0.31270822110664,-0.888655006171606,-0.087317490437162,-0.185872755880651,-0.493738784246191,3.84571367017172,0.572381616926955,0.402470851487996,-0.543934218794122,2001182
0.359698641251268,1.32864397377056,0.482231552763242,3.89290119292447,-1.63909150010362,-0.919793743741011,0.696772845077577,0.0335887722983577,0.212466751386697,-3.48890616804967,2.44768888417757,-1.40274894112747,0.746667324634296,0.795504304224886,-0.913435431824731,3.24671039459852,-0.0836919059086461,-0.268401807903698,-0.0206927394989725,2278618
1.64284230913049,-0.374400738844069,-1.06942889091337,0.140028782403463,-0.236455272179381,-0.0322490676660558,-0.456948180263336,0.153446677206921,-0.376918135389326,-0.062404680544475,-0.234182281014518,0.0553796066481959,-0.229071894013104,-0.842954126970753,-0.0690669287437742,0.496685400433836,-0.151303247656671,0.0943942037373082,0.000215338695577662,1740845
0.462998297956286,-1.70547337164513,-1.14506580232841,0.203448615312356,0.144019927073688,-0.136294487335915,-0.419408596274662,0.0177355891848704,-1.17418212647335,-0.488748146617592,-0.194544119272211,-0.401003508741894,0.444125088288886,-0.657774435403051,0.029607487245325,-0.233624598503137,0.031935046264893,-0.325265595935795,0.0191023831868111,2321962
0.867412013916846,0.192842810135496,0.617620979669765,0.606630157131744,0.285707187528794,-0.126822037577675,-0.600035018757517,0.123513861433521,-0.99050628446204,-0.320436435736057,0.202445150252891,1.08120888114279,0.041614831235146,-0.731152572351117,0.404447494462592,-0.156931006260331,-0.712676364006048,0.325773456237675,0.000955306805660069,2212664
-0.772465018174819,0.745579982667554,0.161243468942049,-0.287075588455178,-0.807399917551158,-0.264561120400914,-0.574962631677276,0.0931334740276532,0.0238305871812939,0.168962316034488,-0.966029547662204,1.18140840374202,-1.10149269344189,-0.71080808082098,1.43969084604543,0.027402829523223,0.10787849161788,0.780580725706984,0.048304161772197,2453577
-0.562631697358827,0.75306365333684,0.393598418741992,0.408070648229704,0.0502119839720208,-2.72606304944827,2.56706317164551,1.99669445046708,0.442813778644056,0.601083283934109,1.08913022682353,0.242656840743483,0.0767545651798826,1.496611230628,0.363979793733009,0.316267878872023,-0.166291289340659,0.276591455352788,0.377209507838672,2224150
-0.312841964847607,-0.662594157456524,-0.513964821204167,1.00226378964911,-0.317008868471657,0.0346428606803736,-0.309278747204507,-0.117270693936289,0.467824329065214,0.467821790784274,0.951876932826512,0.0938121373036125,-0.36220344756899,-0.104866468200691,-1.16095792667437,-0.458029300929549,-0.184653434156561,-0.427676294213043,-0.00903055648787383,1967281
-0.672318444104256,1.2169518751795,0.924903763485932,2.54796307833558,-1.35038693863207,0.00938607213108619,-0.735549225200872,-0.0418798297722904,-0.667076626570687,-0.0827425220732131,0.130526213049912,-1.0490072082894,-3.33859606767713,-0.907904620192139,-0.137133452400256,-0.253821997870194,-1.57460437734721,1.89133401113964,0.0937905902573272,1742294
0.563034857109292,0.00781094945986252,-0.771468086603339,-0.579158652791888,-0.445018962607396,-0.151299175600653,0.920296915349989,0.0681625465298218,0.132871002660602,0.288874355821125,-0.911066091653403,1.52807604960489,-0.117918153648852,0.245988222684541,3.0483232038527,-0.816712409876108,0.0733373470981468,-0.496917361550237,0.00611542447270776,2488660
-0.249702150517491,0.762655588381816,-0.278238860603398,-1.01579178350605,0.573051529648274,-0.406735393344784,-0.825630854982412,0.157503453943211,0.256954150861654,0.408801913038003,-0.0288009868005636,0.644790562262853,0.470347489311765,-0.572330726577678,1.50747278227435,0.156986011589197,-0.133136718589048,-0.378096363915985,-0.108168299855037,2085349
-1.03453061903874,0.705478944260698,-0.339415923702762,0.278916627528431,3.13179863031995,0.186239183128272,0.347132058406837,-0.288754122559884,-0.213636882875637,0.0447739906011681,-0.956901020117614,-2.96273635474796,1.04667703689037,-0.630174018201408,-1.37350744216829,-0.844858331381946,0.0213159746935402,-0.670988091087439,0.0096700323213956,2247869
-0.84277825031297,-0.483011960210506,-0.94042645515445,0.410399010922267,-0.553503178955727,0.125710163650648,-0.0128993746468132,0.0300226023771705,-0.260676031294339,-0.273522938843289,0.752934427393458,-1.47404037638049,-1.07531267755812,-0.252551131120446,0.528507159754547,-0.588945049146318,-0.192960164749148,-0.495193125938243,0.0227807072239382,2157529
-1.72044134623172,0.775695588851842,-0.518140686814722,0.0466799761292727,-0.446645827193494,-0.621344883620125,0.26905095159789,0.198231837487788,0.129544134571298,0.387963162541058,1.29165080909097,0.240020413661569,-0.233257727189257,0.182535999760279,-0.603741301641091,-1.59188964467002,-0.109701861720499,-0.655382949492126,2.30863695903759,2119177
-1.92176354285977,1.32761578266969,1.55635729989923,0.743498159816767,-3.31815448290984,0.363678891477458,-0.332672661725356,1.30897261642397,0.456864194285044,0.583500487449191,-0.674710577946365,0.0119359103694605,-1.58184241654001,0.131562587943791,0.287254702295721,0.0896862854555056,-0.437149498793822,1.62682513093432,0.792292131238455,2010554
0.180226375196369,-1.15498783084923,-0.639464373961201,-0.160983423931629,-0.650995613321219,0.226314964437606,-0.315673098210495,0.0183156467748507,0.270115936747454,0.407990720592881,-0.250725270335001,0.497874537352137,-0.487236144002218,0.00321101848006742,0.90773979221747,0.0582702989318554,-0.210545345982384,0.0455995389970445,0.0136289173770837,2493534
0.624786792572183,-0.65441384722942,-1.1912160240189,-1.06032720813546,1.03850269750375,-0.018518699064613,0.462565497550222,0.124248210272218,-0.48961293374587,-0.06883973014408,0.755249893677495,0.467686894999331,0.67952599278774,-0.162886086457568,0.299347789966137,-0.301063763015453,0.525688872499578,-0.0770875465431363,0.0211813717174162,2200813
-0.288867299597577,-1.95238345709251,-0.599842932671166,-0.894248114877603,0.605374825171401,-0.026888902998242,-0.895774675294156,0.249656217268168,-1.21240124271828,-0.636745802604311,-0.952989288734596,0.597098675391266,0.00347090021148673,-0.901938121664183,0.679423171595859,0.832070809313845,0.599091995698685,-0.576017037699478,0.0198401157668117,2116787
-0.836888542326301,1.45754253519481,-0.150576833234459,0.354085667103049,-2.73139611179093,0.79782721537334,-0.404564673893253,-0.47903946654996,2.68473623893215,1.86297815176851,-3.42042176681083,0.0373621807057951,-4.23251029417174,-0.743583487415934,0.336187779823975,-0.469134570016261,-0.844514461119013,-0.279626830703723,0.380612577124072,1154608
1.9024600420872,0.0590964790635274,-0.751054417405464,-1.27408438844237,0.313709696382279,-0.210338862915589,-0.306160766675256,-0.0562992365056836,-0.289373747409587,0.042493832757224,0.215314964196467,0.413835131768108,0.262916254260495,-0.704944442178888,-0.562701000665417,0.477294759840698,0.485974622148633,-0.574006459483138,0.0166504355447341,2267382
0.313585481232511,0.503504410974463,0.0419303534009883,-0.00490186429915902,-0.511326476393087,-0.583379847261554,0.523946648857201,0.123438410816138,0.404148485391506,0.590055045718581,0.48326707238924,0.10386930371314,-0.127213164139712,0.540282111896214,-1.03379746373823,-0.864531735671461,-0.0800399429155277,-0.0261857243108539,0.0909689055641646,1181124
0.838625075011635,0.457854792037843,0.268363069358073,0.94728265119448,-1.6468723860954,0.308950731350567,-0.906234946673136,-0.860673120325781,-1.31824215426397,-0.620015642070262,-0.22881500230272,-0.569813008691923,-0.211475205570755,-0.856071194270236,0.932109877482848,0.511940698319243,-0.835660109545191,0.626119495152277,0.2376757212133,2137799
1.0522673150653,-0.515920834735789,-0.581232494933121,-0.564314033928192,0.0208821300755131,-0.842358325346116,-0.790723970946485,0.0724067513438429,0.0178871974332766,0.200580103066024,-0.888394707960011,0.408791679896262,0.656978542089482,-0.526566352001702,0.234774451705446,0.590058695558693,1.06253977393838,-0.156931936185752,0.0177549432342153,1458656
-1.21606648501807,0.98585669513445,0.99250802687015,0.437443699739313,-1.47239366367966,-0.976602255891786,-0.497595607014902,0.677208127156759,0.567206016020698,0.59057030629188,-0.925597966278837,0.199005832763814,-0.761401409438411,-0.437464209726629,-0.485576622984997,-2.62724129699969,0.135255477882788,-0.694705527033693,0.406527667825874,2269346
-0.326599089188972,-0.187022755470082,0.391300613254764,-0.549359687226739,0.0852570670548642,-0.167924123315013,0.0516179541710693,0.206540476485916,0.409373900652423,0.521587153237532,0.662621723136128,-0.431072201758101,-0.0647751394264692,0.22846578576993,-1.15822266873389,0.7517964956977,-0.0443550525998457,-0.00713506461172566,-0.0409484905992735,2092954
-0.0184701388350147,-0.400100401897111,0.184600535502701,0.372881428948972,-0.252008623677939,-0.488818613389867,-0.297395194273212,-0.00718891765028031,0.0114264181685144,0.315581358023404,1.08998949810399,-0.362677182851299,-0.140558541341973,-0.262967478777094,-1.78806107971882,-0.68350537854062,-0.380525098360331,-0.3944869793875,-0.0082171021958308,2007309
-0.71499978728172,0.607070645193748,0.789264853061679,0.749610721677428,-0.274565806102566,-0.0491808220624167,-0.802942296988508,0.153330346618312,-1.40794195595026,-0.631304066737098,0.118905443512326,-0.395644841128077,-0.0725800669153172,-0.767380280544445,-0.476075710790196,0.014327192291741,-1.17535869305371,-0.119602936649438,0.00409911923626291,1671370
