pgsalome/predictR/output_NEW/signficant_features_results/pfs/pcaElbow15_mkm7d_ctv.csv
"mkm7d_ctv_original_shape_Flatness_250","mkm7d_ctv_wavelet.LLH_glcm_Correlation_250","mkm7d_ctv_wavelet.LHL_firstorder_Mean_250","mkm7d_ctv_wavelet.LHL_glcm_Correlation_250","mkm7d_ctv_wavelet.HLL_glcm_MaximumProbability_250","mkm7d_ctv_wavelet.HLH_glcm_JointEnergy_250","mkm7d_ctv_wavelet.HHL_firstorder_Skewness_250","mkm7d_ctv_wavelet.HHL_glcm_JointEnergy_250","mkm7d_ctv_wavelet.HHH_firstorder_Median_250","mkm7d_ctv_wavelet.HHH_glcm_JointEnergy_250","mkm7d_ctv_wavelet.HHH_glcm_SumSquares_250","mkm7d_ctv_lbp.3D.m2_firstorder_90Percentile_250","mkm7d_ctv_lbp.3D.m2_firstorder_InterquartileRange_250","mkm7d_ctv_lbp.3D.m2_firstorder_Median_250","mkm7d_ctv_lbp.3D.m2_firstorder_Range_250","mkm7d_ctv_lbp.3D.m2_glcm_ClusterShade_250","mkm7d_ctv_lbp.3D.m2_gldm_LargeDependenceLowGrayLevelEmphasis_250","mkm7d_ctv_lbp.3D.k_glcm_ClusterShade_250","mkm7d_ctv_lbp.3D.k_glrlm_GrayLevelVariance_250","sub"
1.30881026026862,0.262079634049628,-0.493837796697737,0.595640216390828,-1.00632548004961,-0.621173549276552,0.00314721262750172,-0.652591368474071,0.250098374984702,-0.773625779755564,0.000933491781043543,-1.15631513894817,-0.487189361432481,-1.28359480940746,-0.0165825348509276,0.456463827050802,0.889998892479598,-0.469700205824693,0.152374206271953,1085983
0.207712242144571,0.948884553193887,0.861175316934543,-0.8564174014448,-1.06049264852703,-0.357488563458288,-0.76261227466395,-0.679331507584309,-0.575943788726549,0.163117505666022,-0.502689964926773,0.16926244842654,0.634965763390021,-0.661206357696968,0.101914632513848,-0.291499482754758,0.00867776477461165,-0.219240477541721,0.463749726021268,1125173
-1.77978312813069,-0.576020772360864,-0.528733880177868,0.0785556651480438,-0.500573003843551,-0.83313055907783,-0.678107941425451,-0.557265608452749,3.51057548289001,-0.984313813906057,0.227109070743791,2.24101117858163,-0.674589629021653,3.82918579463869,-0.0165825348509276,-2.69225185102419,-0.841647698121409,2.10586425045723,0.270273150680635,1154608
0.947046439148062,0.417976126183387,0.203940805246788,0.518390823909976,-0.650396965454659,-0.170428752794472,-1.17268933376406,0.175218246191443,-0.0574811027143631,0.601061912646556,-0.544974327564949,-0.602621749483011,-1.0661276903118,0.462319346537853,-0.0165825348509276,0.526928860001257,-0.704917838266498,-0.226842383254174,-1.0871261463995,1181124
0.498026448452127,1.26429205035677,0.000750820920286414,0.469857823277513,-0.719273475408262,-0.737102089445802,0.308257790592854,-0.514985772362985,0.972430103014004,-0.694356485864645,0.228827631499913,0.102064596523494,-0.0899184054259641,-0.164395691650876,-0.0165825348509276,-0.572447511735788,0.0925534349562243,-0.665232271378662,0.332754016719467,1183075
-0.040555282256636,0.222207684880404,0.869129896803817,-0.93537429012084,0.315618716068098,-0.876354828845792,0.403160061414154,0.0664176355923401,1.16060491375312,-0.502710937589733,-0.30879613914569,-1.0590056622537,-0.0345280856588788,-1.10470464480187,-0.0165825348509276,0.314982678688383,0.376398797701598,3.04371352269886,2.53201860918127,1232870
0.326442447809471,0.649584325793848,-0.315299643305643,-0.185919003753045,-0.454677173493132,-0.0923032291999974,-0.596549900508799,-0.57417654250161,-0.206441115852134,-0.50262405544689,-0.224394600090327,-1.41083996111652,-0.136846029143328,-1.54433633241895,0.101914632513848,0.678323822345293,0.367433465652541,-0.299258143422573,0.202543787775905,1279943
-1.12719639939352,1.08987805463561,-1.02441659056176,1.40201907225312,-0.543895165409781,-0.685383267537366,-0.796648138145594,-0.571511491544411,-0.57395902174401,-1.11160629982354,0.602536002061524,0.321012549138977,0.566177180953219,0.0767056912015202,-0.0165825348509276,-0.905430535907911,1.06901222907816,0.777742902674738,0.753245663960596,1329352
-1.34905215456648,-0.179208297415134,0.272633838468655,-0.900007037569468,-0.276713787258934,0.0849228137765831,-0.160582818168671,-0.134492131017989,0.626426756933914,1.41498577120159,-0.648445318586155,0.726454072699968,-0.732836794349792,1.79562951720261,-0.0165825348509276,-0.730048219878457,-0.810700828420554,0.528896103522391,-0.49954870587185,1330263
-2.0016901349136,0.525681145458615,-3.52950266674011,1.58261734589605,-0.028471259530739,-0.84268340382913,0.39618569646052,-0.526439736972855,3.67923783019953,-0.926386680823716,0.0915943682283258,0.108947738461116,-1.03793945139345,2.16164436464124,-7.89362227639214,-1.29052091324661,-0.651150699632063,-1.24975884251746,-1.16230523803374,1364384
0.619699225547716,1.85675836692613,-0.358041536907258,0.442222187049365,-0.744675690727229,-0.838997541879624,-0.471593273808903,-0.493615570861895,0.0228472044992411,-0.834273855759085,0.160885717544769,2.29073667267376,1.57713910025192,1.53754161458472,-0.0165825348509276,-1.39548131234071,-0.502245665264546,3.60249200933256,2.69363357940594,1386095
-1.23162889338185,-0.457970511491368,1.0713855088661,-0.912298823117711,-1.03406737775884,-0.0694131777997056,-0.555739486976993,-0.749674006121357,-0.378036867915794,-0.725517989946743,0.0467090526178463,0.562526080629838,0.842280451202657,-0.29582788627092,0.101914632513848,-0.675393302039003,-0.341822369857194,-0.640212240490205,-0.270551721648589,1458656
1.6065714486148,-0.910659828818629,0.920825256524534,-0.807003266860068,1.14404110521453,2.06993064158947,-0.341125595539379,-0.205661500961432,0.325008431533392,0.786738521042615,-0.585735622518599,0.686688767983758,0.290463473036513,0.506010977548407,0.0328113491543192,-0.631111161116185,-0.318109383348827,-0.556681162517975,-0.238436157819076,1485662
0.282152634392141,-0.326590739418175,0.0487512256633397,0.364076908522849,-0.0402909364996782,-0.359202900866063,0.126545991577142,-0.0950267301623829,-0.429206326166324,-0.0427111732592388,-0.394120323442545,0.218385413247719,-0.820616281552495,1.31686402123806,0.820337046559379,-0.0499948215789939,-0.495991765012097,-0.914309125807382,-1.50741455861046,1497807
0.642043114724185,0.0539543328980328,0.118458044118607,-0.208221019591824,0.26788814699005,1.64738077385101,-0.538139586033458,-0.396182621546114,0.143095628730196,0.901064057817086,-0.600530033253825,-1.0418343905822,-0.537289286355463,-0.821306630697122,0.0576999607929496,-0.0859975264676705,0.110052117758636,-0.408837579700236,-0.164743566558293,1501387
-0.559060039216753,1.51939101171715,-3.77148496528614,1.82939674181352,-0.707662357487504,-0.361466069755901,-1.34357088445395,-0.731583590661325,0.237772821125181,-0.511579725036607,-0.323550674190007,-1.46219847111697,1.31955605856596,-1.85882328554721,-0.0165825348509276,1.12576995625157,1.5563355275501,-0.414558848052378,0.973026015492764,1518948
0.497182512383408,0.374581969218609,-0.608455908929275,0.696432214746344,-0.881311069364948,-0.850736745845508,-0.171487032809543,-0.557105214790327,-0.612201041573183,-1.01933312043275,0.592117999230168,-0.255925869086896,-0.479753900835174,0.10621680010924,-0.0165825348509276,-0.195017186430422,0.00953397612225521,-0.761197010154439,-0.825361989339412,1526417
0.533346297044829,0.202510071406049,-1.09124203425217,-0.826787629279988,-0.436449039522551,-0.291402963567576,0.448281058951829,-0.775681900712675,0.780492022223456,-0.995237981833153,0.72831758260025,0.125998911518387,0.365612501802804,-0.805829976152622,0.101914632513848,0.537134579646676,0.00279670460210044,0.198697633536535,0.502621934484222,1565177
-0.474379824368576,-0.783376556268145,0.332679834219384,-0.364399406948745,3.48635084110492,1.87698026371283,-0.581270078136112,1.88603467124054,-0.178060185291581,1.43854754080089,-0.634921687618712,0.321398444559415,-0.416886145019269,1.14750740783734,0.189389947279884,0.197353004905289,-0.763048695349286,-0.464673728582673,-1.29013326909919,1606693
-0.0118805872187325,-0.561123983412824,1.09802222306954,-1.50274735977561,0.995269943613977,1.46039351314476,-0.693069315778427,0.311515889135265,-0.957093837482388,1.95757658890918,-0.686322738970499,-2.32245984235666,-1.73943864874513,-1.07130954342593,0.511328194609816,1.00435357764539,-0.506218762483538,-0.291123679290798,-0.578027755495325,1612262
0.560164658066285,-0.173576739166592,-0.905475461588079,0.849022458985469,-0.0367335387097772,0.16829294299328,-1.23813027622464,-0.377368746043518,-0.15587903103049,-0.172384767579061,-0.255441452742441,0.275971218186864,-0.206015647269793,0.299707149805425,-0.0165825348509276,0.448811851535321,-0.468760047836531,-0.779181163637457,-0.782060680696252,1614566
-0.697454558639788,1.20633986069236,0.925298811231209,-0.0142762212439499,0.373785184437751,0.653683436295611,-0.521146200614351,1.74045952076827,-0.214447298491112,1.78590531219416,-0.678949624566188,0.272613300940907,-0.508351256676457,0.38741413183696,-0.0165825348509276,0.463893737479239,-0.820531739739247,-1.01271608109522,-0.80896264783142,1644034
-0.925870237246028,1.07212765181752,-0.185014003298499,0.0661179000892653,-0.754843830218485,-0.397028197766406,-0.4436775909367,-0.727535030002905,0.373978744910355,-0.62237594230452,0.0733963238850944,-0.00139921911718854,1.29851079067358,-1.11047875600794,0.101914632513848,0.137458666917735,0.64919513167667,-1.02441930862395,0.129994657271327,1668599
-0.330403089081099,1.07550736764811,-0.894588116449659,0.335152805819866,-1.13163053308688,-0.870208441532895,-0.629210055002949,-0.856316190899699,0.732945069367018,-0.993270107543654,0.589493788683746,-1.55455400913106,-0.635212414492234,-1.14225566699446,0.0328113491543192,1.10162943344698,-0.029836830663911,0.807930978697833,0.696870936778701,1671370
1.71468162878226,-2.17404436650047,2.35490492993877,-1.5229883391037,-0.932964811418413,-0.926603065169128,-0.229262547881526,-0.664188444610946,0.0573416085625268,-1.2608086478373,1.04656428218668,0.444953469510916,0.330959455457583,-0.066931926443048,-0.0165825348509276,-0.977170163638023,2.35301322410847,-1.08734274610782,-0.0902140116303766,1684230
2.42442289358085,-0.1227911933036,-0.380516492477951,0.127084197764767,0.272472798383012,0.361168911928135,0.194255413227504,-0.152010219640101,1.13012000315776,1.47763511746558,-0.661154611471453,0.501066185642529,-0.0225553425594999,-0.315427730717323,-0.0165825348509276,-0.1015076589824,-0.422578362048997,-0.938969912297643,-0.106547737870996,1692385
-0.849335205294719,0.83798728537949,0.564080488459514,-0.0592712394370021,0.137538704335947,0.171100910087808,1.91107628165813,0.0718363066846274,0.278075130341731,0.556020574716574,-0.458603635311497,-0.26069520187711,-0.264384189298584,0.188043412448077,0.101914632513848,0.139362118423307,-0.51821251538253,0.213904490185912,-0.107339480746886,1720713
1.47093682366307,0.522028311459151,0.502516012488279,0.230109210569264,-0.0256056465486496,-0.517398263243651,-0.341099369565972,0.962595697956508,0.538851020342713,-0.107683357224602,-0.287574925353735,-0.511150677322163,-0.189721457914256,-0.0228294899175561,-0.0165825348509276,-0.314278871970378,-0.0530299350911028,-0.527585421857007,-0.00508929307032991,1738800
-0.984289282577566,1.01019590199305,0.528907659595156,0.0661123279669669,-0.780564255282083,-0.827804644448609,-0.301686800750906,-0.303174508388655,0.554192972829068,-1.13480604401422,0.706871378200985,0.383700157611072,1.32468780998612,-0.515370184862855,0.0328113491543192,-0.906101877075629,1.47286748670609,1.67945649907725,1.70336529442829,1740845
-0.0162214967025699,-1.4629928002948,0.0558487460568245,-0.502230358765572,-0.303669196357065,-0.878139620356423,-0.231564892993569,-0.637150854317849,-0.783988371618583,-1.26654487760383,1.57149984161318,-0.148075127981993,0.309292717615105,-0.483580179628863,-0.0165825348509276,-0.581133967883343,0.787536024824394,0.0999254277195461,0.388675099257268,1742294
0.301188642516276,1.47037612503092,-1.84254360146875,-0.447065581681924,-0.858308336735335,-0.7263335872367,-0.450390407530622,-0.98708199891213,-0.690065411971565,-1.20257993902273,1.06976232054729,2.34113501272271,3.2626846250629,-0.194164574001139,0.101914632513848,-0.343584779689956,1.66342578743709,-1.3867881849036,-0.630244063197618,1767700
0.0893497944395825,-0.408786961816488,0.622777225210172,0.582061165021574,1.84493538439635,1.5618113785943,1.46224990294146,3.51246429981636,-0.132493483493622,1.55326324268562,-0.561205392935032,0.406414854906542,-0.908115739530946,1.03327269406047,-0.0165825348509276,0.736437886697143,-0.891074839291651,-0.347134497055979,-1.5650958570721,1768972
0.0394145328552414,1.22111608557062,-0.44929159833887,0.340897817255157,0.0648154356628478,0.146800544964775,0.293153274547331,-0.592798984677812,-0.555889781557846,-0.355437967184282,-0.240623989841074,0.290346840806784,-0.853008071255456,0.298247305948107,0.0328113491543192,0.916488162445846,-0.738875098858763,-0.352584833155008,-1.19368052783728,1889409
0.594829207078501,-1.66716632937835,-1.24377990754824,2.11380286032961,0.468885763199038,0.499806616942923,0.595009109633801,2.54039731861211,0.130453336034249,2.14298758083427,-0.689457735169481,-1.09077102452325,-0.942334691379576,-0.59857671767597,-0.0165825348509276,0.394971601896287,-0.0454502974860415,0.542099572825689,0.634346988068488,1915938
-0.486494399234392,-1.46977088226734,0.717108051170044,-0.0468019751820955,-0.852290596693494,-0.720099611884276,-0.70822311088632,-0.0690517231320252,-0.00339768021205812,-0.0112909497746545,-0.427308038854474,0.615827783121683,0.626419444452231,0.848225871813774,0.0715531713353046,-1.48859751285059,0.437581634968008,0.127093221276594,0.478538546192165,1916742
1.27358243545127,-0.91516460565984,0.0769484153620364,0.425837994489831,0.0872085856409081,-0.297346876023529,-0.217231292034338,2.12082946585113,-0.122517632845847,2.15853887288615,-0.700450718678033,-0.286940844290577,-0.899545105274911,0.601140937656024,-0.0165825348509276,0.529769056790403,-0.452154604709063,-0.791760666982337,-1.56505077811121,1919296
2.96017490846824,0.0154185150588553,-1.42745959836182,-0.169083993415179,-0.145309489523795,2.21665004973965,-1.03559169759698,-0.579987512283287,0.66351079103214,1.39568987802746,-0.646917134934596,1.92524998945546,1.86141377082989,0.752149327923843,-0.0165825348509276,-0.875334466882891,-0.401169381197232,-1.00288574661378,0.213399919314774,1926770
-0.731952187154632,-0.783034342487173,0.0554297039034539,-0.0438593295621611,1.12168116640951,0.648281054804012,2.9380713273436,0.329398907663259,-0.180659925672769,0.397837736910562,-0.374409719045941,0.31455916582973,-0.34006885827023,0.128697032619275,-0.0165825348509276,1.08752832495241,-0.67436607190001,1.16447293399315,-0.109032384054458,1938156
0.370953770244652,-0.591787836861079,0.0153987290039553,0.257553028778359,0.863399353853444,-0.368802470632221,-0.261363914729678,0.500829380862099,-0.071679296466306,-0.23444729246257,-0.378871982504074,0.0745476173666347,0.177326240509291,0.348625125139003,-0.0165825348509276,-0.49395200294555,-0.029635230453033,0.72290266206708,0.661684375885445,1938561
0.107728608831464,-0.411356597676377,0.671419262798685,-0.154154659471994,0.307127136531832,-0.262282492734444,-0.342238271569413,0.314486676304845,1.72383323904993,0.0829457532116157,-0.470862188811378,0.565878221228912,-0.463644798324887,1.34008395449265,-0.0165825348509276,-0.787422157185402,-0.561117904246391,0.252673626941003,-0.378776855338959,1966316
0.0398414333604586,0.720257025257277,0.122149579751186,1.18798581900585,1.11770474687813,1.5424273139251,-0.725532281334933,-0.118623406777003,-0.447071762332434,0.503751740179043,-0.549722674890615,-0.327462048726541,-0.893880189886673,0.37865356855764,-0.0165825348509276,0.957652594794888,-0.880818531800534,-1.20724849722464,-1.41046745898622,1967281
0.894423515290486,-2.78751232249808,-0.987862571829484,-2.08848455143092,1.41293337784955,3.54433553509856,-0.237225428642849,0.48033185366144,-0.383905219446921,2.42339144040369,-0.713929297908893,2.62864263708168,0.253094056125848,2.40626393041126,-0.0165825348509276,-0.224950308991108,-0.981079788751808,-1.4340166167689,-1.02287166359149,1973544
0.735253043721172,0.25511333139147,-0.584012249793578,0.301230568125832,-0.826376613567522,-0.63334155068483,-1.17488820121528,-0.523853259875723,0.593603845978801,-0.81298554277054,0.0622956394832474,-0.704186041343766,0.823071570578212,-1.34402742344776,0.0328113491543192,0.580778804567549,0.512332101556423,0.110164138502757,1.43022999348317,1975401
0.991809379189976,0.799349999758464,0.881252550504623,-0.408298421192741,0.162166493099901,0.197586249599103,-0.759344870943889,-0.257209501725039,-0.371283450340815,0.264348019281061,-0.523145901491988,1.14668919025157,0.815134670436855,0.628685330390996,0.0328113491543192,-1.71575754045751,-0.222039938149211,0.167830107551396,0.41422458911211,1976407
-0.643122020969219,1.42728705933569,-0.91821299705026,0.988799245466549,0.0250281060025878,-0.169444379045113,-0.215490780742104,-0.562670455644759,-2.68953668383404,-0.615240850355205,-0.302560331890232,0.0980783042531543,-0.191332898655594,0.301744703214108,-0.0165825348509276,0.726175439605628,-1.00973184206613,-0.537057427773576,-1.00565620832733,1978972
-0.4752551970598,-2.38086972972558,-1.1016926433664,0.491603904267132,-0.591167245939663,-0.740022954398719,-0.561413226296758,0.114326837545403,0.91549715078617,0.130416144497072,-0.507415716534058,0.12809303152743,0.0287790557033589,0.871403040297449,-0.0165825348509276,-0.929556523088876,-0.144326029377245,-0.0637512640178552,-0.261775602515642,1979045
-0.846939739064889,-0.4383994902727,1.79762229658033,-0.208519998141008,2.79497017721758,0.697321453766714,-1.23989406079428,9.14166994117211,-0.524810659800077,2.5088340638233,-0.718491739996751,0.110269246557656,-0.766163875642545,1.60584930968497,0.0328113491543192,0.166069792139317,-0.973482695830009,-1.13546804488922,-1.73447796772239,1979422
0.459911057257567,-0.433951427596925,-0.480387738943137,-0.233125029419483,1.16525054349126,-0.568183794086504,-0.454025236967204,0.711831590417685,-0.39359734706894,-0.510842983454893,-0.259180962132732,-0.0135751172281794,-0.981297657006936,1.22318548129499,-0.0165825348509276,-0.789456457691806,-0.639128189451637,2.72153492743362,1.36242092388856,1980052
-2.05266178536875,0.864410656253671,-0.116802435375516,-0.00141332270841111,-0.535045558305279,1.1797396362052,-0.74895095452092,-0.758619705850706,-0.253288761345941,0.22715675681805,-0.532382740261102,0.513709927642498,0.699935509138192,-1.11429728537643,0.0328113491543192,0.833423591199064,-0.195993578054534,0.614447540675375,0.693506556508545,2001182
1.05662134191496,-1.12405435910195,-1.47756867228166,-1.03248160316164,-1.03202794371416,-0.835558905566818,-1.61391616427571,-0.967339832930531,-1.18196203653098,-1.30631170360402,1.74747932988239,-0.0138446753282557,3.26361755710492,-2.26730304164878,0.0328113491543192,1.56611353883845,2.15448875023893,-1.41249355709194,0.105301705545384,2002465
1.09256704739349,-1.51675274575986,-0.48958164518702,-0.266265910985538,0.634743140196229,2.98078860856908,0.0393282843459476,0.149918996090548,0.0730032737865191,2.43292158675541,-0.715562203650183,1.24216445009628,0.76125768505337,0.336478062172781,0.651032285235955,-0.863299618539221,-0.436185964326628,-1.17351255116262,-0.473275789323872,2004451
0.801086004382802,0.97758599099158,-1.27260525195306,1.0446944285885,0.183965457123278,-0.650690170418103,-0.591591650251014,-0.0477006722620386,1.2449712602148,-0.646478200149048,-0.000700561841382605,-1.14883445904743,-0.276413897494436,0.150380190215718,-0.0165825348509276,-0.739451270352055,-0.535883159946322,-0.425430007789239,-0.390241414563492,2006164
0.711180764637534,0.652674268809305,0.991303766058581,-0.594103908819162,-0.211746754422778,-0.145924319493932,0.0437037486047804,-0.183501088112968,-0.124135389211298,-0.0976342222526975,-0.302642717928792,-0.109580910588977,-0.771475258353449,0.396028663152585,0.0328113491543192,0.339226355091593,-0.616480511632149,-0.721382787654219,-0.899982747033761,2007309
-0.370166192252703,1.60867605361856,0.558001175654055,0.59391494166226,-0.584039922967627,0.174314500070458,-0.41938808422917,0.825584716783494,-0.0782718847294772,2.56904755990546,-0.720331190571925,-2.28050774933189,-1.04402417773783,-1.2645954902758,-0.0165825348509276,0.855484334287641,0.155302561638076,-0.00394620749098849,0.421694765759805,2009915
-0.546574851551305,-0.16143133019909,1.11708755350372,-1.60343795878678,0.00257696798915677,0.102994228173703,0.555588060043777,-0.449261223529252,0.340133068942337,-0.476418216421249,-0.175613173233868,0.251305589747914,0.510262913356885,-0.340652303823403,0.0758749165265607,-0.610071471995603,0.407679589548541,0.684875104397669,1.10585037972005,2010259
-0.0301582773296114,-1.15777599547218,-1.03519314333756,1.26502228857388,0.339981898739616,0.376603615874585,0.980340147779558,0.359409944025301,-0.0944024350444629,1.07632695021194,-0.577602662352913,0.470744898920379,-0.172443190262263,0.710327578074687,0.841503400980658,-0.57912903096746,-0.580353229221686,-0.347972357644024,-0.605436807073846,2010554
0.45537602821071,1.19509806842615,-0.816558695515951,0.550532748854917,1.15479273566464,-0.0260466129121602,4.20759351408433,0.195854125297499,-0.0403672007562311,-0.836452994611153,0.141479267760982,-0.183992822176773,-0.473487628914373,0.164236767149816,-0.0165825348509276,0.747443004828162,-0.717500116563511,0.561919852023548,-0.274945407214288,2026671
-0.704459117444778,1.04873981586283,0.736056856706963,-0.805458109225914,-0.930231546647629,-0.583802669083655,-0.582910625636387,-0.646369394932636,0.0177968731434522,-0.72056837839253,-0.0277742307484373,0.659917561079504,1.08471113120481,-0.76862881499997,0.263008260341891,-0.165131041843683,1.73762637787657,0.0868711889604144,1.16807507672223,2033049
-1.3885810501338,-1.00464505084035,0.290119989882882,-0.454232904568642,0.574679506559035,0.137313609904324,-0.0626459272876383,-0.255260616949249,-0.381015780701432,-0.247204854714235,-0.32939588994271,-0.698392005186547,-0.0617138375833383,-0.504460901799612,-0.0165825348509276,0.12546739505481,-0.0319766502907975,0.188513967901338,0.134551524748912,2034136
0.0496329850664404,0.407993855720463,-0.594273067439002,0.998212044491127,-0.692686020368252,-0.488053109368675,0.551889877282085,0.33136546805709,1.33539100094965,1.04161442009907,-0.596868083923678,-1.4025348827493,-1.6976472273016,-0.0533536590144396,-0.0165825348509276,0.929232174273988,-0.469143306881883,-1.00876427316606,-1.436293071809,2040495
1.30914188154949,-1.10352723757373,-2.44502121330077,0.288302192518375,-0.00783836122362939,-0.214928772506063,0.515784641290156,-0.604806471800591,-2.43161764816713,-0.266363047505285,-0.285333875812099,-0.854574894880577,-0.829687402472873,0.138801008022845,-1.60862613625335,0.394525830863732,-0.226830825037358,2.32658035541533,1.50943684935553,2047354
0.669340715509419,0.129946421217508,-0.0455174846877904,0.819073972345547,-0.0384739322613578,-0.336072404869201,-0.728789163551002,-0.29589262973915,0.0573545321826058,-0.39901718948517,-0.205083898562054,-1.19270480230923,-0.311938158765626,-0.804879121007521,0.101914632513848,0.0745296464403085,1.13940631392067,0.0720995755618745,0.470154324426567,2051378
-0.00997255810249589,-0.193727670409868,1.00416892310254,0.201976227280846,0.681795428720777,-0.327462109855714,-0.121277047090229,1.13362104826453,-0.220647882516828,-0.348415634835648,-0.319593813430656,0.0954877634187925,-0.998211659555474,0.70300787742077,-0.0165825348509276,1.33870009524805,-0.722872104642516,-0.883745502196434,-1.61529373271816,2055667
-0.767867770303012,0.706995254874513,0.417282970501824,1.50908717108987,0.828981649500157,1.73264867013544,1.62757890653816,0.723176371053816,-0.313685078538229,1.7143763250056,-0.656467720885034,0.340944977405836,-0.507666935958219,0.337952816921233,1.44505867923533,1.22867202998351,-0.803583596403546,-0.200617282903216,-0.615069990408269,2057358
0.465841784391949,-0.0895047062302083,0.735381632047968,0.371967159996867,0.0750114978702047,-0.844979278164515,-0.0146246314407031,-0.131883752279241,0.076714170133283,-1.08437776034967,0.536793801196957,0.901963522824986,1.43842864387233,0.595424634367629,0.0328113491543192,-2.77564626757413,1.50935077240988,1.56167737624398,2.36408959036754,2059713
-0.700606005189114,-1.26917798351173,3.02606261022735,-1.23557905228353,1.82639722560211,0.382729342482668,2.51756074239735,0.525181871116391,1.06322639104297,-0.129952275200694,-0.391297348953584,-1.51158187529973,-2.10156367867039,0.411778670687419,-5.10234449306294,2.12443935396371,-1.0682507865935,-1.34452605705575,-2.56412131700243,2069079
0.633590800010516,1.09809424825087,-0.0397441880123713,0.933173656425705,0.993334762249244,1.79937687932868,-1.02979540634891,0.0947569356618202,0.0172692810396564,0.880225190395149,-0.576664441284978,0.130599155157481,-0.540193558431248,-0.0487660290645463,-0.0165825348509276,1.16887267619015,-1.02770624338915,-0.558085348686677,-0.864954687406461,2070958
1.08137693007146,-1.38408293262806,0.793760778805896,-0.931550299767417,-0.150069406423525,-0.350343872709729,0.375192390888865,-0.412763321197176,1.24715425056327,-0.739657741306989,-0.0867358590607476,0.112460261296715,0.759725264672536,-0.718894261051301,0.101914632513848,-0.661223040271454,1.62601849526603,-0.399627117716971,0.540466226287234,2072215
0.575248728380928,0.149934047974557,0.604079120968902,0.540371382418171,1.84607199531799,1.70800929211257,0.244459746944901,1.71771795563928,0.0751286952819077,1.10797629177691,-0.601645465663236,-0.420783183018094,-1.09434606797746,0.689073491567966,0.0326412730278155,1.29530351804632,-1.04734772810802,-1.17287872900224,-2.17428188484874,2075832
0.759183985126285,0.468180691675372,0.706131964126503,0.550969288761742,0.0639623033093384,-0.489293639320056,-0.606034692077712,-0.20552090130839,0.355934360663945,-0.38546172982085,-0.324971589116986,-0.00209016259867662,-0.274518724891773,0.494014028304592,0.0697992027290332,-0.753505333573434,-0.138821115065991,0.0114818875719126,0.210936048068178,2075846
0.893108743161243,0.0155179395285023,0.141317568584844,-1.52654883585346,-1.05187444433631,0.956401670669849,-0.245031902495828,-0.933592648028164,-0.937842930500075,0.406907807031555,-0.5196563516207,0.143799277118584,2.24921594604335,-1.54460827646166,0.0328113491543192,0.612653582075403,-0.213755571414893,-1.40128056861164,-0.318874598308419,2076301
1.46149885957297,0.347225745153896,0.652853282659939,0.397033348213233,0.824605260569728,1.05628667828218,0.35377295807188,0.713951905911372,-0.197792221760616,0.656903648519139,-0.489072979576312,0.00816997230277187,-0.743675800812391,0.257336403446275,1.64845480981891,1.14449465783684,-0.779360576432787,-0.54064831675287,-1.2538079507986,2078198
-0.312467211877189,-0.434197485189657,0.490930620900421,-2.16410966356767,-1.30892965491181,-0.965719942495295,-0.295773067481085,-0.96603236617749,0.677110257697607,-1.45837414579112,6.6560152650629,1.24701360726527,2.96635555770407,-1.29970995267599,0.101914632513848,-0.146343401538437,2.62050372060376,-1.09645218485166,0.196324548455588,2078899
-1.35168810148386,1.10201577195468,-0.606084432767023,-0.0487290074895546,-0.436998562248768,0.0431698782313119,0.0672029607251608,-0.622525736819594,1.18955866908775,-0.343251943360174,-0.257455027517375,0.558564619779239,0.974930595479003,0.0717222745221287,-0.0165825348509276,-0.224580067424141,-0.367502966277553,-0.745893184963603,-0.286546486240839,2085349
-0.369495072513078,-0.367879296449576,-1.95877144505515,0.430921684754903,-0.486790211053836,-0.545715395744981,0.527511506000827,-0.478490978974527,-0.181476390057196,-0.71946619942587,0.484432856035111,-0.723831578649294,-0.473819844170799,-0.1322939202875,-0.0165825348509276,0.335838408921381,-0.606606571797505,0.827185956566571,0.0602838576832964,2086044
-0.845595799680662,-1.76829849620444,-0.148454104849614,-0.860103507304769,0.294249769010322,-0.553461089604009,-0.493635477153662,1.55465240770516,-0.0881308628953862,0.966533680544292,-0.540494778866244,1.48038260597892,0.325216702190506,2.47501622711092,-0.0165825348509276,-3.07763917028267,-0.151961297131406,0.496297667457369,-0.00285857269598178,2091555
-0.945528316117782,-2.33975739451181,0.265265903298896,-1.17832951719094,0.892979437997321,0.514774413310003,-0.471249773412973,0.962969226030865,-0.194225541265189,1.02852087628233,-0.596124187395041,0.443346260062315,0.113157951797228,0.479002712559081,0.970167379952021,0.0500220322810632,-0.805272232233178,-0.0790862526499179,-0.365116974139512,2092954
0.383850016934045,1.85761384427523,-1.6153438701863,2.11267187573108,-0.880061838550358,-0.685531895958373,-0.287718003227165,-0.526270692666027,-0.0596974484856773,-1.05357033802047,0.651737944338651,-1.10630723911437,-0.485240174943812,-1.53189065482872,0.0387356565870577,0.96355702796107,0.0765884142072114,-0.280199006362107,0.445041635474816,2096627
-1.0320455677541,-0.292138168821555,-1.29907491814451,-0.535977577270711,-1.14179957901534,-0.965869637867358,-0.14672523183305,-0.877978903590668,-0.666392130313789,-1.38651852468597,3.23761899396955,0.660984799098961,1.6739029705365,-1.83948027956753,-0.0165825348509276,0.899974683353489,1.20675603868356,-0.618202968498481,0.985525649517755,2100050
1.04588840393468,0.847582179059122,0.775478863760541,0.424546573816553,-0.622816964240422,0.931627990714053,-0.729396814066543,-0.339326799705567,-0.30221336475984,1.52493058200311,-0.650363540416973,0.604741761225526,0.585711234178022,-0.643020309505734,-0.0165825348509276,0.859648417864181,-0.844620130752077,-0.511993783852823,-0.0858068129967151,2108003
-0.754934081263597,1.38036893814805,0.660025322164432,-0.0198847395880284,-0.207138789438894,-0.182687188459107,-0.455071857733597,0.112591469456561,-0.450049188167467,-0.00443566426060076,-0.381991484851471,0.163389398922492,-0.659354202728874,0.555245653148005,-0.0165825348509276,0.508993511051272,-0.765042859050783,-0.394118754713193,-0.996133628906466,2109902
-1.06443069370292,0.149176668215532,-1.12773201481601,1.15403851212786,0.0997319289946994,-0.208320047978368,1.50968403933846,0.459217197516511,0.0971281294930521,0.479084370136854,-0.48487783665273,0.159041918831487,-0.353141884773323,0.091416681322299,-0.0165825348509276,1.01795124172667,-0.815839710546263,3.34304554475147,1.16576027359526,2110540
1.07800787040305,-0.645550564738219,0.727948167915256,-1.42009373391502,-0.921374830447019,-0.755232511435863,-0.435796042307704,-0.86854379168398,-2.24045880292362,-1.37305830760685,2.12837317164921,0.567712121162725,2.02053905499651,-1.24139357712372,0.0328113491543192,-0.1664086862024,1.96978248778571,-1.19214161475875,-0.275206613172531,2116787
0.0226626413624815,-1.11562310560506,0.695494435015403,0.404909297266641,-0.307427746913954,-0.139563101153444,0.225995043635662,0.0907563145497031,-0.375351765555391,0.144881944070102,-0.431254301749852,-0.255853760890326,-0.994901386709195,0.315633018250507,-0.0165825348509276,1.40412039313148,-0.934595526079009,-0.689349567307475,-1.12788821238975,2119177
-1.53263920344988,-1.28000567921977,-0.970259698041469,0.272060199810735,-0.173530502355957,-0.580257765771573,2.23519764384888,-0.0950981686792926,0.755000915914104,-0.153837313959283,0.113591257605728,0.902755085784571,0.0881973688115842,1.45374823294743,-0.0165825348509276,-0.420599218762276,-0.974045651130309,2.17016702595194,0.606932316211069,2131601
1.07277202349444,1.31341037529039,0.40682764451192,-1.07110488726079,-0.602394317368042,-0.516191677697392,-0.246571757255735,-0.877774621276763,0.00358426882082451,-1.02153720063659,0.334061717302114,0.724794229118087,1.92802615574525,-1.22434593613577,-0.0165825348509276,0.348759246810458,0.0618037761926145,-0.686341613373915,-0.0115903337498584,2132424
0.521651761155441,1.30753578252781,0.327860029768565,0.224900580698485,-0.724837299062396,0.430338898620138,-0.565651640449348,-0.396403903052442,-0.144450512249326,0.0640749993227796,-0.39771677603627,-0.0241743406819504,1.25188751694289,-1.58225257175222,0.101914632513848,0.39209619686507,0.601389490781448,-0.855283984962335,0.258793269448129,2132982
0.764589995163186,0.769691148432144,0.00179416386371952,0.128480874389846,0.0145922484407255,0.0397066104179674,0.161822417257367,-0.295687194660273,-0.0308013537912062,-0.163783108298946,-0.324034514399064,-0.559642709192672,0.0528279397647458,-0.620321119600665,0.0328113491543192,0.265052402650165,0.18848399465373,-0.0325751551611653,0.0948481718738521,2133204
1.69469968206303,-0.872771935970221,-0.446446028245541,-0.0180860869504114,-0.41702118713087,-0.847214531657439,-0.391043299413393,-0.872767288653577,-2.37853505356694,-1.45082342069876,5.09429208123838,1.33408844068828,2.89123291872607,-1.36251116808143,0.0328113491543192,-0.223017630627911,3.68853942919878,-0.594717439327181,0.332777081842399,2133380
0.65477298080012,0.868712139563539,-0.130566986006136,-0.133273868099181,2.32188737948039,0.352163089342488,-0.463893696585797,-0.859243458292333,0.0536448657826392,-1.40829909062369,3.33237829557953,1.39681420702445,1.03271308294893,-1.26111927618738,0.101914632513848,-0.506885411295053,3.37057510658658,1.63207323350029,1.14121239646067,2134220
2.01409762048296,-0.0315478180977386,-0.159125407230909,0.279856768818029,0.968088265596866,-0.106525295495807,3.78243159343263,-0.0868468382711291,-0.435463194026078,-0.498892428804064,0.142449840499135,0.21812227586959,-0.837091078811364,1.00149661673808,0.951600738310276,-0.266282571033071,-0.868645731008233,1.03985032499796,-0.384412873874837,2135748
-0.147476343487264,0.461607636827304,-0.956622663135973,0.143878138195671,-0.582687985203054,-0.762623823163828,0.711951820048787,-0.877316373668807,-0.692994814809259,-1.22634647256528,1.20912570663026,0.94630827843426,1.9424201767158,-1.05465687126472,-0.0165825348509276,0.305530259599976,1.61033967166023,0.853100287272093,0.862728139631985,2137799
0.976351292207183,0.0926030855812712,0.4629555001936,-0.143168934538038,0.711379326051444,0.254306244603396,-0.0510517844413914,1.21311735052229,-0.107465828480458,0.496815501891753,-0.403197327676677,-0.901698432190493,-1.1117895910281,0.128119831509693,-0.0165825348509276,1.48427103144025,-0.846728546281948,-0.687146453426561,-1.56774305561702,2138375
-0.391288769775571,0.904186338564582,0.257316868472773,-0.36836806585026,-0.431307905795639,-0.0411285871076053,0.448991577415159,-0.382508244983664,-0.268940733854874,-0.221482425063564,-0.0238699255332855,-0.697163298287865,-0.802241367402604,-0.0738815876064817,0.117418825457747,0.578153845702469,-0.50971354421952,-0.197154637778658,-0.796448875695095,2138678
-1.47417591695438,1.00722213248195,0.89730222378555,0.34992531216245,-0.601541725210771,-0.294470719298808,0.377148824496245,-0.460574359869822,-0.541978569272801,-0.384559761093253,-0.158374415793953,-1.11538394588181,-1.08539155585422,-0.0827538248754875,-0.0165825348509276,0.250546849892137,-0.141524930793414,-0.666743633503191,-1.12481549706526,2139733
0.614912498130128,1.20476161924482,-0.890195003585425,0.652060739323614,-0.322964677667233,-0.558981960139456,-0.375640397339144,-0.649159108032078,-2.17843174149485,-1.2220849112011,0.656249268133339,-0.204433129107981,1.28643791776413,-1.01077488477029,-0.0165825348509276,0.36932733307673,1.43295126232541,-0.407888736608167,0.500582520300518,2141116
-2.2421431286749,-0.49958143760699,-1.29450327738708,0.162359852621386,-0.639829901100626,-0.884831411201054,-0.378167569341196,-0.924957631961346,2.96097474781827,-1.41097702620605,3.08798019407393,-0.959752443682889,0.670260033772726,-1.11738368018553,-0.0165825348509276,0.238090855826541,-0.33974082550885,0.638542618562359,1.88338753481826,2144796
-0.543460337564375,0.527165213872564,-2.94541498470315,1.2239971670667,-0.451162068083469,-0.342600256232716,-0.472950872153845,-0.802758401454773,-0.341097490246862,-0.914929089397841,0.0605527604250802,-0.394610203406636,0.466424385262923,-0.857563508935838,-0.0165825348509276,0.672998458223644,-0.127494296273246,-0.672367464729781,0.144253200487293,2145166
-1.4527331200106,1.35134188856155,-1.07640292183783,1.14477959431643,0.387485531390601,-0.568899367049384,-0.302608092464686,-0.580392955610042,-1.76059700584419,-1.26632036796115,1.33147897889961,0.458452578564722,0.33244132061586,0.424673066726484,0.0328113491543192,-1.43848744989522,1.3976013610904,0.0653224905115058,-0.0668324891089819,2145694
-0.708144632398255,0.844968272176509,0.661430633665804,-0.327161888717087,-1.17235330420649,-0.869553822515728,-1.16199163895043,-0.738016791553523,0.61283140232938,-1.01040544761023,0.369450253212121,-0.635998068940771,0.173709177493998,-1.0390481854084,0.101914632513848,0.12204865927695,0.495025865025985,-0.042057065871154,1.71769789025666,2146138
0.592912462857213,0.87622449960465,0.419990622517983,0.752088458021801,0.57756435208774,-0.763640631508069,-0.802524025624465,0.287072419291809,-0.044871192498273,-0.625169626411161,0.0740138688563516,-0.583864578240385,-0.155380575185462,-0.432065090485692,0.0328113491543192,-0.33020204299536,0.303630393689422,0.639217626473283,0.194679985372566,2151024
-0.103644381954109,1.05008272325256,0.640209695411505,0.701316088636037,-0.455821648525596,-0.615923564452621,-0.728938341365057,-0.0910479883675794,0.0439599709820848,-0.269932808783224,-0.385532757163621,-0.0655356255615417,-0.359753105319306,-0.0584895357745489,-0.0165825348509276,-0.30792472136768,-0.313532433151955,-0.352458455055127,-0.144986020662644,215131
1.77092468844852,0.476585299295819,-1.17664206445017,0.08587738268361,-0.154212429601414,-0.377297272331894,0.0729484069925855,-0.55912218366093,-1.71910895448539,-0.635653351379087,0.511522446559077,-0.403793898912376,-0.973230672148123,0.370789569482554,-0.0165825348509276,0.451110737405273,-0.660893812865799,-0.947364923541621,-1.50749743043395,2152442
0.945409165828756,0.546438387656717,-2.06842475407015,1.50239593571417,0.683175894113824,0.906490593009051,-0.254442130340994,-0.221602491535664,-0.123908367650768,0.182972391662003,-0.544759751571973,0.179740778434904,0.459552108391222,-0.456893829001444,-0.0165825348509276,-0.364397904326556,-0.596069271578986,0.212705326122074,0.951946363808752,2157529
0.374312299638591,-0.838261430140378,-0.501676949346632,-0.722544324591835,-0.667868884317781,-0.51667584097118,-0.296846020080517,-0.597239762269579,-1.38580860907227,-0.350017938893306,-0.360813609825568,1.00217936864869,0.298832981164275,0.848885517527047,-0.0165825348509276,-0.419805516735072,-0.692855742056196,-0.425938577878224,-0.176219965834027,2158101
-2.00968820925369,-0.401208710510699,-0.0476480122325384,0.452659306874556,-0.910692025665923,0.242893693500449,1.676526239618,-0.268646026543807,-0.249608907387748,0.875365047738879,-0.585430680630593,-0.632863119803055,-0.57872789499545,-0.0855111293842526,0.0328113491543192,0.74341900210145,-0.648597791493994,-0.610456790144748,-0.933378552466215,2158329
0.492687994320989,0.769316350484354,-1.30091735936966,0.784905695135904,1.56628055479631,-0.338019937213504,-0.527961368287059,0.62520226827625,0.53963069646771,-0.0358466248794141,-0.462810195263661,0.110582240016907,0.109436790807764,0.313495483351741,-0.0165825348509276,-1.20568360210974,0.415621654705786,1.16082513821575,-0.262530829746589,2168082
-0.634524445731623,-0.393135207584905,-0.641658669418853,0.268626264719117,0.857867486824853,2.33083087367964,-0.755806241362313,0.385146159971775,-0.773635432132948,1.93363622429065,-0.689534908993559,0.232105513938134,0.19692070403815,0.294448844914309,-0.0165825348509276,0.478212081159755,-1.02007331493565,-0.840771482166071,-1.10198900606821,2172217
1.87111035434032,0.193870880160396,-1.69822839214759,2.56703948062979,0.637205813185025,0.0480526504563702,0.353500389667091,0.498955486958917,0.798495653008821,-0.208967852282345,-0.364057805822474,-3.28508583533935,-2.05380404105176,-0.993308911648211,-0.0165825348509276,1.41575706429914,-0.713725908695242,0.361072515004228,-0.779180885088526,2176530
0.799763937243079,-1.57136546680778,-2.52228648047903,-1.92895132452083,0.391403596929395,0.244949729358362,-0.593938690268989,-0.227449063320814,-0.279013520831949,1.50133447761667,-0.592729611712223,1.06492942298599,-0.0305336666787476,1.72098151487865,-0.0165825348509276,-2.61742565704489,0.0197541538307222,1.27518133978261,-0.103631227624724,2176784
-0.298266395678243,0.166792401521035,0.543490135700794,-0.892442021646246,-0.0469596924769251,-0.202162368254696,-1.89060499527821,0.976185371496319,0.0349280677864059,0.564524713088691,-0.292022887053667,1.25720524351994,-0.315006153368442,1.65854160641419,0.382482192244333,0.338813096393344,-0.815834291813089,0.172281446178092,-0.605710429536526,2181724
-0.698628997910653,1.52420535416353,0.445205946873476,0.0432451113928446,-0.152269271323428,-0.327640144840133,0.426169046971872,0.129694932635472,-0.192723831297934,0.129145665424975,-0.385841478446982,0.448586409450737,-0.300028430757393,0.846306921521014,-0.0165825348509276,0.604599003873075,-0.383080213879539,0.763520430384261,-0.802209282811864,2183291
-1.46357959428963,0.767091697743148,0.571065458718432,-0.0746147804294011,-0.969280027502771,-0.558149286543423,-0.0401707835020661,-0.211649156883733,-0.421090072467695,-0.383855709536409,-0.205664802213504,0.800377241138213,0.0122165326888352,1.46262604238547,-0.0165825348509276,-1.72764939028639,0.0926550980297167,-0.383857970161387,-1.00904267635614,2183356
0.594777211961644,1.34661811449282,0.541050425425574,-0.745897924379102,0.670067866515401,1.21466499509222,-0.488653429605478,0.40191318905583,0.116596131263796,1.04601229231496,-0.593978595514142,0.604420419941967,-0.232478403296728,0.928196012608923,-0.0165825348509276,0.540444409139868,-0.435124571833052,-1.04072240901139,-1.90129926199126,2185290
0.700701207541361,-0.170291417408413,-0.10168797964016,0.478251780443034,-0.0240195478500708,0.0688092914531876,0.864030845014299,0.759157714197797,0.104027304942218,0.379769630911329,-0.17834380046753,-0.371821771049552,-0.78678539406358,0.59790914153827,-0.0165825348509276,-0.0750587767699166,-0.903849715444961,1.81312461909543,0.572820992938953,2186951
-0.127209014057478,-0.0205858534386014,0.57802632368829,-0.588917080261674,-0.607153845910371,-0.513138625410613,-0.130524800086106,-0.494834878536447,1.11756206278321,-0.445896562317737,-0.327754872749201,-0.565274950435989,-0.461368599724802,-0.325085091171752,0.425004677003482,0.0893038456945947,0.258761654305614,-0.292537665790047,-0.0756049327459286,2196212
-1.31227964952173,0.0673045377351498,0.583379781966258,0.375139061391129,0.170571116957379,0.371233394218667,4.0025192107337,0.880142759506821,-0.0962503291416197,1.04833173691242,-0.348348744584089,-1.54790949225351,-1.9803295420097,-0.163969032151569,-0.0165825348509276,1.71972333129635,-0.971967914211054,-0.540551393906782,-1.45697234644972,2199403
-2.39389663691186,0.461595131781666,0.461851790490614,0.476023180903047,-0.769913394739869,-0.965091214214999,-0.645019200263435,-0.762706214643398,-3.12581709682049,-1.33014453772924,2.73753121783179,1.11841540464253,1.41396660454703,0.101106826907288,-0.0165825348509276,-1.62952624297329,5.4049429217486,-1.58313621996758,0.183605256685402,2200416
-0.696969473467385,0.093544520137268,-0.11668171396844,0.820508831873518,-0.402985196486391,-0.759544125074995,-0.310353735951483,0.198882045156558,-0.753242969306009,-0.122936527061987,-0.44191917595463,-0.749249939058348,0.0697566949318018,-0.667688938757281,-0.0165825348509276,0.652950088926155,0.121045919430626,-0.0957491966357832,0.532521131980922,2200813
0.0967393869274883,-1.94652579024747,0.263089203826332,-0.267372648413141,0.21700707218359,-0.411403254613144,-0.928283714289268,-0.422703492289474,-1.2265132061375,-0.917747178053739,0.352758975169221,0.231409218123842,-0.259925499996206,0.288745982850205,-0.0165825348509276,-0.0377626657877668,-0.6175167798403,-0.736111909110891,-0.503552213556225,2205389
-0.327974359353684,0.976154760167551,0.228731200622902,0.0791464277611859,-0.228139429865357,-0.774950083288981,0.0558048301025619,-0.43303315019327,1.08505629452766,-0.785408991792218,-0.017431534266736,-1.09015172124382,-0.203537042057048,-0.699658946206617,0.0328113491543192,0.18995291343247,-0.0301714100775487,1.68857941397583,1.02297065174742,2212664
-0.819013213000494,0.183527976748231,0.576540574235505,1.05413071916691,-0.088434948836837,-0.772568826607124,-0.706346082520371,0.531356327976789,0.140544902646751,-0.582457153004709,-0.19907696336707,0.146073435999035,0.27751102563999,-0.15558888492161,-0.0165825348509276,-0.876239011390658,1.01409010733341,1.43780747436037,2.02369883854292,2217034
0.59600648082854,-0.922824749032829,-0.0719564170062488,-0.212748372908564,-0.24670926903942,0.11508621550885,0.134119062604654,-0.5059149617809,0.357311240209982,0.370208689402128,-0.464715856557699,-0.498087725207079,-0.704720608801761,0.187128801045461,-0.0165825348509276,1.25940727567373,-0.745717516858588,-0.763415412456268,-1.01644047653053,2218615
-0.407642704940069,0.483318985558836,-0.991304680473867,-1.87961448003775,4.84583988755089,0.51082540348024,-0.637357204062617,1.40274803793061,-1.12706337959104,0.894117391858186,-0.596389914346323,1.24928589623025,1.01148646075273,1.42183899161673,0.918224995128599,-1.50711835213421,-0.154079712442479,0.452182225837272,0.794989559873222,2219842
0.798378778614085,0.152863500505359,0.474379596034263,1.10493261194971,0.493875869225098,0.295848539500122,1.40115661614224,1.51761635794643,0.00814381010030849,1.27284262043701,-0.59491631273201,0.080220118020524,-1.17623185522916,0.819432896606081,0.371850468735633,1.60437520721576,-0.95459650305381,-0.201285315082866,-1.76512081307328,2224150
0.93878230183111,0.88268013632215,0.00543404058026139,0.593572348510443,2.2662297888941,1.13593030639219,-1.0560483733946,0.976993245093848,-0.247646720025517,2.2924464877549,-0.703708010286887,-1.15971117420998,-1.16839185089202,-0.403426330752055,-0.0165825348509276,0.231218962412524,-0.707259568869988,1.4757463231454,1.21228149652101,2228399
1.32053877146635,0.0658793043043385,0.118108351020981,1.50701134592484,0.0417151690836587,-0.356424064776732,-1.52582252404433,0.469576030637113,-1.00019994810399,-0.164598049752939,-0.133439880602853,-2.09414122603385,-1.27335024436175,-0.765583118089631,0.0328113491543192,1.02426797982458,-0.509712978160277,-0.321861730950362,-0.163311908825724,2228400
0.397288091869932,-1.14704543599641,1.38087874327335,-2.88647459813871,-1.33873390872156,-0.954403577926344,-0.569276901540898,-0.959858593517996,-1.42259822695057,-1.42771201212117,4.52434687744612,0.550840230001943,2.26328013289465,-1.5336303812155,0.0328113491543192,0.290043780085724,1.00359032641369,1.09671209086968,1.93146761207354,2234271
-1.24035367508968,-1.38101137081798,1.09182653373287,-1.16161282701362,-1.27320716679254,-0.875486916449673,-0.769771582643617,-0.898390525910683,0.0262030271379451,-1.29416845809076,1.70233862872438,0.734714018880903,0.913039256323052,-0.740285115405984,-0.0165825348509276,-0.340478869599279,0.562406231693077,-0.953831652509509,0.294777931889673,2234422
0.135155869662634,-2.59922226718384,0.0531418805639734,-1.1599336414607,1.36269457478657,1.73449810797647,0.0287458225975153,0.656323722996894,-0.182443454083986,2.04469375559365,-0.679058094415868,1.76983337825098,0.495550784182031,1.34851866446529,0.101914632513848,-1.11879277518961,-0.588874835059098,0.0630398022297296,0.128844484768143,2237571
-0.417084805223878,-0.112293277503852,-0.565710523309126,1.11976759759464,-1.07031446934489,-0.292627919368791,-0.224971968204354,-0.322573111260362,-0.436572128744453,0.181507160098783,-0.467165320769041,-1.54207681882672,-1.17292687298473,-0.281108437805597,-0.0165825348509276,1.20393274337069,-0.865275238093452,-0.217120761120213,-0.786204347277175,2244172
1.07698051802676,-0.198798642354317,-0.0604902817502958,1.64805235807484,-1.17312156439017,-1.01071344938549,-0.649908485602087,0.128880728657576,-0.289801145544647,-0.845931743748605,0.391620660045109,0.667166927783059,1.9017894983434,0.00447972919117892,-0.0165825348509276,-1.55339632116663,0.609450041912298,2.97964325383825,3.14957309934863,2247869
0.00511366324624502,-0.338500895482594,-1.94364887604832,0.482846641998631,-0.0265500742198412,0.393055389490783,-0.542153902556617,-0.056979847977349,-0.516068656900262,1.2329012602127,-0.62729350493762,-0.874398562027909,-1.03626604148111,-0.000115619740522567,-0.0165825348509276,0.516207581191811,-0.35977856453119,-0.742813885990427,-0.733212860718944,2250648
0.650178251652974,-0.103389910618761,0.875802514880942,-1.28588124995335,-1.02437003929894,-0.69854333244887,-0.536093554272442,-0.599697181416372,0.0668652885455607,-0.727337165640573,-0.119557452085953,1.18486920743937,1.47196532022752,0.961017540771041,0.0328113491543192,-2.05991845211283,1.12000812228459,-0.721077097843972,0.115180684294348,2250836
0.287502806860767,2.08454632423494,0.0476962880303736,0.539087501714201,-0.625463408571122,-0.577026624060886,-0.521552917474205,-0.417751247410433,0.142185523172441,-1.03883075556061,0.892304687782949,0.261365303552275,0.644663617516424,-0.487430931865976,0.0328113491543192,-0.312361841032882,0.187305253004768,0.588290712127181,0.589847245456097,2267382
0.713355439203871,-0.869849653550287,-0.230827812565857,-0.861722561024879,-0.653611924896687,-0.586359464692749,1.16210788020709,-0.511481023818888,-0.290807645887963,-0.684880475716802,1.74956369769844,0.308852922960083,0.136950971438387,0.657728757767148,0.0328113491543192,-1.22653915549935,-0.23277453281695,0.792375653496211,-0.00954668271937594,2269346
-1.15816819171594,-1.04231260108078,0.777425689433568,-1.50276147403195,-1.24227787221038,-0.929540321125517,-0.587226238055097,-0.869454462333092,0.286541129508749,-1.33816859155245,2.10262251329905,0.145524861165949,0.565965872302284,-1.25539715742285,0.0328113491543192,0.414959778005264,0.164847918342601,-0.810159373497367,0.45058523377966,2271329
0.549404935136304,-0.566655333673667,-0.0144195913606588,-0.421308379408783,2.59247276943078,-0.109353890392706,0.468633981257758,2.30920873725159,-0.273250816223485,1.41503191496562,-0.62688994134793,1.30433279259069,0.519322817302423,1.89712228448135,-0.0165825348509276,-2.20539606553965,-0.266319181152613,1.79434657430311,1.32784470281068,2274521
1.18364654837574,-0.925984408377722,0.717825294207811,-0.0736371617112708,1.29429092987731,1.86338906721321,-0.301087614086411,0.168496218798809,-0.23832349383432,0.97678305403641,-0.548728417804324,0.304604740061384,-0.731011792735183,0.531448844398747,0.786788891134056,0.671735573683035,-0.942624521671326,-0.0534203628767597,-0.798000655554897,2276121
-2.68510695009715,0.710695270521847,0.535876106583563,0.713361640263787,-0.45524757984538,-0.506947943127078,-0.0256638457217034,0.434279856381523,0.851035896143645,0.86762036540438,-0.580363050983032,-0.507078385650115,-2.11736702720638,-0.115782042185072,-9.10687114155016,2.93263508111867,-1.10752578107026,0.0278027172481422,-1.13378650722595,2278618
0.0627469826023023,0.41710962011134,0.638594811239032,-0.546900903823333,-0.752787326968324,-0.676811175652157,0.102585327053359,-0.490663318452055,-0.0201284996363694,-0.946625518052156,0.171502788665548,-0.168414917867684,-0.265670510318579,0.397415350429804,0.0328113491543192,-0.0390389248546609,-0.513968238835688,-0.304685534994611,-0.348995060295466,2285214
0.407260216489955,-0.0377688716648829,0.264151394837589,-0.0854671691734651,-0.674104399425471,-0.533378515839209,-0.355856673113415,0.101348967109654,-0.40728749936394,0.0305845320896388,-0.434090672730274,-0.0491193393490507,0.122920771494997,-0.0289408336380741,1.4348701794412,-0.538552468792261,0.185122432831853,-0.160589372329458,0.150383168867048,2286108
-0.573307878100435,1.56003447167329,-0.553226870681227,1.70467141160047,-0.714421589417509,-0.259853322430398,0.289101745381186,1.42708978041186,-0.15544871486817,1.20343912937581,-0.569421921136449,-0.465051402869584,-1.16520901220307,-0.370678674578574,-0.0165825348509276,2.02960928247244,-0.865610506553066,-0.0177725627219311,-0.742708719821459,2293123
-0.0842581847308578,-1.09366085989749,0.524877502003976,0.321678367256504,0.699674818864399,2.77597321964097,0.263445232157848,0.0177955370552925,0.0365529376501245,1.65929175461099,-0.665638015275626,-1.36974246817424,-0.686338225746192,-0.723915666045592,0.356078986461829,0.282060765322394,-0.269773416634666,0.922758157303719,0.16637677235381,2294852
-1.36244586984862,1.89785125684508,-1.23458219835893,0.109483550795859,-0.299397331263783,0.972275556624696,0.778152719967124,-0.643091379279434,-0.638375337434896,0.944542760241676,-0.603993470619796,2.45105052171375,1.14785961309754,-0.612607517379554,0.101914632513848,1.77540638000321,-0.456168317825214,0.575493031546063,0.546448202461752,2294873
1.05151022927119,0.638038125245294,-2.22317656084103,2.20968807317021,3.17008397999964,3.08798300150689,2.61588387249638,2.63704295895106,-0.0999105957381307,1.98664446541726,-0.683150598536753,-1.656773958223,-1.62970255083485,-0.664144646059393,0.0328113491543192,2.51849210644126,-0.901494878779302,-0.173721212660797,-1.43925755925115,2296332
0.0246746007087301,-1.9172721996445,0.584989321045604,-1.16338716848949,0.175097742027331,-0.595510826566961,-0.288093120748783,-0.0450733967782987,-0.279420100856823,-0.664638238788804,-0.0986913805173315,-0.760832413976237,-0.593109064469939,-0.893732867221211,-0.0165825348509276,-0.0381997888702358,1.24372911243062,0.34709650799157,0.67243799852696,2305114
0.802971843864825,-0.555829960682065,0.508525719753799,0.318617784253863,-0.59279800572733,-0.5155124967275,-0.47472169588035,-0.501053881103851,-0.626300197071821,-0.601773922369613,-0.134109369446102,-0.460196095250174,-0.593336041041242,-0.0855314291397768,0.0328113491543192,0.285765263771649,-0.493428886436422,0.192746012951364,0.18943966180925,2305115
0.327230890570275,-0.783198197109157,-0.723391620928709,0.859987934559479,-0.67593147161622,-0.654004900522204,-0.683975311083977,-0.34449750401348,-0.773718462720473,-0.719669440467485,-0.170656560385318,-1.66373891970972,-0.367481804680167,-0.514816759657175,-0.0165825348509276,-0.773686625152175,0.45363249280285,-0.781042982545292,0.29102305782648,2306459
-0.634492278226385,0.925136641072789,0.980195692924236,-1.62905898799821,-1.05497245559668,-0.627655744305545,0.355350274624254,-0.796413868640123,-0.0625416453821819,-0.256549698105667,-0.382171924408589,-1.07956316477668,-0.223977222471413,-1.45554856073259,0.101914632513848,0.654453558751607,0.0975804169764537,5.22785097631696,3.99150477161725,2306893
-0.0890738527163246,-0.778596787561907,1.11945566849176,-0.630983972250753,-0.202731690212303,-0.319377346136156,1.00997666800029,-0.421917663468444,-0.0645405016806457,-0.593059597978581,-0.00340298649952867,-0.007120962623087,0.31500620945561,-0.649331478251714,0.101914632513848,-0.341060575286937,0.634762258848272,0.176233824736737,0.535547004125553,2317120
-1.61367010193134,-0.3104599717073,0.687786950625705,-0.0601129736516604,0.0829334341484298,0.507013902667008,-0.365700238000293,0.0335823131457038,-0.0792342722048248,1.2592050159091,-0.632420181928625,0.28657032670302,-0.0465868162543606,-0.047351820579174,0.835287473369422,-0.131533308429158,0.177336932584969,-0.308253974369068,0.250521054741951,2319068
-0.198259213832942,1.1371460308849,0.944246344859317,-0.351794153911078,-1.1348656757822,-0.841849897192243,-0.423343959584665,-0.498182062572541,-0.824662161482747,-0.9249820642236,0.24935196511322,-0.978176547311295,-0.00377158555447729,-1.00751251450927,0.0328113491543192,0.123251087097729,0.0243322456256716,-0.609037797400853,0.124048771602809,2321962
-0.227412851533743,-0.592114234627762,0.590316171397622,-1.6472035605267,-0.521781267044067,-0.383771885262317,-0.244675013068796,-0.178905581179153,0.438169337827814,-0.584406913280175,-0.10786679902204,0.552286104620509,0.972794343025161,-0.448614626780269,-0.0165825348509276,-0.633878265795492,0.779796360339991,0.374701180952093,0.608728812494468,2331869
-0.100077158902714,-2.88674699695739,-0.106207976368223,-2.23171977322334,2.81070501232487,0.888951230650668,-0.673878409187361,0.62486888149112,-0.315584869047266,0.652639349432066,-0.542031234233098,2.58393105907485,0.903780692146804,1.65194694656589,1.36514907945115,-1.60882875493342,-0.286955144861036,-1.06799787807341,-0.689996410999009,2336735
-0.40199154776579,0.196478071907641,0.734685297930331,0.0398325063341076,-0.712246596699256,-0.189006217204195,-0.155723602533249,-0.503575717702451,0.204353037182496,-0.143584691284345,-0.374885206654443,-0.387051631503559,-0.490357067083428,-0.17671952005423,-0.0165825348509276,0.592597141097179,-0.603204359895278,-0.122108105651226,-0.349384463309243,2339674
1.02923837883991,0.504105631528596,0.462132465105469,-0.12244461615059,1.10763140903512,-0.000460049799222794,-0.208818437338223,1.97367887485537,-0.200088908758175,0.750825908675328,-0.573447769369578,0.145468477694481,-0.666082038320235,0.671590271156422,1.14508158708918,0.72723740937243,-0.78336503036234,-0.561012184751101,-1.23867285144719,2340155
-0.446289312440536,0.641469268851601,0.641070528495775,0.64252692283527,-0.709513705084922,-0.31438107832433,0.726491886926086,0.322131994345302,-0.0582820183683821,0.521115330799195,-0.166697862737078,0.647481409662512,-0.272767395686097,1.38758996368329,-0.0165825348509276,-0.532684393637874,-0.859228950163936,-0.366927509794906,-1.37600512003676,2340322
-0.320626953867911,0.412229753901037,0.100332798688007,0.219250349474872,-0.910430148592606,-0.925340710799177,-0.199913801424294,-0.510314920671151,-0.0833430104469772,-1.24389420217318,1.41744515521999,0.443737063555057,1.44704360744471,-0.60997070501381,-0.0165825348509276,-0.697680839088583,4.0853433422317,-0.0637644273704797,1.15879180304688,2350037
-1.23957667486284,0.30668202893773,0.339634765205917,0.700172014832895,-0.458127561332085,-0.523023893450958,0.172137777552884,-0.441918634901829,0.897974631130112,-0.707758319693096,-0.200266920182343,-1.36547997717507,-0.782936474184402,-0.937153600402991,-0.0165825348509276,0.460062803169368,-0.177615843326786,0.207546675199496,0.307212060543351,2352038
-0.866130722444108,-0.204341557376505,1.57759713903574,-4.67921697442787,1.41316146977846,5.78938332851991,-1.37121581099675,-0.492773443571879,0.987074914312684,0.839258577414103,-0.603270867838758,1.29701847655365,-0.677796519797471,-1.61631900850833,0.779920889390809,1.14425373892173,-0.13490386085563,-0.442212127554883,-0.0303870306804608,2359944
0.921753575191422,0.326038808751442,0.19615087102071,-0.437956174898113,0.139996848403454,1.17865996146915,-0.202264720323726,-0.232590884090902,0.212370803350267,0.635661748718621,-0.56440756936533,-1.74354405718636,-0.310514713963315,-1.26439369400164,0.101914632513848,0.294931035576134,-0.00295899674513912,-0.0820614034461264,0.330087711619023,2381907
-0.315626994903982,0.0333243341019983,1.03785794291903,-0.587431800841147,-0.397254306377321,0.20928834327855,3.8779950644882,0.417754511447677,0.117836523430162,0.961244861716275,-0.535739917024201,-0.317813525225177,-0.987570153816306,0.794819153916805,-0.0165825348509276,0.403136677648895,-0.962888817801497,-0.138503841924744,-0.960061634035421,2393207
1.2948323093773,0.400597140632927,0.417497353577275,0.76836110276322,-0.396590521525665,-0.358328826190381,1.75740546937352,-0.32393846537514,-0.149045260755883,-0.135262402346821,-0.337253518879463,-0.769199960345424,-0.31066761290654,-0.604650490139586,-0.0165825348509276,0.531762666392886,-0.351421658724949,0.366432316902524,0.585812281382451,2395415
-0.191962690336822,0.949152459804118,0.926396987273451,-0.88595526892557,-0.433096674627096,0.524320278696481,-0.270362012637976,-0.189315718303534,0.133843932206099,1.24563555639525,-0.631016044594487,-1.24988047343455,-1.04197755062704,-0.671570317944354,0.0328113491543192,0.0608768804642315,-0.229425191093111,0.699610850427187,1.11103898958559,2395943
-0.493768673179932,0.535053874590104,0.75498882505983,0.0767494571900085,-0.454521896933403,-0.240897464255794,-0.337754743322861,-0.286877770808087,0.0293199326112742,-0.113439291940677,-0.396643807295691,-1.16761445241456,-0.756106321271832,-0.475152238807943,-0.0165825348509276,-0.021435782918212,0.254733043290111,-0.395909902539354,-0.541721738048822,2401405
-0.610571630414412,-0.0841736596633464,0.6465237107788,-0.201740472115482,-0.831001374542013,-0.493933292402159,-0.847698883632744,-0.455369853133769,-0.0891015112074321,-0.564511376234683,-0.258733883892333,0.315372975983916,0.0751565868788972,0.147694800427755,0.0328113491543192,-0.369248676706449,-0.525463079616244,-0.01916280482458,0.0586145157638394,2405144
-0.472570163251261,-0.403912833105017,-0.140423674254022,0.421697059254182,-0.0106945611470602,-0.200057960640118,0.785249395030585,-0.437587581749703,0.674177844243873,-0.566206604559707,0.0458175658341181,0.548514776899552,-0.176608276524424,0.616078083825344,0.0328113491543192,0.132760556320884,-0.482253062470757,0.404913099942403,-0.112090942017185,2414406
-0.193633598537647,-0.700240391711821,1.44623453965213,-0.44047859849915,-0.858994747385587,-0.80175992768506,-0.996417824894208,-0.0347293398896356,-1.02068847528302,-0.480445829957861,-0.240350683044137,-1.75155185522246,-1.03947722046531,-0.817317444789412,0.116381788514847,0.622974041096456,-0.286434607771839,-0.273128904188769,0.178286939284173,2419459
0.805861587554845,0.229964084974051,0.308722422634292,0.0365339481837465,-0.930957807414457,-0.906078103618216,-0.514097544445123,-0.576104919740784,0.775944082830179,-1.18796929200769,0.864669819376103,1.32682739396127,2.86490185863962,-0.020775058887778,-0.0165825348509276,-1.63659039147798,2.55579856974642,-0.542212154212377,0.800803741980493,2425694
-0.305473517949968,0.0386717662747959,0.839472193525717,-0.469945988535451,-0.0700785063038528,-0.0272093477481637,0.096637524426224,0.0202605454967764,0.274409815456127,0.0950541175810257,-0.471338058849638,-0.991628627595328,-0.501108525233532,-0.646731469951123,0.101914632513848,0.141293786249662,-0.135788273741389,0.0090909199389588,0.269329488570153,2426863
-0.806290978847373,-0.897625967561531,-0.30255947405109,-0.0866122218712052,-0.564280272256814,-0.734254334920155,0.335651722600167,-0.695955231182985,7.26236789109757,-1.06386214922503,0.532312713625066,0.297445961430447,0.627246877113055,0.244745396702451,-0.0165825348509276,-1.25294184224902,0.8785802423806,-0.820931341708633,-0.239947752719571,2430773
0.257916986227222,1.05631326397727,-0.622506137882859,-0.230201917036502,-0.596663262869082,-0.474765003984633,-0.251018071050922,-0.733789574013088,0.921525578975094,-0.639936289194938,-0.20159760408878,-1.34677597558903,0.239905117469904,-0.923853257576456,-0.0165825348509276,-0.157464194186506,-0.0954396809141186,0.758139385162319,1.18885359895097,2439458
-0.493013443093954,0.0694507854720712,-0.305413809674869,0.983440604926962,-0.782401000813016,-0.668450322933815,-0.00339910278852054,-0.469137042457559,-0.201666976392644,-0.428753352205191,-0.239663318948416,-0.733625308379762,-0.508034469748967,-0.542096037621868,0.539731681746674,0.487676703508892,0.217946573427399,0.509442984084377,1.0249875601098,2443354
-0.0292097166592532,0.0392364958668555,0.240622970400581,0.999441622146816,-0.238957499466682,-0.139209505295555,2.03420450788847,0.0917504736029986,-0.240348215730357,0.441151072047306,-0.492680323564737,-0.65639937655459,-0.185806297877051,-0.533810918398846,-0.0165825348509276,0.315545142662325,-0.200086061702682,0.0873671521532294,0.604594833188598,2445526
0.705607110000562,0.399489148907426,0.379058184769183,0.736699110964349,-0.240173251419573,-0.315643620656935,-0.213617887694864,0.578021818128804,0.15250360192721,0.307843981150796,-0.466154289655441,0.123287405745883,-0.934103588101838,0.286645297477149,-0.0165825348509276,1.12360298360676,-0.866431223416981,-0.897556096521675,-1.53285505023286,2448298
-1.07938515100957,-0.148582501204931,0.250846076807576,0.705723518311659,-0.438335017451141,-0.690427559857725,-0.669946392595981,-0.602209732193718,-0.0993991398020189,-1.01333285785725,0.300851407683162,1.31458125874491,1.08065155836986,0.135212048716863,-0.0165825348509276,-0.838529260472373,1.51190445570321,0.119497683370397,0.926457998643019,2453577
-0.673214662020841,0.249365643358281,-2.02986495445828,1.52286954526872,-0.548173778748735,-0.502059106603598,0.330650069244824,-0.473137777214557,-0.776217494323602,-0.796722008422339,-0.10749109502096,-1.38275049299641,-0.620653631725751,-1.29204030551612,-0.0165825348509276,0.776769990717554,-0.122562072301899,-0.413809402534445,0.211217909155122,2474709
1.21330940311375,-0.717456094992127,1.47726776682475,0.100621298829765,-1.01086420149444,-0.532344665225515,0.130869418539599,-0.462165533224481,-0.505318664888079,-0.0309285134263082,-0.451057316421512,-1.17885885005242,-0.511140289945399,-0.964059321537812,0.608334890826016,0.305316402920234,-0.709654699993875,-0.506651424497276,0.278438254940006,2480056
0.577231526598128,0.25305205830789,0.209584081900818,-0.238062243821031,0.0839077347204016,-0.476520583773069,2.67255185922475,-0.363162365613343,0.317395097572953,-0.982004535880944,1.03618902547879,-0.153974233020445,0.395118334660708,-0.908964635129396,0.101914632513848,-0.375648339858241,1.70547341329197,1.25355567492488,1.53606764683719,2480330
0.339406942868972,-0.184375095362486,0.260134672557901,1.37752901927978,0.797738568361582,0.0352731464927027,0.895672808737937,-0.0283967178472541,-0.373004604845606,-0.237391687982435,-0.314335727435507,-1.11843722190214,-0.924516851903434,-0.855467558643669,-0.0165825348509276,1.38514708563085,-0.563948039563324,0.429422322881149,-0.0922627483951484,2487135
1.25975340006199,1.0780419916756,-0.278628076240726,1.36811529986528,-0.611450528721407,-0.502723796111538,-1.2237881179914,0.734075581553547,-0.10437752385952,0.652341635259987,-0.547180286064524,0.492337820709205,0.0252014624836146,0.402007079423119,1.7495661647221,-0.179649391976773,0.0392435184818391,-0.0877418742335673,0.33931254718708,2488660
1.37162472631182,0.502389845865408,-0.345712139149528,0.776440573300608,-0.293243491868984,-0.487626107357132,-0.551351833280925,-0.659025746776633,1.87098635019798,-1.13332469749709,0.485934303540446,0.0216437437472438,0.0046445029410256,-0.089944986067108,-0.0165825348509276,-0.15117471771536,0.369410434286941,-0.949778010221136,-0.404991664073643,2490180
-2.05921764316387,0.176216353651587,0.718428618152854,-0.361912488294059,-0.414974635482986,-0.249711775429922,0.09088080055943,-0.341075616500011,0.159059383573537,0.331405832191173,-0.540673307378383,0.142816843879993,0.108153360113352,0.110343569600914,0.276976614919092,-0.376170127114531,0.187533688202741,-0.278718143211205,0.110735174858351,2493534
-1.25123197239437,0.285063713111901,-2.81187517119793,1.82766763972613,0.201563353427676,-0.62927227313915,2.47491981859979,-0.293607524092441,1.9098114015239,-0.754561877922944,-0.104284614202602,-0.962570902363673,-1.29469707800321,0.131595012197685,-0.0165825348509276,1.13344823964065,-0.89562574365178,-1.15999514083889,-1.68170697799438,2498991
-1.35966155567184,-0.805639922429277,0.220816619953188,-0.0478798410619354,-1.15317536388894,-0.509645402715587,1.90734191111424,-0.129676757992545,0.438806083120516,0.520960458648393,-0.468851566345965,-0.397147891399431,0.182253254780964,-0.547181111476929,0.101914632513848,-0.133401137504512,-0.270529552560893,-0.29340376882208,0.384392356632422,2500377
0.381846871349885,-1.70629301027795,1.36421390362293,-1.00949797411824,0.128565614089217,-0.16698822510927,-0.999951760929596,-0.672694091334885,0.653470827112879,-0.719797254791803,-0.223178433547153,-1.65203596018179,-0.969667799441411,-0.559318973426976,-0.0165825348509276,-0.10280300196232,-0.270497962545005,1.25196737395474,1.52731715083943,2504802
-3.29998836288584,0.183613107182396,0.41261681186239,-1.11181860123537,0.0925275224517994,-0.559016288445644,-0.0289745010446485,-0.399178683529533,0.369285102715136,-0.852792257750259,0.046299274545176,1.07902843573324,0.781886861917522,0.851065682158007,-0.0165825348509276,-1.568735269639,2.01854810539955,1.3650975152969,0.981445629804151,2510402
-0.328757323158754,-1.23513956955125,-0.226016576792129,0.696162005414473,-0.356820253767543,-0.479588789500837,1.15783972968988,-0.110434991070067,0.0136028279943291,-0.0587463088019974,-0.283064452811784,0.874592011641137,-0.343840283719695,1.33922049444807,0.612963764503372,-1.07322882200442,-0.53174338321343,0.422909458578651,-0.561814069825305,2520618
-0.0282510620777345,0.257263401410597,1.23188844562089,1.20081147586941,-0.440129450156154,0.140799147293744,0.870061922554121,0.297101970120106,-0.47707280818625,0.539362135851505,-0.496975128023542,-0.496577608010249,-1.23462965888415,0.871800878943544,-0.0165825348509276,0.697567835815244,-0.994630405723384,-0.582069065652958,-1.58950092941965,2559453
1.6886100985038,0.555934110520303,-0.788702119041647,-0.507421052140568,2.25906548267016,0.57459951930528,0.680665876849346,0.175853238097933,-0.616162571705372,0.456727077642168,-0.545459327998734,0.755442718198638,-0.154194044590953,1.81327367028993,-0.0165825348509276,-0.508371032249002,-0.940673365873198,-0.273407965776895,-0.338457208330413,277752
0.339699822312071,-0.748978413892135,0.495880675228741,-1.56598114276736,2.75687585929337,4.1832902763889,-0.938490645433517,0.855236279141581,-0.0782252568956692,2.3873088412314,-0.710603995774395,1.98698527191547,0.257159818551924,2.28528965933288,0.145836582204485,-1.60035057522845,-0.828421311389958,-0.409404612302,-0.584805772277924,308862
-1.75689911835342,-1.98571725105978,0.561577146699744,-0.540813102964653,0.204697157735811,-0.0371770065734928,-0.614833949358805,-0.0305794764112402,-0.261931542418302,0.315813107395603,-0.51323366657662,1.15656437727012,0.159524435501624,1.89494780725252,0.0328113491543192,-1.65952596289428,-0.284128734603964,-0.556945597321402,-0.789059732888862,58325
0.861361670032316,0.79136294294511,-0.267680311694479,-0.604617989565561,-1.06914844662227,-0.783728379123827,-0.193721152808474,-0.570276375504914,0.495730407363354,-0.834452178894108,0.261983999999686,0.0567091635130977,1.09958394246925,-0.841679908486421,0.0328113491543192,-0.233921042500165,0.817236537531244,-0.738452544947881,0.195981904339213,92173
-0.314006893417326,-3.21049990638663,0.0138658322832367,-1.95197742162714,2.23126413188047,1.58794151675408,-0.163862359348089,0.841563452440826,0.117642522269657,1.89121781508752,-0.676634095997307,1.78353381301816,0.755254755071392,1.79590978367252,0.422457624985572,-1.8069611127682,-0.55112730275563,0.336600047742154,0.0356610764048172,923666
-0.663874938532155,-0.0186022411176415,0.86431464727538,-1.4305954283991,-1.08628353772906,-0.612679811998214,-0.609470186512872,-0.777079308821676,-0.727455794609392,-0.949597406089794,0.316764301376679,0.265766778077901,1.29979900563969,-1.34304161034515,0.101914632513848,0.503028946024945,0.454560082296928,0.321784151264184,1.69597019745405,965005
1.00723802354498,-1.38245570279093,2.09565991280923,-1.72863314036218,1.06735539089358,-0.341967236174033,-0.402113426611928,-0.287329515676305,1.37047334252881,-0.852588612331178,-0.0531975407961018,2.21804343346946,-0.51600838525708,3.12390311795303,-0.0165825348509276,-2.99732767874359,-0.489355605545846,-0.907386458320342,-0.562624565644409,983079
