pgsalome/predictR/output_NEW/signficant_features_results/pfs/pcaFlattening15_letd_ctv.csv
"letd_ctv_wavelet.LHL_firstorder_90Percentile_250","letd_ctv_wavelet.HLL_firstorder_Median_250","letd_ctv_wavelet.HLH_firstorder_Mean_250","letd_ctv_wavelet.HLH_firstorder_Skewness_250","letd_ctv_wavelet.HHL_glcm_JointEnergy_250","letd_ctv_wavelet.HHH_firstorder_Skewness_250","letd_ctv_lbp.3D.m2_firstorder_RootMeanSquared_250","letd_ctv_lbp.3D.m2_glcm_JointAverage_250","letd_ctv_lbp.3D.m2_glcm_ClusterShade_250","letd_ctv_wavelet.LLH_glcm_Imc2_249","letd_ctv_wavelet.HLH_firstorder_Median_249","letd_ctv_wavelet.HHL_firstorder_Median_249","letd_ctv_wavelet.HHH_firstorder_Mean_249","letd_ctv_wavelet.HHH_glcm_JointEnergy_249","letd_ctv_logarithm_firstorder_Skewness_248","letd_ctv_wavelet.LLH_firstorder_Skewness_247","letd_ctv_wavelet.HHL_firstorder_Mean_247","letd_ctv_wavelet.HHH_glcm_ClusterShade_247","letd_ctv_wavelet.HHL_firstorder_Skewness_245","sub"
-0.972240881831634,-0.702706884197889,0.464117169755576,-0.0557959889956425,0.0745463867879449,0.032764259649211,0.371289618589012,0.390121693410867,-1.31307176472584,0.133267022071821,0.201314482087542,0.25357162296966,0.0531946457755567,-0.0826955013255036,0.728912787237915,0.150897922868373,0.560217161866949,0.078354482121398,-0.143322746461802,1916742
3.83087610704674,-1.64268253130089,-0.305873385306372,0.0576740666219712,0.698196613501188,1.71710946083746,0.993832240962539,-2.89323543028955,0.556084560694247,1.4549082745993,-1.65177337370564,-0.696333748785547,2.10160727530371,-0.620990181821828,-0.181829351547459,-0.0967650036531425,1.42980572444549,1.10070122137204,0.849807365007387,1980052
0.0243581572220475,-0.750697132833007,-0.122362957032229,-0.558117815817758,-0.537572836279135,0.533307909357697,0.960467444688263,0.827284048740091,-0.803704592943475,0.95135853815819,0.0599364691311458,0.750673577825866,-0.271615896294626,0.655939800508814,0.547598996154426,1.19157228345363,0.747351006315099,0.100533497219221,-0.312204525682991,1926770
-0.807262004873837,-0.617502765191217,0.128728967674337,0.120250524463682,0.49268808284176,-0.245290951021582,0.924998756432356,-0.31362856705801,-0.301253334295288,0.999239982497892,-0.171218825193437,-0.175509590179509,-0.417023873031263,0.238547183091633,-0.229403859448477,0.124824674648553,0.785323501547664,0.0553500891706772,-0.0881776649059118,1979045
-0.182610680829406,0.0594918249481315,0.00562062380282615,-0.136405955242116,-0.472786391222321,0.0940198322027359,-0.63533971781928,-0.199565394283247,-0.214119799804695,-2.20329997704815,-0.226015713798191,-0.382674315224825,-0.0845293346034697,-0.397715897989468,0.936124133656943,0.00665595662864352,-0.521795930852372,0.0890648586690431,-0.147631569071866,2196212
-0.816443162244571,-0.556462064571461,-0.240522449876453,0.223163541541652,0.817797852472925,-3.89878292220696,0.351831255188919,0.499855681306307,0.4636670738922,0.346314979785535,0.0475341011362381,0.0224358243695692,0.0795775228639764,1.0409688998483,0.846810514373344,-1.08029424320605,0.463136172982415,-0.82690474627566,2.12261768233865,2393207
-0.309897958383473,-2.08964659543454,2.34698167873394,0.00103494261193231,-0.700862012982862,-0.178028510594032,-1.13199953995806,-0.417547135237521,0.364864174785205,-0.189310980122418,2.10109806007033,0.42018678608836,-1.45342820251371,-0.708971056298839,-0.371950015991207,0.748555568846376,1.37510536483341,-0.111365207057508,-0.129123944623595,2146138
-1.24381059183916,-0.0627327904587917,-0.20174211708148,-0.0963025915253568,1.00561780477679,0.142247878078562,0.471850444481748,0.299935253116524,0.642734793530452,-1.41192105063219,-0.211647584632535,-0.176815786089719,-0.101312795326505,3.1762217552825,0.618365572979911,-0.771863251410087,-0.923015687015101,0.0803764701681348,-0.627280668902155,2228399
0.863116760722,2.78319112872354,-2.44104665763134,-0.623105994225588,-0.708681411635874,-0.228745618298132,-0.860867465061648,-0.325580456540737,0.412936802625454,1.18131836485062,-3.11013949433524,-2.75683790474229,5.44298869675589,-0.892420950950031,0.465772923364997,0.457789468010084,-0.156904331909784,-1.64101234699799,-0.392785944843589,2144796
0.165775971405121,0.632328981228084,-0.413810505182179,-0.0886924628466292,-0.994743119975064,-0.082953884183595,-0.915122519183408,-0.478295566276786,-0.59957357232967,-1.12880970359421,0.648366035775337,0.122991191080837,-1.57183961568433,-0.927684981260135,-0.126575520554044,0.736853285065362,-0.479971673091491,-0.862529393844554,-0.421325385562259,2234271
0.318970522268964,0.454619434073972,-0.604792411516736,-0.185786192041264,2.124432301063,0.0152740832957108,-0.125060644998197,0.24968953746975,2.09612409609806,-0.119476353164366,-0.342634743622085,-0.245189419165186,0.209891893402745,2.13017193554915,-1.25059403328411,0.775582595122624,-1.0716425627908,0.0798301736037721,-0.934144323157323,2296332
0.300120091877626,-0.671673158138991,0.976148075410522,-0.145079234531078,-0.594133703366395,0.0504953470169961,-0.698554049019837,-0.248039196681716,-0.0747700327500226,0.351307408957202,0.928360316264758,1.45103905167833,-2.54589600215607,-0.857473497826001,0.696272597661032,0.975032675996006,1.21932060320526,0.0388184600322763,-0.138440161459901,1684230
-0.763851938355825,-0.0573243823438848,-1.03771413116038,-3.92088510568696,0.134512662979111,1.6306908968539,0.0120919581141686,0.331535253818957,1.06327946937772,0.484475164821895,-0.252711183008199,-0.153707585609082,0.16634772743068,0.210574306035947,-0.33156743011097,0.385197298760741,-0.560743716294848,0.233259789838999,-0.122441323817985,1720713
0.251934006001708,0.488246747797514,0.271378434559407,2.80066519035761,1.13909770481519,-5.55528397850284,0.357331264318305,0.483404690859222,-0.00623469066553303,1.24434876830939,0.124497166628309,-0.26420597234259,-0.266113687316218,0.476204748592636,0.802011506510333,-1.63198466131369,0.733470712943004,-2.59650193108279,2.56185235751695,2186951
-0.163103790785105,-0.874980617411627,1.47046297017622,-0.0091675734498029,-0.640448533508833,0.157188948332978,-1.0029872807824,-0.470166975110791,0.10903167076868,0.846114854725202,1.11005653128264,0.839164806200668,-0.709784680724009,-0.524546351191971,1.93493347854913,0.0739690414060445,1.32250575952709,0.129689303221206,-0.122791155052687,2439458
0.600404518793179,-0.53019888605775,-0.24370134361684,1.03866426408815,0.468594134233272,0.0105766170305253,0.615514050464346,0.663365461286866,-0.462408162596325,0.734513097936311,-0.020098773237307,0.214078678239932,0.310226565092185,-0.171791374450337,-1.22558033208959,-1.31063877802672,-0.146231964098418,-0.225126287642954,1.50139996481906,2135748
-0.337419252361673,-0.649709958867836,-0.488118917758561,0.064744584415375,-0.806867213947158,-0.0792445535438195,-0.441364640221011,-0.133681597923115,-0.235119174299087,-1.40507068219527,-0.910786942188749,-0.43835797275818,0.399430841359162,-0.882359211034,-0.553378787130265,-0.689494741522507,-0.297241173449491,-0.0910884205749725,-0.105008673664968,2141116
-0.208655842138594,0.00298543818792569,-1.30198649926044,-1.64908133559736,-0.663869853988121,0.22190515520827,-0.703919067950468,-0.557685566224042,0.36958297492052,0.0405818834601871,0.0176790026246328,0.398964754499708,-0.220788778077368,0.242433174784795,0.367622187308126,0.660325507798332,-0.338985037473394,0.109808707775367,-0.402259222209599,2108003
-0.364661065789458,-0.971470343840635,1.10182364198668,-0.138477761179595,0.121792174609795,-0.162156268969732,-0.0486016496045864,-0.293194973017077,-0.00998754440423736,0.538936155720946,0.793412023068646,0.136514842875883,0.0959298213043672,-0.545652775426998,-0.563837720278331,-0.481622394441702,0.515521521676792,0.0846813864300885,-0.201628154245491,2006164
0.218290579921864,-0.543354379187803,0.59426906054789,-0.00348020783006818,0.256538557535405,0.396556783242402,2.45360539603796,1.83043951248756,-1.20475089539424,0.17391072408072,0.305474061092971,-0.376396867088361,0.075397361329314,4.12817603355154,-0.0463240058455217,-0.355403471234224,0.08807251322723,0.0785161409846248,-0.324841363658029,308862
-0.781763297705945,-0.648430788044071,0.779196882189006,0.177271991296409,-0.671990233647485,-0.019880424173616,-1.12027639686686,-0.481548123122981,-0.228457883703132,-1.14264650277272,0.353013781574743,-0.516609707034089,-0.140862014403099,-0.567478069319515,-3.41359490315922,-0.334405552797762,0.786751185313262,0.0530267611248459,-0.0390965608038955,1085983
2.44991215506751,-0.239569672014691,0.334365896061653,-1.22656690205522,-0.357311109920955,1.44191270532705,1.58273811909873,1.22812756763721,-3.24133159623037,0.911579642653194,0.412641661942998,-0.455981284669342,0.170815909545072,2.84056578649724,0.820017986494332,0.141868293235834,-0.0767944513210015,0.10231356968521,0.0218563957458443,2004451
2.16470794133046,-0.15136667970319,0.403820879359943,0.0159909797669398,-0.447728972202621,0.142783921900313,-1.02061653915414,-0.331837301664382,1.18869193505258,-0.289241778114916,0.20239162269993,1.19183117140732,0.236634807278534,0.297868530973871,-0.0585468179697812,0.265593397286872,0.870397999038086,0.0940059853382816,-0.597517711705679,2359944
0.290956604890081,1.79045797832073,-1.55319294707041,-4.51314521415708,-0.00738459112602491,6.4895336233773,-0.288815953291677,-4.09186077379749,1.91095588849529,0.647243101846018,0.841879838577153,0.683892174450235,3.54175767426293,-0.608338485354466,0.182234952037139,0.782186928646634,2.36029204785627,7.83137796308768,8.02846951788973,2069079
0.576347291984408,-0.881358874655868,-0.236551026881601,0.462925317997876,-0.615622256395232,-0.121609263614323,0.661282038154892,0.615293592616957,-2.88776031222929,-0.334313901818929,-2.13011810171593,0.308095310372134,-0.857074556550119,-0.892201291757526,-0.0472675248117794,-0.243960531810347,0.901938612293187,-0.574309808752776,-0.0698681802853488,2059713
-0.0684538748966698,0.332425203765342,-0.62816192553811,-1.53671138527797,-0.627389710302287,0.243369007906887,-0.680432450436921,-0.144164962666584,0.690174164354977,-0.257680137834397,-0.905057346987927,-1.66716220492921,0.531231773569529,0.369411553893905,2.71856136204499,0.474948107374731,-1.589444608073,0.0894597921782481,0.896279589464251,2294873
0.432184700135295,0.129782035219599,0.537922039627298,0.141766400786683,-0.853512647187548,0.111002858172845,-1.0121928588879,-0.491348684864725,-1.21054938510681,-0.12458192059837,-1.59308549565348,-0.0480108716249008,-0.267872005933212,-0.771420422919053,-0.787619909029895,1.12024921280686,1.64549414636379,0.137280130831637,0.103013788708351,2033049
-0.292260752241899,-0.175621584415298,-0.64956644455102,-0.344759640871298,-0.60946729939802,0.00481170095624401,0.625592157909586,0.654168502650363,-0.133981217804723,-0.809795994437335,-0.436946777827478,-0.57560845644738,0.211333136379175,-0.151816267924811,0.184068650235537,1.42066778176304,-1.1178570601776,0.0848235891525875,-0.499485161554293,1485662
0.195769529022929,0.502558268474537,1.24005098330192,0.481015376073494,-0.647187069603463,0.343886741086968,0.0456408472300554,0.339351681960919,-0.063962974331503,0.934303376513441,0.216073795777712,0.529395732927874,-0.266704760293944,-0.79144662185375,-1.51830980744954,-0.482074135674564,0.933813084912667,0.634750204110499,-0.325780177324093,1526417
0.713071472102618,1.30704444507841,-0.902120499505327,-0.0867122185052484,-0.350552913526859,-0.783807128603532,0.713543994590531,0.789427142146076,-1.54059282629967,1.42599281943229,1.18010232763903,0.904248094743225,-0.479609826481526,-0.666075940768308,1.19425822158941,-0.190677483590912,-0.780558239466789,-0.634172775875632,-0.879474342151474,1386095
0.364567454428737,0.271670269419781,0.122065686521728,0.0761363770077457,-0.336261494301016,0.150116518714882,2.5882144705312,1.90226741802314,-1.7728285074187,1.41545814245407,-1.41862345205427,-0.152066548641501,-0.732005791688268,-0.773284746038241,-0.215152184151172,-0.770445250778202,-0.360086553704003,0.258217044303532,-0.344585362539973,983079
0.434772903125817,-0.518451839800389,0.486689930240956,0.155864593649981,-0.94525826254748,0.110835593861791,-0.779776329540621,-0.279920123324702,-0.318468519065218,0.643328236639506,-0.741884039138984,-0.947289548855312,-1.20145272874961,-0.816746979448787,0.0383749583731502,0.447709985646639,1.39952248349609,0.0123746497099231,-0.105987243667985,2132424
-0.250505308933275,0.744395217122325,-0.266299931628212,-0.137066494807744,1.25840378782994,-0.301096878314889,-0.194455772624295,0.204884366223366,1.52937882828985,-0.446177834348646,-0.278779246316819,-0.112795419732202,-0.277940610622674,0.609660336754142,-0.457931257322915,0.337186549013449,-0.453777725573129,0.0141265296384392,-0.152691319043129,2138375
-0.150967909303187,-0.740299679743047,0.349484066916281,0.0545735516831483,-0.592948570063697,-0.0481835498542291,0.222195914682329,0.398839692722349,0.0123027075811221,-0.579669252615925,-0.408413544793601,-0.258982477626076,-0.539142405745216,-0.769689086849047,0.297377519603743,-0.0852314594507476,0.232554444182478,0.0123410218647836,-0.200607817383091,2490180
-0.438777307957462,-0.51958093193339,0.51696277174261,0.266123226552583,-0.155796255820515,-0.220595996789821,-0.58102457616991,-0.134562217559523,0.429882323441502,-2.09767575804064,-0.0168965783831248,-0.0482097419070988,-0.0314790497425657,-0.209406402789379,1.05791929453243,-0.248372165365577,0.350584052251275,0.0341174883607525,-0.0721820730571238,2034136
-0.17524685188468,-0.396614146562551,0.570739388663976,-0.0982716791381078,-0.294245497138019,0.207476258341699,0.876415615822386,0.82062848656537,-0.823076829815015,0.244419611742273,0.541987635631266,0.100183460342258,-0.198188603658219,-0.610496419253264,0.736615103871107,0.643882105010821,0.238166409923155,0.158870581985063,-0.305601891081998,2510402
-0.0488199154549029,0.162314440045719,-0.0585557883474531,-1.02214869370005,-0.18335221464773,-0.76785673781701,1.69898179830694,1.38937837987417,-0.886245199311345,0.759341664622097,0.394720373576052,-0.339737410350066,-0.489157825706218,0.864325560762148,-1.59472998655236,1.17142270077795,-0.316739634663212,0.0374658441434146,-0.248169728665135,1330263
0.220807281788578,0.00895687659894793,-0.858094566111702,0.0418920550052426,4.94970395753308,0.799750862616472,0.824400619588994,0.769627374799059,0.480212599955314,0.346166148594913,-0.0603248922610501,0.0128416033810291,0.131023586717342,2.61536462413645,-1.47392311364166,0.445392587171321,-0.316039207140639,0.231912063443658,-1.17809909929933,1768972
1.10343128381413,-0.430188007601711,1.89170271929514,-0.183980472926998,-0.15790160182486,0.0482878704124854,-0.538498582772069,0.0347604232239558,-0.0497740969973715,1.17626393974033,1.69055242738208,2.05936823969453,-1.71067971268094,-0.584098079773187,0.760253357271703,-1.03031830739221,2.19674553804716,0.195181219903665,-0.315689659746644,2306459
0.616659238739912,3.43988669609329,-3.61391570821396,4.87413558800789,1.23664830250581,-3.38872609085227,1.31841551297755,0.456455715673144,0.160244545731001,1.39657707930902,-1.70888775759241,-0.244396408474682,0.039559499346725,0.366297700237297,-0.419306627750817,0.603995708448093,-0.528322625515136,-1.24506914708787,0.922978108888688,2181724
-1.55666378364517,-0.270216005493006,-0.0691579158578699,0.0540250529574998,0.97134012355722,-0.0606592168368522,-0.0351848502993549,0.172143186494031,-0.891587649633405,-1.80229327930579,-0.42494911334016,0.0103193234824303,0.00995878866631131,-0.421442072218916,1.42274560852854,-1.2060758142847,-0.136648305652357,0.0679405684399995,-0.385192195324929,2217034
1.00996420173907,1.70089483471707,0.190497609803243,-0.95822338532527,-0.453890906527472,-0.00100546530774327,0.192433467925972,-1.33262913730863,1.93488267713329,1.33281846951863,0.373272915863709,-1.11208024227828,1.66334615097117,0.0157888457529186,0.544879475637316,2.27643709595754,-0.0580955170686026,0.0508738044394025,-0.160182656433076,2218615
-1.28902292269955,-1.10987670537394,0.628383271991708,0.0362520883315623,-0.693116921051512,-0.395678657051103,-1.11991394793553,-0.57369664381379,-0.370408359235839,-0.907248996783099,0.161880330109707,0.191014902684338,-0.237638599508068,-0.688289956149198,0.339769698323238,0.239586744821407,1.0621661572813,-0.359543645308567,0.00385359071965935,92173
0.392760534412662,0.0620780428326274,-0.227103482838366,1.02774050611575,-0.41049466413224,-0.536105654256518,0.395959622010946,0.472738433819093,0.0984712743953727,0.994589255482755,-0.00906836552840973,-0.195490000966598,0.271525249381697,-0.457245248894438,-0.130502614444674,-1.78987473334175,-0.082761698148552,-0.751469288203969,1.49186677167375,2414406
-1.25167581380887,-0.895659976589325,0.678470571331791,0.014172544877349,-0.226568476853189,-0.0580528274119866,-1.30754319245637,-0.565485642461477,0.165115908865416,-0.918018017926968,0.406753038277561,0.0963184488993749,-0.10399943151869,0.517225229068127,0.609700545441701,0.618923374705629,0.673514126944765,0.0722303522110368,-0.0155356835509885,2381907
1.31574978939606,2.87879449535292,-0.749244158249283,-0.071115964208117,-0.821346382834907,-0.155918714707272,-1.14676548891596,-0.603129095708127,0.192507859405598,1.11993979181553,-0.942038789797859,10.2588728740323,-4.56494960658054,-0.855381993601976,-1.00401367196225,0.450491323949304,2.61646341623213,-0.331168653489812,-0.802812307343635,2002465
1.00726630468149,0.275187623309525,-0.461794361605036,0.191120902993293,-0.287861173850544,-0.15212720847936,-1.20490226335302,-0.411915236580444,1.08844013660308,0.356029928514951,-0.94534329112005,0.393079493812009,-1.09046999618193,-0.615619534727532,1.09136379397711,0.256576221285195,-0.87467519095109,0.0491135174266065,-0.48632481710298,2474709
-0.981565615163722,0.603937870165594,0.225741803082817,0.384864027235443,0.386823069167194,0.1728654576834,-1.52332818167354,-0.550668898094329,0.640148842540404,-0.780441198715234,0.309171960011638,-0.262437482241411,0.995613343859991,-0.411218525138697,-0.526382906638947,-0.466664670589711,-0.48544249610118,0.138027074558207,-0.242834774753973,2176530
-1.45234275065626,-0.877519619919762,0.710044916577255,0.10641510375442,-0.544316140235964,0.0586181655526107,-1.73558863847229,-0.872654707695988,0.0504397640718898,-2.28951591185562,0.428388342500293,0.35422782384197,-0.138144463177747,-0.396336683460032,0.439296010128256,-0.475112679914682,0.690092884873999,0.098039472847962,-0.297711249811394,1279943
-0.632617444704266,-0.836213483116343,0.949180590028895,-0.0886245224821098,-0.650813063183807,0.00829824096198282,1.11512713722132,0.915364812220687,-1.91001034695284,0.140742700757677,0.642681135006107,0.798871871792272,0.0414577812705618,-0.4939214104562,0.209282189396323,-0.102193030659535,0.414302371598866,0.0692071393521715,-0.277381011517524,1976407
-0.565290711243748,-0.639104792967184,0.529598496389688,0.114345361841259,-0.666325319857634,-0.0899020411297803,0.973811040876681,0.746653546051354,-2.52170043451115,-0.725394922155203,-0.0242447230078733,-0.00680964298623224,-0.14132697220634,-0.622220611903261,0.597043394906706,0.596238381212984,0.10537548221859,0.0491950667520152,-0.279584902220445,2250836
0.465532909516429,0.993029855844799,-1.83811971638863,-0.402855846598678,0.862798601986033,-0.446667117726705,-0.230823775454888,0.186564699383235,1.35547885305719,1.24213175095216,-0.143102467562942,-0.385828914544318,-0.452823069922157,0.954396414659344,2.40179492329956,0.743451083590113,-0.466474586735325,0.0513871740734834,0.122870827381419,1915938
-0.192587202145431,-1.10467901547652,1.32562648479194,0.00887889941652213,-0.948706582961586,0.049001241547611,-1.27080582385745,-0.702678180987878,-0.669118095203743,-0.213570215177794,2.30524143994939,0.748783112519468,-0.594352117972019,-0.958323313087131,-0.574277630936234,-0.5574586831448,1.15494148448793,0.916527757515493,-0.00342334385910019,2133380
1.07487276456974,2.00119786958376,-0.984911135066042,-0.321562483803092,-0.891364072934734,0.291981812277841,-1.17734016794746,-0.523407753661939,0.102677222582158,0.0584807819196549,3.34698617936882,0.65429396072999,0.558619987284333,-0.901943478161435,-0.00637973764203389,-0.293149478886467,-1.22035528245987,1.54089677374672,-0.50958740444898,2271329
-0.780545073950735,-1.22404920875404,0.917906634294299,0.138855203907304,0.252269011989904,0.0249426773681428,-0.526645310157819,-0.096353566017449,-0.141184454238884,-1.87585582885743,0.327432630180582,0.321013822937974,0.128395720909729,-0.12968196284357,-0.430531106295541,0.0266452951223359,0.713553117435058,0.0759515428765641,-0.177061739059562,2286108
1.7830840523439,2.40650427756586,-1.41267000577625,0.674668543806682,-0.390005142357552,-0.857568702574244,0.200146918798026,0.486347428719373,0.707011177192218,1.23523451794759,-1.84742336827445,-1.57995289772317,0.996660440674571,-0.151138113917288,-1.06551166003669,-0.358379680431433,-2.1001531672919,-0.137197692891245,-0.000969322238016132,2040495
-0.782332405344061,-0.863446824367055,1.05380416943382,-0.139306946455642,-0.762192638064575,0.237778134980435,-0.519280364289202,-0.135955428966081,-0.745665313358965,-0.770610866575785,0.558671479999317,0.330694901314416,-0.356206960383436,-0.157540771223522,0.281712429564938,0.664459054682918,0.775422308354623,0.121648030021066,-0.433860207248786,1125173
1.18851512958785,0.255983195829684,-0.9759474016683,-0.535030177508488,-1.04296123622693,0.901313970296351,-0.63949246212207,-0.31776677641411,-1.29535018458579,0.841346957637396,0.696826730965357,-2.35454949976065,1.58364295747243,-0.896129477753525,0.769022599567066,0.63451529659038,-2.87261955970057,4.74664972451121,-0.408346855432686,1767700
0.343553959319931,0.29172213450338,-1.00960587645909,0.678101290719262,-0.47388344319436,-0.21935606383881,-0.174589257197651,0.217384619559642,1.06492928044719,0.0674242919702032,-0.868318860991277,-0.686549996845642,0.551089180515987,-0.345302754665256,-0.874786396694213,-1.14596525753816,-1.59239879437826,-0.278970691267313,0.326268014104087,2138678
-0.152214867920853,-0.957874092558857,1.1009786699965,0.551132064378287,-0.431456783768336,-0.43331872930941,-0.676693971541809,-0.162726082631415,-0.034805400839345,0.876058939270939,0.561617463663572,-0.0233858864815421,0.395304334944366,-0.432411190735724,0.866370416217484,-1.18596937310641,0.566813323256135,-0.027163315779756,0.0892775096487974,2443354
-0.0411755896668497,1.42455435252732,-0.330413228425403,-0.20888135370699,-0.938445773729076,-0.0444880723658779,-0.929410481782642,-0.448339478819873,-0.627002321672022,-0.951861067250019,-0.374644087275772,0.397817697779401,0.121975053825864,-0.873222571759106,-0.215423039122777,0.267739555519257,-0.307435992754511,-0.0450991567432814,-0.559444111566245,2234422
-1.10328583685537,-1.175122510206,0.802350338512423,0.0902701372639536,0.179460832680824,0.045408901025579,-0.594612484918887,-0.108682910165128,-0.0885132640316866,-0.640412478825193,0.72723674524401,0.515401494862038,-0.0811280342617718,-0.562516237222509,-0.168811451720471,0.923902752128052,0.905506983664051,0.178993537201443,-0.396960834456055,2151024
-0.14842540671,-0.116525704312753,-1.01316723672231,-0.233562481473524,0.0997574362462401,0.57338133348791,0.806160150222235,0.806234180459287,0.611494177009366,-0.23349572711049,-0.236283910657025,-0.131171237886978,0.772726309032006,0.568705647985338,-0.480057790795632,-0.394152406258536,-1.27964755222307,0.114670182144059,-0.599530323748173,2057358
-1.3760193333801,-0.78615828480534,0.360823593747384,0.0245706297913514,-0.513524508368699,0.0163663188665953,0.329642636065508,0.257948540042958,-1.52088672447136,-2.31515885061712,-0.253757340613112,0.0151905659221586,0.717904025078218,-0.807018735833758,-0.372045268964057,-0.314599990466042,0.40460217801533,0.120452137964265,-0.19690408888501,2425694
0.00387067565358534,0.545747479930288,-0.332506301131617,0.574982773205406,-0.231182806734915,0.276970901944093,-0.418559203646149,-0.0277776870681644,-0.647846909531969,-0.267740594849032,0.0170301034645656,0.0947384854626916,-0.159817185351871,0.254791963858763,2.11316608305052,0.34035278736907,-1.02593844625942,0.144553558580281,0.697485681703526,2500377
-0.7949591563018,0.277082510517271,-0.54102151609128,-0.117785233989493,-0.070868360934628,-0.5276592272337,1.51628162766509,1.23501690648344,-1.45154208809449,0.155293773159927,-0.472777326996356,-0.107933930153194,0.497895998312454,-0.342064838196924,-1.19880293002346,0.905685931615687,-0.238182861322117,-0.0550776386834457,0.146055576328164,2183356
1.98376702039236,1.50754804274644,-1.03597780473048,1.71688699505324,-0.0754107129833649,-1.45207482571374,0.977025643301228,0.844544008165621,-0.441756574386286,1.42597440684781,-0.899066609295522,-0.633765753097647,0.245433125166744,0.0281554213904801,0.226148388204847,-2.08835956494152,0.180570641422856,-4.27416957747207,1.53943011700357,2131601
2.12882752341981,0.331376987564838,-0.646723033724193,-0.662716792809738,-0.265675646106542,0.0948122550035143,-0.0521442816022933,0.238775864099496,0.32913198233444,1.43797146622646,-0.0800212567830136,-0.86405558501432,0.725628617136423,-0.415375742729757,-1.83955626118853,0.334461634703623,0.247699404089682,0.343315259118526,0.447055551915687,2152442
-0.00142296463224035,0.306230670485158,1.14011043593521,0.858010899212768,-0.765570168717626,-0.13795943907735,-0.973852292393796,-0.312121599280024,0.201087049094602,0.177232449801408,-1.31185639317434,-0.4135584028151,-0.742646167093814,-0.269740596031704,-0.892478070420778,-0.0678975483996006,1.14134581758514,0.0303962995950134,0.0106659335577216,2306893
0.426720191505918,-1.03005603653876,1.56150420338225,0.209185079449681,0.0286897992724875,-0.289569025049375,-1.64554998213101,-0.683423479946158,0.329906874318099,-0.378131981742027,1.12323345040932,0.50334936500386,-0.428569403272299,2.23558676649937,-0.325313668560448,0.356016550019495,1.83591357051815,0.0721745090532384,0.0644663262588439,2009915
-1.06398474092585,-0.203301502982201,0.209721274139951,-1.84402259671283,0.132430087933943,0.0840011560887856,1.53683181567397,1.15598173678968,-1.58551006221928,-1.18984690644332,0.0969221937542225,0.0360214089783966,0.272466273155022,0.126384463946616,1.27600110832422,3.19938942388123,-0.0152913713655467,0.10569662831695,-0.243276014265921,58325
-1.12108187974377,-0.886926525774441,0.636497875404364,0.0134566718779982,-0.118202216063351,-0.0246445913273552,-0.903584080417483,-0.255512498423755,0.0350313866679977,-0.397785716077399,-0.448026811269623,-0.0111629311862549,-0.366923308132301,1.2074811633352,0.304864803313265,0.457133183923575,0.613138399224277,0.0762201470585591,-0.0149676100501887,2395943
-1.5893834896243,-0.885994901935047,1.02031819607492,0.303504464195362,-0.155743460660904,-0.0646601848632054,-0.786750046975152,-0.261441076290152,-0.34214236564079,-1.0536397559074,0.515563917225183,0.179778533030987,-0.611060885941269,-0.650535477405297,-0.0351651863523364,-1.53297498793692,1.10964187113395,-0.172029307081292,0.616855828580865,2480330
0.273919109916689,-0.142027826712004,0.78055278181139,-0.00606404801840052,-0.993149911260134,-0.287904430652676,-1.27605259438218,-0.650100514395811,-0.395113062511678,-0.117413697151752,0.71386594176931,-0.613600016474802,-0.274941559818479,-0.0591544231025641,-0.0547928578396317,0.745288049721008,0.903463304288475,0.0647733417862721,-0.172804418864553,2076301
0.121426719103147,-0.218426034110329,-0.585361914000424,-0.248020636247329,-0.431962402423123,0.163429451881378,0.158585904164877,0.414994560796075,0.524670698675602,0.161134241249663,-0.160300177618649,0.0390790274835246,0.339250550792913,-0.692404574122554,-0.191169304360107,0.486569761539668,-0.935330161514713,0.252333918544423,-0.644592116730438,2205389
1.15638322611885,-0.250895403795611,1.68774571086561,0.235774517299772,-0.706551010626881,-0.328873924874767,-1.47604386600237,-0.726042108654627,-0.0429406832882656,0.425517796322868,-0.273991746228409,0.791241826469925,0.0320753737677494,-0.779432679718772,-0.349129144444569,0.736515214981739,2.09452458077429,-0.518797086645284,-0.00431475586911174,1975401
0.676850825552412,1.97611078950763,-2.05643586060613,-0.535188467026645,-0.285457479134242,0.439351493394884,0.422499231054338,0.614903477070158,0.227590169030984,0.916930183738138,-1.61633901252832,-0.640464937273011,0.656055271694881,0.303564922534309,0.419403023768625,1.01192146835141,-1.3339485330339,0.119446450856944,-0.219823897286406,2250648
-0.965461306567758,0.592447564050688,-0.148106150285506,0.144544999808658,0.746848031538139,0.105814367492819,1.01144018312979,-0.60748727945225,0.723779110599749,-0.148408015056467,0.314825492891312,-0.184592038394582,-0.311372837096042,0.733604149796052,-0.0532341388702075,1.13308572930203,0.0917087659419945,0.0731899694557,-0.470231973818241,2185290
-0.974586780922082,-0.771201655736986,0.479621376494452,-0.0698105817715347,2.67865350929319,-0.331842392208512,2.40497652546621,1.67870721583125,-3.53899354890124,0.0358815876700518,0.678515605161179,0.300558658358115,0.0718732568823361,1.47577572891401,-0.187624607855601,0.12530842367539,0.258354931318081,0.0534347835507333,-0.192538871404537,2091555
0.244279320582696,-0.43029421606455,0.59048875654911,0.555933675633099,-0.0935763235285045,0.364350258405148,-1.10091210892035,-0.278411328386624,-0.0747972753516952,0.387042422588408,-2.77762350754937,0.858891685573174,1.70786762845767,-0.646677451689071,0.424270507768279,-0.53125634058855,1.61353801445081,0.234226333777005,-0.1978882381784,1232870
0.454956086926659,0.91391604997716,-1.3879734711139,1.49730037374187,-0.413789774694152,-1.61286174879649,0.00503220671119835,0.356014618930382,0.802973540586396,0.963485013584414,-0.448447246832251,-0.211284672974782,-0.222802673985402,-0.419407326230673,0.311189591049653,0.295259276391196,-1.20015112471088,-0.602605411980667,-0.175618953698521,2139733
-0.281394810710884,0.210451195728741,-0.526083403044706,-0.681797671080095,0.5871369061803,-1.3675542371134,0.322657968498438,0.150255740145497,0.803840503389277,-0.180789512069685,-0.0359962975012241,0.106140857827972,-0.208462589206288,0.387417699316406,-1.06375430336937,-0.177249487593297,-0.51194843541881,-0.178424828991402,0.577933234694988,2559453
-0.365861061839561,-0.60225529985807,0.512055753293527,1.84570630868819,1.68846368227155,0.048029770147551,0.376214830496067,0.483926422284888,0.962764670972444,0.631293489105734,0.207623664598147,0.204407607823817,-0.313361612961819,0.815469051408093,-2.2826630821959,-3.2459265785548,0.215843103348105,-1.00267191220483,0.650567092393947,1938156
-0.334994328301515,0.841467522058621,0.353750502555903,0.237316602106397,-0.501392163984254,-0.284225150135238,1.62443313910768,1.23124422308851,-1.26755651940688,0.604535444384045,1.01639966259869,0.0530928679401248,0.963282660879622,-0.289767648779406,-0.767824645881765,-0.674458157454966,-0.132474246614747,0.0262575301849524,-0.116459360023897,2158101
0.830314169499287,2.18430502281095,-0.740566004691512,1.01886086452779,1.9529084359778,-1.71000584199281,-0.536736670804905,0.00875515809993414,1.58611221787814,0.937002468930686,-0.215005644701733,0.0782679015388634,0.664788516674416,1.54620289222489,1.39225573784119,-2.68555966110958,-0.857355182822592,-1.38170591644152,0.266489746941123,2199403
-0.0632934017657725,-0.892300454468751,0.91627991568371,0.0960392178631713,-0.745803537003273,-0.320986517955737,0.107405727205491,-0.0587078757860127,-0.852369709852002,-0.0497030410523141,0.58513029484011,-1.28633920193071,-0.942480540269884,-0.818683398322019,0.587040629572504,-0.279321341669845,0.683645443338194,-0.449873345045502,0.169906842881109,2430773
-1.17734511744491,-0.0805004069948262,0.356239293315358,0.112505313369398,2.03091018727608,-0.0730808953990085,0.0085657702187523,0.221589970881675,-0.0167130772911896,-0.82520223918908,-0.247883318411602,0.0144383389454818,-0.472292261383726,0.154186042529062,0.509170136409744,-0.723631185920932,0.0448273619338846,0.0509518412765267,-0.227509974344535,1738800
0.0960192652035336,0.683474349476225,0.380520341807204,0.350275424298416,-0.924777795928074,0.235635777372494,-0.886971087193784,-0.398502639750961,0.782369001992391,0.136131704165976,0.0775598347126962,-0.525235145647922,0.00247033072971772,-0.803288557216623,0.86404139831124,-1.57734704467265,0.112154426254911,-0.372918934755749,0.235390494161072,1565177
1.68600565537012,-0.897893490385612,1.58392146296909,-0.353921149425478,-0.51684998037911,0.0744684735428395,0.702699058453758,-2.57318355382086,0.656144688954272,1.05797261309249,1.47601347873069,0.0338222892604809,-0.606736219651298,-0.585430985027377,0.0115056040342681,-0.493275878500573,0.357268761151216,0.0660377090581712,0.0646161197854519,1978972
0.0860087144668225,-0.473632565388067,0.297918140483424,6.00426292501351,0.0156647997000547,-0.832244974775286,-0.544624573972244,-0.0723795546869512,0.809989832633357,-1.30313118303752,-0.0451105276761425,0.052652227677803,-0.431090598336967,-0.394523144045214,0.691183316147876,-4.09053895115758,-0.731354733642477,-0.107222184375228,-0.453703698589676,2487135
-0.758521875443427,-0.564998778843959,0.512634951800905,-0.0769693476760433,0.237016963197658,0.173899714923643,-1.32377748384928,-0.72123817583594,0.768757722242018,-0.488679272528497,0.443557868322828,0.243706617777405,0.192808940257041,1.04047646754652,0.30134191628334,0.478225124861512,0.237390402624972,0.0869505334681906,-0.379575489133856,1612262
-0.467879314423533,-0.715699492990822,0.621736140748167,-0.055354128335725,-0.518011292745389,-0.295216398115882,-0.74732833665262,-0.15642979634878,0.600570598970902,-0.928459302797914,0.452302341080306,0.299482567662895,-0.311916438726836,-0.586312870194736,0.552830177073381,0.374052465164385,0.707958957907738,-0.100810229667953,-0.212023137075557,2051378
0.0604890093760522,-0.381164996654956,0.151234263262692,-0.551936833989888,0.223804105415564,-0.540425093258151,1.09095250345661,0.9942367068443,0.180424802643345,-0.230597125992498,0.00710647228825136,0.043279298884185,-0.063927574285194,-0.0320139679473847,-0.769493241749641,-0.0130349569224682,0.242523413726281,0.0594099547915849,-0.375363864199504,1497807
0.344220942522066,0.221131488088015,-1.15290607321567,0.693049841444443,-0.13063234294969,-0.709350522522488,0.441871920530201,0.614939241230949,0.663384040033511,0.714552248393779,-0.104653252884099,-0.613407966750486,-0.935872736736704,-0.763812152489756,0.415418507146476,-0.0239917493018966,-1.32072573572893,-1.0255267030839,1.63598149477293,2026671
0.0381285983242792,0.0423182510218367,-0.74340977533739,0.199404976697652,0.709881622304914,0.425604804574137,0.828996911949997,0.808619038725657,-0.376283935723869,0.449528267504381,-0.719114607700828,-0.298203499602269,0.00554758457082724,0.726644928188142,0.561267656850729,-0.439188345591807,0.243227785451051,0.27771279815311,0.251084391541473,2340322
-0.0294729112339885,0.494541899010301,-0.790172238749621,-0.722867571704447,1.24514681912949,-0.117079986942009,-0.256684674206168,0.174491034239668,1.09298804902574,-0.0154867892924419,-0.26024279610967,-0.383981155597197,0.347118263878076,0.743565931051508,0.243734669735558,-0.191658274209838,-0.802136108085597,0.176886572200825,0.375884582954577,2293123
-0.537554651624988,-0.0669170136273483,-0.737909401762447,-0.237988623781906,-0.215054109396093,-1.13198161527244,-0.71568960517897,-0.162759283582536,0.73028140334824,-0.334375162530811,-0.290118305399104,-0.238202353741998,-0.129525632146625,-0.17753480355204,1.20203168367821,-0.0675442131282771,-0.570083532147957,-0.249263415156146,0.60378569728742,2395415
0.0664964151215459,0.136406822934505,0.770761048536837,0.385492079675662,-0.188856180527848,-0.000410416632572621,1.28340657129736,1.16581264424563,-0.235223474874305,1.01919234604822,-0.0322388440943907,-0.683509037687405,-0.255746069295058,-0.545225285165714,-0.414182799553605,0.375328187899832,-0.694027214839928,0.0395912090014985,-0.237156249758011,1966316
3.08514344893137,-0.6311017344061,0.157486457752788,-2.04085159638692,0.253634962638247,5.63631033408461,3.15881595817556,1.49565197312954,-0.871023034256853,1.43325327008277,0.434095638595579,1.16584155911772,-0.416156669877788,3.32688147451827,0.783879814082667,0.885003404379416,0.588086251428578,0.264108147549111,-0.0854403525637036,1973544
0.68031458127724,0.352468845359036,-1.00756574987867,-0.332234263503538,-0.851283172494805,0.106974370624705,-0.842332549431385,-0.327088584409819,-0.288059224988075,-0.516670800017115,-0.532949647122532,-0.870940202435801,0.349535225912882,-0.762365553925976,0.126911356340254,0.658950910969752,-1.51492141549961,0.257426763710996,-0.240398037699572,2010259
0.866988049903976,-0.490942941947272,1.0254889686495,0.053526919658808,-0.650755461644319,-0.0426359365539653,0.822141674777311,0.726411104843088,-0.529896912686977,0.550975348410911,1.01223913541933,-0.158733058585245,-0.594741170153962,-0.884615697948406,-0.554962241725791,-0.429679010954033,-0.057770399362832,0.0646470077157717,-0.227336479956448,2145694
-0.407244197714661,-1.01552853600452,0.72382161613965,-0.156576557122623,-0.840810067086814,0.230502873452578,-1.48058874334513,-0.727571469248122,-0.052655193789069,-2.80517893461125,0.913631023376862,1.94142453197641,0.235522108224023,-0.701239946633463,0.432086672561044,0.43069920832537,1.69967427852147,0.319572338323651,-0.376223132007907,965005
0.0135101483433595,-0.174800071711918,0.391397051618764,-0.262945303976142,-0.693777296702112,0.168333297112614,-1.12106084333672,-0.430718107698756,0.585106243005277,-0.154030365464421,0.470806809992082,-0.465139865347835,-0.198489953073955,-0.813398175074532,-0.737699135697907,0.374469506585264,0.181239926914715,0.353185597581056,-0.32034595359066,2096627
3.10532348550255,-1.17655629832036,-0.455908744614464,-0.437569233859511,-0.356013775469,1.12867981717652,0.146526159882958,-3.00221361547248,1.42796257693657,1.44170889496174,0.831802904057171,-1.26261165183019,0.156655599025528,-0.430211994006105,1.65812177110297,0.0868447188105478,-0.471226566491553,1.34322668677018,-0.108078224191113,2047354
1.67860940340319,3.57753147012136,0.206997213131088,-0.791585567881544,0.00792051994666325,0.286947932014759,2.52745282968588,-5.66763000790075,0.722379318257722,1.46215609590194,3.35501270271548,-2.32321531979634,7.67588941878372,-0.667875655636922,-1.38719741449795,0.266602357653282,0.00630189161592024,0.658610736000782,0.351487548752557,1364384
0.483686818643939,1.12671501948367,0.832411085578439,-0.00639251459467175,-0.291252128616874,0.332640703071238,-0.159405266751387,0.0277860084817246,0.949796973985355,0.911812842613912,0.737954027325334,-0.0182615530097084,-0.340246625131692,0.168776915242929,-0.286397573214078,0.637645745352112,0.073894625426343,0.117507667587009,-0.140797737683678,2244172
-1.60209024906101,-0.330037469198473,0.261912330186045,-0.370844957373098,-0.622772516714775,0.08822262751803,-1.28759733744638,-0.700520388974093,-0.943313950610669,-1.75514186942305,0.356529198277018,0.615266449259013,-0.114301043270163,-0.357349473218845,0.342054076552816,0.675913404519576,0.460117600582809,0.108411214040345,-0.258484581381121,2132982
1.77650483430981,-0.815843724395446,0.354304192351245,0.975857854518008,-0.925991293720223,0.00685177188285027,-1.20424118735906,-0.53111099245831,0.835967189459694,-0.166650289341532,-0.0203475995023155,0.138483545888764,0.601924980199409,-0.950460976332526,-1.00947023234259,-0.310632045848726,-0.0636637903882582,-0.172772435421562,-0.175410737613172,2134220
0.315403498070965,-0.173631743775388,-0.0517376433151805,-0.672029963172346,-0.547797843231455,0.241545105704967,-0.162077458267646,0.194861674664733,0.892451561350693,0.654908748736597,0.140401636811022,-0.0633156772026122,0.703451561837516,-0.292682983160474,-1.21125164299604,-0.812626095945544,-0.348622509660156,0.159393546456692,-0.0821396056649327,1889409
-0.456894597756547,0.587880182005037,-0.740367817754065,-0.128835714558496,-0.131742099772349,-0.0454657441573676,0.429569356702352,0.542110583776146,0.332627267603274,0.317616522018478,-1.05818027718044,0.0845632012772191,-0.529846532636609,-0.611989019358434,1.04491833329707,1.22004203792102,-0.567939912194224,0.0545411532963246,-0.603137972356218,1938561
0.101051029754849,0.719973821584939,-0.565981667771795,-0.0302503211987172,0.610390785218617,0.0129804178251667,0.423196460843394,0.617777621342116,1.4637129685386,-1.13430591217388,-0.626041075920051,-0.388237785213936,0.273714596022551,-0.56531200220173,-1.01918411198277,0.274536810757732,-0.817062472892306,0.0975422134618793,-0.279268545934203,2055667
2.49194465293703,0.552039564757008,0.516062596410447,-0.0493035741089814,0.0657698153133049,2.38243061114947,3.20247759644146,2.35093511332745,-1.08735119793183,1.4271569313557,0.348338065675573,-1.11387859245963,0.17582781024906,1.93923811611734,0.844751950068931,-0.76783256086218,-0.733794062924013,0.145084455568675,-0.385432737138473,2176784
0.408043350500439,-0.884741534053123,0.580513642977475,-0.366622809749127,1.15225488806513,1.61647436993774,1.96840240193885,1.48938263690239,-1.45921814750998,0.291428217859103,0.265742359184256,0.313932069911615,-0.22206692439989,3.04343714614023,0.61879472596861,2.06847039134606,0.244821496846116,0.125699099276538,-0.145309819245457,923666
1.02202523816567,0.877347166038401,-0.871648389135432,1.06593804621643,-0.485893050588331,-2.41485537732684,0.319564556062368,0.472943851212489,0.839923233052884,1.04094684188376,-0.885302841216686,-0.479861443409853,-0.67156757639841,-0.633720580714556,1.03794576952891,-0.870013908676713,-0.817926871275674,-6.54494027071849,2.16226683135607,2086044
-0.118568032342213,-0.616185090315143,-0.347307092180094,3.17742500110824,1.75820254885483,0.294670967337793,0.184287906183605,0.351878931606611,0.843797971011076,0.388604771271264,-0.0224886864882726,-0.070830610841767,0.448983863715879,0.876582415455487,0.731492440084794,-2.85422327103659,-0.106847193024243,0.156424877404206,0.915308171862992,2078198
-1.02329870002831,0.503533239862414,-0.295245786849352,-0.427863776838779,-0.533188032938854,-0.118551619601979,-1.05792937372634,-0.317033303360976,0.249126760528279,-0.32561564087428,-0.333855511201717,-0.335436849895942,0.0429528210126318,0.162277969756085,-0.392780822484747,0.739228262862057,-0.675708189211621,0.0616785365821497,-0.422671274961513,1501387
-0.891666966983277,-1.23765148827206,1.08236684672504,0.00742777895299451,-0.685353896872973,0.355837506222702,-0.82878894016854,-0.636662744896785,-0.793915552626513,0.411789164721202,1.39134105678137,3.21864000989428,0.977038982472902,-0.578802112351838,-0.985022805553144,-0.068815665212636,2.08914271454505,0.195161444268593,-0.44519126198675,1518948
-0.900324208966774,-0.722897973662484,0.411606986449204,-0.116000892972975,1.92240907370775,0.157621625087806,0.68417369713694,0.694062966967565,0.310405018181406,-0.355427120488772,0.17933943222897,0.0227941936663769,-0.165311625701135,1.93253885041214,-0.991159152437876,0.451300901457002,0.404049802380329,0.089912083486838,-0.182667864709197,1606693
-0.198286621963551,0.699868782579328,-0.958009778992194,0.92813753578921,-0.485028470386881,0.164235112373754,-0.138374821656518,0.181125578944555,0.340314876369065,0.0522137746952406,-0.665926718633379,-0.143461432067847,-0.280259755128241,-0.520200558683586,0.793396008068724,-0.878636800150879,-0.786027951169094,0.10296008418668,-0.960915294679118,2305115
1.02966821982438,-0.284078614218992,0.102111891830837,-0.949730984496352,0.99846614575427,-2.29481883329279,1.94047912938027,1.49742203345435,-0.930035729277293,0.00295247088017761,0.161511336442644,0.315179861438381,-0.0343962602632346,4.30772384820421,0.755643828378246,-0.0761221348144357,-0.139000437853329,0.0465107577435123,-0.0957076231038634,2237571
-1.11827599336853,0.441001543863249,-0.512333633171075,-0.0163222974486063,-0.380548244891049,0.628751640011124,0.147216124785359,0.386045013507333,0.935126518069988,0.0481389294493422,-0.473909794407809,-0.0766020058064535,-0.284044962551366,-0.632155918495105,-1.37815330739076,0.820347951918697,-0.120084604232353,0.263671039726584,-0.347968866123377,2285214
-1.49636223230056,-0.693011232796189,0.319327483761186,0.518012220141161,0.0912672851139728,-0.111567129792646,-0.711016247202651,-0.233361869926951,-0.200672608412769,-2.19331407884617,-0.0364788975336261,-0.0933907606997264,0.0491367121699029,0.022283196363856,0.632115088068302,-0.281761875729786,0.446441861035714,0.0608915124306784,0.118371992516553,2426863
-1.84414213307973,-0.565441627713456,0.0763716075160516,-0.217451389896448,6.99227685417621,0.379959383512972,1.20041139046052,0.562587839590286,-0.338566629824171,0.0229868704171033,1.00770002860358,0.376811829540964,-0.347684763645522,3.78686701937027,-0.583233579481319,0.0368612524089295,0.550423598022582,0.0827517782055284,-0.611925962432199,1979422
0.432884008008717,-1.77634966249897,1.46991097570647,0.147649633062274,-0.340506609197527,-0.465519199579722,-1.57227772240567,-0.722546025491253,-0.0507395001890343,-2.22001232855331,1.08250672007457,-0.203616454010364,-0.935493249584339,-0.154255218158958,0.351625102254939,0.528670679019463,1.92177664786691,-0.0429788967850168,0.561259443944089,2480056
-0.675516348671886,-0.376808916485506,0.485228895328937,0.0975527718131226,-0.903590186047682,0.0256264077681306,-0.963465363025825,-0.436819953967946,-0.505344270286394,-0.226609267324954,-0.320161045952492,-0.66955660373382,0.424048459219895,-0.662450260145876,-0.625211551093715,0.547876659812971,0.559909097969848,0.141271028624648,-0.309062356664929,1668599
-0.591110239134966,-0.759241809255688,0.560770030759178,0.312910202147827,-0.436589470876279,0.0567294674853006,-0.174583681186016,0.171576640258796,0.998136793192332,-0.406332095088536,-0.0174214252376382,0.290124633355583,-0.156414087489585,-0.110146552314079,-1.40321426928167,-0.506845328400492,0.551712196693451,0.0803328710498606,-0.320796207361695,2339674
-0.664021682449273,-0.487471723229706,-0.145787583955392,0.660099286239274,-0.492252257985203,-0.0848993778753951,-0.772598001690058,-0.273784493529925,0.480140240585107,-0.266660984792466,-0.344745581282032,-0.389191331429027,-0.0308109159931323,-0.399851951876393,1.48316842639378,1.48669386418719,-0.68734598513028,0.0834128118068936,-0.314815811867209,2133204
-0.998797156515754,-0.149236307983677,-0.167789915308475,0.122968562883063,-0.0706541506061884,0.238245920986992,-1.00193693489924,-0.369647778992411,-0.0449145057998051,-0.993066970608606,-0.0204622402382459,-0.330636788302021,-0.0670259611122238,1.95869011303187,0.667403071348291,-1.00665715410579,-0.132578552583695,0.0849812688590613,-0.151501768057018,2294852
-1.12538086432291,-0.51618233081312,-0.0519062190647035,0.219005631964888,0.199463725754312,0.0720115382796677,-0.59298140425597,-0.145960346288199,0.16875625867727,-0.759029648999956,0.25046855437305,0.00319190494136548,-0.126441607704665,0.186075775529019,2.39438950211974,-1.02339412326648,0.0157410887744766,0.0626379547730054,1.9232657046386,2445526
-0.684020573005054,-0.552064448808932,2.20646675400587,0.0745060911298109,-0.739653921837246,-0.0257708857481263,0.307453936327779,0.424350506481867,-0.0389029114383638,1.17386177069504,1.95650123016491,1.33163370377649,-0.699920199711197,-0.902103222300865,-0.327993340204736,-0.406000367722077,0.595386781848211,-0.295046745840917,-0.20326678974647,2200416
-1.78207758400027,-0.551450230772688,0.300053191278956,0.229599643655028,0.548125702476359,-0.121756753908092,3.02363704442686,2.0846503791301,-3.33254789353558,0.701350726168848,-0.626461559592938,0.43237071919973,0.212391749485589,-0.285310214481475,-0.874752810229194,-0.168145711932438,0.659107893169847,0.0443559300002986,-0.120020573866624,2168082
-0.574411808981829,-0.35450175929549,0.0295687289086573,0.0576559102102907,-0.132926682962588,-0.0741756969907273,0.176264639894521,0.347460930552553,-0.256905501332815,-1.30005173731302,-0.340177728585907,-0.252925865190502,-0.00447656152496285,-0.348832480585701,0.475755287098861,0.0267912417922047,-0.544219159339296,0.0641605228971026,-0.376164580435533,2075846
-0.620838150899398,-1.07995691374419,1.05861681888954,0.0792210211098541,-0.0823005010966273,-0.0323730136304835,-0.264609235348908,0.109095464286621,0.407919747602963,-0.366576648264332,0.349750077753079,0.617606083210346,-0.0620732358581598,-0.367044884760964,-0.452956825960688,0.676143834176887,0.880262260889552,0.0771260798656187,-0.568223330142739,215131
-0.431457015689682,-1.0360576509763,1.16678922620221,0.204673934388577,2.29293220975993,-0.391121494750645,1.810243173703,1.34024091977055,-1.97054408924318,0.24461932286986,0.756820297420296,0.0884662682107763,-0.622780765629414,1.1906908840615,0.904492609784645,0.26335476458933,0.188726172216087,0.0572928005997227,-0.0781172844031736,2274521
2.2482630202975,1.58249790540792,-2.468380397628,-0.337052290264385,-0.123895035079178,-1.07402776420484,1.5601937326783,-2.42438783648794,-0.419694166634571,1.43183825210089,-2.15760455171151,-1.25837177822967,-1.28274964293499,-0.514281537209772,0.782192031885716,-0.073259497259513,-3.93641017810422,-0.348071629710612,-0.736974721333301,277752
-0.154271320233638,0.53457837775582,-1.30359746347459,-0.363597760624765,-1.05536217579476,-0.0445037864895152,-0.837266052531258,-0.514539464305574,-1.52600765409413,-1.22101672806011,0.602611711099366,-0.332746327779401,0.575016554161385,-0.960259575507604,0.266977567087122,0.676648198929327,-0.854779333855103,-1.61319966092014,-0.146589869483596,2078899
-0.224277083765604,-0.737156111345717,0.511895695587914,-0.784988936322662,-0.1711705447244,0.33548348463141,0.590930138369444,0.656573445059791,0.703688280603795,0.567423104693632,0.70957022475919,0.29817405705942,-0.0757361456520367,0.701911417629163,0.0233262685463906,2.01114495142867,0.483355779234228,0.0994157010950132,-0.390762276313302,2172217
0.977350640997729,0.00189826494626207,-0.183269685156877,-1.11703717999171,-0.280947286482367,-1.66080532572342,-0.106192961086649,0.190886683285,1.38492256423386,1.07260813124296,0.0411241065825771,-0.32429330427601,0.00844994644212652,-0.136071660687182,1.56567844784342,0.964798777140414,-0.126121300065667,-0.451050988316344,0.244172006608158,1614566
1.49765582797917,-1.68232560665223,1.35179472689959,0.00857264042762193,-0.880334607584394,0.0610121017750184,-1.08467429416036,-0.527272938295378,-0.147842887962763,1.22895305780932,3.23246528609622,1.26475670518015,-0.607613938159238,-0.940246179911028,0.0332641434959871,0.222246410376259,1.52415784868935,-1.11369113175666,-0.214438806510896,2100050
0.716953317617407,-1.1028063769904,0.824357800111317,2.23488429132144,-0.0798814207133476,-0.231889286915892,0.216369479111195,-0.142890364357319,1.06024041693079,0.911002914187465,0.070210270835276,0.19648804056039,-0.179166037145686,-0.196324456814217,-0.211169856904976,-0.46155655359385,0.853474501383273,0.0861085485675711,0.567925970347296,2183291
1.16661506644094,0.0540744964373956,0.077106155869615,-0.278062389795671,0.906055364585055,-0.480996566527502,1.57615093131219,1.10742980564192,-0.770560483489761,0.587437835395433,0.496269080933645,0.00909489907955929,-0.126069906322688,0.500564174909383,0.248910228211872,0.445655180190811,-0.321576310525591,0.0391902476922255,-0.16472927459393,2336735
-0.403326863907103,1.91762811692774,-0.273866198453837,0.0316271376740909,-0.430397153521201,-0.210618925972263,-0.899227931278466,-0.239821437701066,1.40754020803385,-1.03674604752471,0.127443823836205,-0.399124233395321,-0.00831861102392159,-0.593475397657186,0.233671502532343,0.0672248197590654,-0.74400196876432,0.0361210360505243,-0.304066042158336,2352038
-0.412758012942025,-0.770385735703647,1.15772393745647,0.166999803601558,-0.0325460535424024,0.178024275768819,-1.41424939392346,-0.547688404011764,0.266371596754796,-1.11079114613269,0.964350807993191,0.291200568305781,0.290355322080458,-0.572793743578745,0.486677020267391,-0.415626152254398,1.03892560424836,0.135312909612216,0.200091952307056,2305114
0.261795981271619,0.723966256243171,-0.309426988103371,-0.771182066867707,0.633818674163378,0.367713347853202,-0.212050288757875,-0.441367692437975,2.08255130273341,0.372553370622553,-0.250280881193916,-0.316519006839705,-0.081960275702498,0.0994064740530544,-2.31796026926003,0.875363326926808,-0.836917171189573,0.162558381958262,-0.504447826771453,2448298
0.584314569432533,-0.0762206728693657,1.37317041453511,0.119867175680612,-0.554332622791075,0.0426485932931586,1.0512299752713,0.88566833156024,-0.557577017770134,0.797378838926412,0.763544355751601,0.0806944519537955,-0.614679781718973,-0.774142337803769,-0.0683211445223418,-0.207020318913997,-0.246425480152598,0.118739910926535,-0.440870163402524,1329352
3.27506151463431,2.27463880498552,-3.35374138887136,0.022451806889341,-0.806243300776957,0.255624489405868,-0.495466468979132,-0.0379087888796614,-1.04528626509552,1.25015102721321,-3.10491500875475,-1.32605147593102,1.27289090435876,-0.808512654464169,-0.444333179821461,0.0012932650030709,-4.19084790127851,-0.118154239546405,-0.427991898482014,1183075
0.0820629408495887,-0.861953320126319,0.183952796019421,0.338418505437705,-0.0883599144151046,-0.345576348691812,0.384264706691597,0.477879660966752,-0.32285489887176,1.29636325434638,0.684539562988152,-0.00811264880873919,-0.328401582376076,-0.260091656906515,0.178454088473324,-1.92356827826651,0.468239460890259,-0.13049555573311,0.678717195946827,2110540
-0.509643773233784,-0.475759870721515,0.109164368258643,-0.482502472930738,0.0939002712200188,0.796681417998415,0.284275471600433,0.452962952376114,0.910098040848273,-0.00625865661209844,0.0315083570154898,0.0255860520873956,-0.0187280990455954,0.662610142833465,0.764042506286667,1.93754064240179,-0.044861311531563,0.15461868857226,-0.466357270189751,2070958
-0.890517408566817,0.307796199953154,0.477769931764751,-0.0966411107989837,2.48290651616111,-0.137285506027207,0.335455314643136,0.482313959688555,1.0529858161501,-0.628024944927959,0.00182851215370275,0.143744075697529,-0.419060098363873,0.611814569954011,-0.427726963756079,-1.21525867685697,0.137953368413026,0.073724461594651,-0.252396443518711,2340155
-0.510360653139465,0.184749096174557,-0.414832165971283,-0.525560312955534,1.29747567700415,0.349944966686694,0.552504005638726,-0.0284754489030873,1.38565816729712,-1.55750043520655,-0.254643868375159,-0.209051439726417,-0.344124243110859,1.11533413343805,-1.55204771691178,0.330456760633853,-0.923007748936653,0.106253434601762,-0.670339575112101,2075832
1.62792772832618,2.00739907787797,-1.77964506460804,-0.349045186812477,-0.194023119155623,0.04231975377349,-0.0488962405502439,-4.07443032948019,1.1126239086279,1.37740719211826,-2.54175141116353,-0.773252799756383,-1.50192629018026,-0.629962032892632,0.605722774467787,-0.0586177534914983,-3.04425190948187,0.128751107775771,-0.279298265171837,2498991
0.534430913775846,0.823495154562073,-0.535520885448692,0.326667959441422,2.84862605439727,0.489925929396291,0.906235001373543,-2.8447495924768,0.818668559315037,1.39507087058753,-1.37676512029275,-0.129195488754457,-0.0368965577513502,2.62970934698018,-0.985952956155418,1.1042945422921,-0.0442990787218195,0.0820579585875851,-0.152315561343518,1919296
-1.48561680343856,-0.516199718615928,0.593161247618034,-0.0922001598216824,-0.303017154813083,0.121549390325205,-0.48569998504208,-0.0403697034290163,0.554654988189363,-1.24705091059951,0.532058904767385,-0.17135263737718,0.352896046056643,-0.253526943483952,0.325728190470277,0.487864841237539,0.499116537329554,0.0966491176856311,-0.106697394807137,2401405
-0.674022348917838,0.571989263432128,-0.630663208178252,-0.00999690992260729,0.705489657848346,-0.0350345196210052,0.647065106155702,0.422597156879839,-0.135816075753061,-0.846905755115678,-0.632618710674876,-0.183786267353268,-0.00429434085868709,0.446534159501393,1.10399213888805,0.256842703619557,-1.45010836602011,0.0785804700124858,-0.953758444226219,1644034
-0.921549994551146,-0.945781799106676,0.64359215894096,3.23628761884772,-0.413378911282932,-0.241373672519865,-0.00183422098762025,0.257472979462208,0.0265015328686583,-0.423481497936075,0.563793586946415,0.521818307941064,-0.470264135728669,-0.449944465521996,-0.368960073915153,-0.151800005219682,0.754215058996975,-0.0182101724147972,0.0591097388472873,2405144
0.216749617600253,-0.0834400955640477,0.34595157301212,-1.92571611651387,-0.042942889696655,0.463965333247084,-0.300386976907673,0.0623565378683851,0.906911667663666,-0.229757226645543,0.408718967834221,0.115457686190376,0.0309356883958045,1.09987326712508,-2.34979733405459,0.526015557970425,0.0702375903246528,0.115486043231603,-0.180658848190487,2158329
-0.873421198090106,-0.61273791485196,0.286058693846257,1.04673101525956,-0.326341582577133,-0.0782477878748598,-0.0782581840101818,0.1477490112258,-0.341952291952068,-0.936721222095066,0.0738523618522782,-0.116896766190975,0.140812399823832,0.251681497925804,0.0838784600039888,-1.82319460572058,0.277065180939147,0.0600318397296074,-0.0136589388994655,2319068
0.380714644028799,1.64080035811582,0.150014822641005,-0.125312365834929,-0.511192454526107,-0.0157774722772212,-1.06865298425223,-0.68211071042445,0.298538262745869,-0.292399661113431,0.49414234283275,-0.220683809896326,1.39837845012934,-0.517652891262196,0.49740533244551,0.404346800371492,-0.194451446365042,0.028574449943945,-0.202046888689352,2504802
-1.95023674472403,-1.36792736199605,0.308423483586112,0.015142164434721,0.140927510128929,0.10805577691659,-0.00567126898831291,0.168681786815854,-0.62603045758017,-1.84987178685459,-0.0428016922409359,0.107498471077684,0.19363940760599,-0.231676709573214,-4.49189022257064,-0.135348879046966,0.502100735196373,0.111967885245185,-0.152997415728995,2331869
-1.07683360106001,-0.814205734133987,0.893678774100565,0.508483247766297,-0.457430403414813,-0.24186304677144,-0.924862295809691,-0.389359201831344,-0.323956210301026,-1.89234404371109,0.0642576725515303,-0.0350066133683888,0.191972764738635,-0.511134554300855,0.73586291659176,-0.458013515622179,0.689521800979184,-0.111030865276692,0.299872093633588,2317120
-0.351586621412778,-0.648499537813487,1.25946902658105,0.0719858480384477,-0.720697147073002,-0.198136783184752,-1.00467613545102,-0.433971990843136,-0.374333664290576,-0.704763621322148,0.243028946130153,0.389783499494144,-0.389507976574079,-0.797193519777337,0.473285604796718,0.446497379564181,1.28942444954766,-0.209768733058735,0.0433571343085389,2072215
-1.00723848543121,-0.104673076807885,-0.203260259234373,-0.370142334088268,0.529037933749922,0.0109384102276928,-0.553588276894376,-0.0683316019376631,0.753579203754837,-2.93471152458172,0.296238575021365,0.43346775491522,-0.202835564199465,-0.291548066713262,-0.127105638981846,-0.485256796135786,-0.303837585218726,0.103807983726949,-0.712617535470923,2228400
-0.272675640427125,-0.637575641988429,0.224789460783336,-0.685529976457635,-0.765041872397962,-0.359162597192705,-0.433165575084675,-0.00182270057781939,-0.290612513372321,1.32637306901345,1.17836982906416,-0.0568727848880921,-0.778357955670471,-0.723845862781643,-0.662335271101726,-0.32665969858578,2.17128992937676,-0.464893534899033,-0.313464269495757,2145166
1.40014206423594,0.98832253508958,-1.00586860264455,-0.358697305111539,-0.282031008821008,-0.0769527138088086,0.0389189118902169,0.322974275795042,0.0738050089377379,0.630406129721386,-0.597843748721882,-0.617521998372817,0.460461328376987,0.306855506823781,0.66513099214435,-0.0851525051891666,-1.07958500812245,0.0728521208399143,-0.241852455237353,1692385
-0.351687857300128,0.478604914955806,-0.415209483474642,-0.29073469493027,-0.088053085638773,0.205502633099552,0.273220855048348,0.50743491908934,1.33131810775743,-1.50090226473087,0.168768131711112,-0.129300750907605,-0.526662563620208,-0.314599282371434,-1.72329485111006,-0.228166669835208,-0.646566228464449,0.175235033986905,-0.50057332490264,2109902
-0.684444252406026,-0.691845274339801,1.13919370612066,-0.222655766642361,2.12012145912909,-0.288595436351617,0.434268830081256,0.338088464171667,-0.0510215257863642,0.965248005595392,0.505743987714419,0.252645968539894,-0.510598555364835,0.688273317652308,0.497050747574656,0.574675234559674,0.328015374069745,0.0606086475798819,-0.565658936539323,2219842
-0.0644590241669493,-0.608117289193705,0.174821834335873,0.93548581060345,0.0961738868287604,0.538674766312857,1.04922688628729,0.874790220274001,-1.37092894852501,1.03790387999394,0.457598270396985,0.221307459938064,-0.0330795977189542,-0.0266745828967286,-0.572399211487994,-2.27406267934574,0.2292834227106,0.178808131345529,0.999042597468653,2520618
-0.286112868589247,-1.26635030072271,2.63979255179997,0.242676710542073,0.133974906752531,0.175843169270939,-1.48510828532832,-0.576103469022642,0.6518755875646,-1.07678678984435,1.3998214523214,0.792548623878152,0.117889724320461,-0.389205905072129,-0.581622125656383,-0.728037783799806,1.14287323744922,0.130263966130088,-0.385489914049737,2419459
-1.02093060641204,-0.195396359703458,-0.903310356271105,-0.774144983176615,0.0441468865021647,0.511593520708444,0.522069506786815,0.607299778302915,0.267360559970774,-0.781613464628563,-0.285345527050271,-0.0932684632634258,0.379404876546097,0.862261874562771,-1.56340591253052,0.0986898369737257,0.0475257789221343,0.149627491178669,-0.301111991458453,2276121
-1.26902755638532,-0.278969143900247,-0.0221186829810184,0.0170142016067489,-0.465815260928294,0.0722961214497792,-0.329747201705784,-0.0094409398974254,-0.542093592977379,-1.00852470043843,-0.388056265574121,0.0745284957713797,-0.685218341978236,-0.842389331829782,-0.496705189289415,-0.800540582951097,0.3678407924885,0.123455233329562,-0.169565559263921,2350037
-0.363043619230406,0.152202195705214,-0.630592705452328,-0.543279782747525,-0.864556364842738,0.260405795432198,-1.1419522019889,-0.489315735652049,0.31270822110664,0.197492512911284,-0.087317490437162,0.572381616926955,0.402470851487996,-0.185872755880651,-0.493738784246191,3.84571367017172,-0.535878390054302,0.108430247987474,-0.57395785150283,2001182
0.482231552763242,3.89290119292447,-1.63909150010362,-0.919793743741011,0.696772845077577,0.0335887722983577,0.212466751386697,-3.48890616804967,2.44768888417757,1.32864397377056,0.746667324634296,-0.0836919059086461,-0.268401807903698,0.795504304224886,-0.913435431824731,3.24671039459852,-1.59153918035973,0.0439960055501303,-1.11345393504583,2278618
-1.06942889091337,0.140028782403463,-0.236455272179381,-0.0322490676660558,-0.456948180263336,0.153446677206921,-0.376918135389326,-0.062404680544475,-0.234182281014518,-0.374400738844069,-0.229071894013104,-0.151303247656671,0.0943942037373082,-0.842954126970753,-0.0690669287437742,0.496685400433836,-0.383191401591279,0.388449376868009,-0.325854483631692,1740845
-1.14506580232841,0.203448615312356,0.144019927073688,-0.136294487335915,-0.419408596274662,0.0177355891848704,-1.17418212647335,-0.488748146617592,-0.194544119272211,-1.70547337164513,0.444125088288886,0.031935046264893,-0.325265595935795,-0.657774435403051,0.029607487245325,-0.233624598503137,0.148454546400281,0.0767452089817615,-0.32089726618448,2321962
0.617620979669765,0.606630157131744,0.285707187528794,-0.126822037577675,-0.600035018757517,0.123513861433521,-0.99050628446204,-0.320436435736057,0.202445150252891,0.192842810135496,0.041614831235146,-0.712676364006048,0.325773456237675,-0.731152572351117,0.404447494462592,-0.156931006260331,-1.23632393333415,0.174307785825242,-0.467615675763016,2212664
0.161243468942049,-0.287075588455178,-0.807399917551158,-0.264561120400914,-0.574962631677276,0.0931334740276532,0.0238305871812939,0.168962316034488,-0.966029547662204,0.745579982667554,-1.10149269344189,0.10787849161788,0.780580725706984,-0.71080808082098,1.43969084604543,0.027402829523223,-0.498169737471067,0.263593329110787,-0.442373794443451,2453577
0.393598418741992,0.408070648229704,0.0502119839720208,-2.72606304944827,2.56706317164551,1.99669445046708,0.442813778644056,0.601083283934109,1.08913022682353,0.75306365333684,0.0767545651798826,-0.166291289340659,0.276591455352788,1.496611230628,0.363979793733009,0.316267878872023,-0.0965673867600629,0.529446356318711,1.22988054440862,2224150
-0.513964821204167,1.00226378964911,-0.317008868471657,0.0346428606803736,-0.309278747204507,-0.117270693936289,0.467824329065214,0.467821790784274,0.951876932826512,-0.662594157456524,-0.36220344756899,-0.184653434156561,-0.427676294213043,-0.104866468200691,-1.16095792667437,-0.458029300929549,-0.621552078574255,0.0595147314722357,-0.299666655602481,1967281
0.924903763485932,2.54796307833558,-1.35038693863207,0.00938607213108619,-0.735549225200872,-0.0418798297722904,-0.667076626570687,-0.0827425220732131,0.130526213049912,1.2169518751795,-3.33859606767713,-1.57460437734721,1.89133401113964,-0.907904620192139,-0.137133452400256,-0.253821997870194,-1.22384287096032,-0.968446760264913,0.0120899977210284,1742294
-0.771468086603339,-0.579158652791888,-0.445018962607396,-0.151299175600653,0.920296915349989,0.0681625465298218,0.132871002660602,0.288874355821125,-0.911066091653403,0.00781094945986252,-0.117918153648852,0.0733373470981468,-0.496917361550237,0.245988222684541,3.0483232038527,-0.816712409876108,-0.103668680503934,0.0926091368082087,-0.42945539247293,2488660
-0.278238860603398,-1.01579178350605,0.573051529648274,-0.406735393344784,-0.825630854982412,0.157503453943211,0.256954150861654,0.408801913038003,-0.0288009868005636,0.762655588381816,0.470347489311765,-0.133136718589048,-0.378096363915985,-0.572330726577678,1.50747278227435,0.156986011589197,0.528235911605625,0.139751958329977,-0.164689466293608,2085349
-0.339415923702762,0.278916627528431,3.13179863031995,0.186239183128272,0.347132058406837,-0.288754122559884,-0.213636882875637,0.0447739906011681,-0.956901020117614,0.705478944260698,1.04667703689037,0.0213159746935402,-0.670988091087439,-0.630174018201408,-1.37350744216829,-0.844858331381946,-0.0435244482304288,-0.235609555878062,-0.525020858336814,2247869
-0.94042645515445,0.410399010922267,-0.553503178955727,0.125710163650648,-0.0128993746468132,0.0300226023771705,-0.260676031294339,-0.273522938843289,0.752934427393458,-0.483011960210506,-1.07531267755812,-0.192960164749148,-0.495193125938243,-0.252551131120446,0.528507159754547,-0.588945049146318,-0.911590012273493,0.0694562628744636,-0.490777375075701,2157529
-0.518140686814722,0.0466799761292727,-0.446645827193494,-0.621344883620125,0.26905095159789,0.198231837487788,0.129544134571298,0.387963162541058,1.29165080909097,0.775695588851842,-0.233257727189257,-0.109701861720499,-0.655382949492126,0.182535999760279,-0.603741301641091,-1.59188964467002,-0.022062326962096,0.067306453372049,-0.0626029370777473,2119177
1.55635729989923,0.743498159816767,-3.31815448290984,0.363678891477458,-0.332672661725356,1.30897261642397,0.456864194285044,0.583500487449191,-0.674710577946365,1.32761578266969,-1.58184241654001,-0.437149498793822,1.62682513093432,0.131562587943791,0.287254702295721,0.0896862854555056,-1.79814096424293,0.956414618279215,2.74246741690751,2010554
-0.639464373961201,-0.160983423931629,-0.650995613321219,0.226314964437606,-0.315673098210495,0.0183156467748507,0.270115936747454,0.407990720592881,-0.250725270335001,-1.15498783084923,-0.487236144002218,-0.210545345982384,0.0455995389970445,0.00321101848006742,0.90773979221747,0.0582702989318554,-0.402982248755754,0.0674986981448863,0.0752600873453894,2493534
-1.1912160240189,-1.06032720813546,1.03850269750375,-0.018518699064613,0.462565497550222,0.124248210272218,-0.48961293374587,-0.06883973014408,0.755249893677495,-0.65441384722942,0.67952599278774,0.525688872499578,-0.0770875465431363,-0.162886086457568,0.299347789966137,-0.301063763015453,0.845315183039419,0.101758304587822,-0.206151698385103,2200813
-0.599842932671166,-0.894248114877603,0.605374825171401,-0.026888902998242,-0.895774675294156,0.249656217268168,-1.21240124271828,-0.636745802604311,-0.952989288734596,-1.95238345709251,0.00347090021148673,0.599091995698685,-0.576017037699478,-0.901938121664183,0.679423171595859,0.832070809313845,0.772092800565737,0.815488933923878,-0.217159139754219,2116787
-0.150576833234459,0.354085667103049,-2.73139611179093,0.79782721537334,-0.404564673893253,-0.47903946654996,2.68473623893215,1.86297815176851,-3.42042176681083,1.45754253519481,-4.23251029417174,-0.844514461119013,-0.279626830703723,-0.743583487415934,0.336187779823975,-0.469134570016261,-0.904145441085033,-0.736707022316257,-0.307160166601683,1154608
-0.751054417405464,-1.27408438844237,0.313709696382279,-0.210338862915589,-0.306160766675256,-0.0562992365056836,-0.289373747409587,0.042493832757224,0.215314964196467,0.0590964790635274,0.262916254260495,0.485974622148633,-0.574006459483138,-0.704944442178888,-0.562701000665417,0.477294759840698,0.628897526192303,0.0911049407138091,-0.188399130538554,2267382
0.0419303534009883,-0.00490186429915902,-0.511326476393087,-0.583379847261554,0.523946648857201,0.123438410816138,0.404148485391506,0.590055045718581,0.48326707238924,0.503504410974463,-0.127213164139712,-0.0800399429155277,-0.0261857243108539,0.540282111896214,-1.03379746373823,-0.864531735671461,0.0374676318820057,0.127341111026866,-1.64369623487963,1181124
0.268363069358073,0.94728265119448,-1.6468723860954,0.308950731350567,-0.906234946673136,-0.860673120325781,-1.31824215426397,-0.620015642070262,-0.22881500230272,0.457854792037843,-0.211475205570755,-0.835660109545191,0.626119495152277,-0.856071194270236,0.932109877482848,0.511940698319243,-0.0131859679849675,-3.34987270587858,7.68265967725615,2137799
-0.581232494933121,-0.564314033928192,0.0208821300755131,-0.842358325346116,-0.790723970946485,0.0724067513438429,0.0178871974332766,0.200580103066024,-0.888394707960011,-0.515920834735789,0.656978542089482,1.06253977393838,-0.156931936185752,-0.526566352001702,0.234774451705446,0.590058695558693,-0.122279114714453,0.0402523449532161,-0.56257044178021,1458656
0.99250802687015,0.437443699739313,-1.47239366367966,-0.976602255891786,-0.497595607014902,0.677208127156759,0.567206016020698,0.59057030629188,-0.925597966278837,0.98585669513445,-0.761401409438411,0.135255477882788,-0.694705527033693,-0.437464209726629,-0.485576622984997,-2.62724129699969,-0.0191204428011661,1.74059323485628,0.807825929014928,2269346
0.391300613254764,-0.549359687226739,0.0852570670548642,-0.167924123315013,0.0516179541710693,0.206540476485916,0.409373900652423,0.521587153237532,0.662621723136128,-0.187022755470082,-0.0647751394264692,-0.0443550525998457,-0.00713506461172566,0.22846578576993,-1.15822266873389,0.7517964956977,0.375354340579769,0.114693065661624,-0.178306113410401,2092954
0.184600535502701,0.372881428948972,-0.252008623677939,-0.488818613389867,-0.297395194273212,-0.00718891765028031,0.0114264181685144,0.315581358023404,1.08998949810399,-0.400100401897111,-0.140558541341973,-0.380525098360331,-0.3944869793875,-0.262967478777094,-1.78806107971882,-0.68350537854062,-1.21652214498005,0.0712078144337484,-0.463394241971866,2007309
0.789264853061679,0.749610721677428,-0.274565806102566,-0.0491808220624167,-0.802942296988508,0.153330346618312,-1.40794195595026,-0.631304066737098,0.118905443512326,0.607070645193748,-0.0725800669153172,-1.17535869305371,-0.119602936649438,-0.767380280544445,-0.476075710790196,0.014327192291741,-1.30195023004341,0.425486950887978,-0.679005086273365,1671370
