pgsalome/predictR/output_NEW/signficant_features_results/pfs/pcaFlattening15_mkm10d_ctv.csv
"mkm10d_ctv_wavelet.LLH_firstorder_Mean_250","mkm10d_ctv_wavelet.LHL_firstorder_Median_250","mkm10d_ctv_wavelet.HLL_glcm_MaximumProbability_250","mkm10d_ctv_wavelet.HLH_glcm_JointEnergy_250","mkm10d_ctv_wavelet.HHL_glcm_JointEnergy_250","mkm10d_ctv_wavelet.HHL_glszm_SmallAreaEmphasis_250","mkm10d_ctv_wavelet.HHH_glcm_Contrast_250","mkm10d_ctv_wavelet.HHH_glszm_GrayLevelNonUniformityNormalized_250","mkm10d_ctv_wavelet.HHH_gldm_LargeDependenceLowGrayLevelEmphasis_250","mkm10d_ctv_lbp.3D.m1_gldm_LargeDependenceLowGrayLevelEmphasis_250","mkm10d_ctv_lbp.3D.m2_firstorder_InterquartileRange_250","mkm10d_ctv_lbp.3D.m2_glcm_ClusterShade_250","mkm10d_ctv_lbp.3D.m2_glrlm_LongRunHighGrayLevelEmphasis_250","mkm10d_ctv_lbp.3D.k_glcm_ClusterShade_250","mkm10d_ctv_logarithm_glcm_JointEnergy_250","mkm10d_ctv_original_shape_Flatness_249","mkm10d_ctv_original_shape_Sphericity_249","mkm10d_ctv_log.sigma.2.0.mm.3D_glcm_Correlation_249","mkm10d_ctv_wavelet.LLH_firstorder_Median_249","sub"
-0.0438283709229106,-1.08929822771267,-0.975143349273924,-0.643882908898911,-0.665620533366987,0.152051694699897,-0.0185578931226205,-0.563412399261567,-0.413636240926538,0.900351498486322,-0.470964662347858,0.578648650250844,-1.25508929073881,-0.444137942093597,-0.507555587506015,1.30881026026862,0.800584781239504,0.464136284933226,-0.338903008369487,1085983
0.462973735641199,0.423963055532458,-1.02479140375611,-0.342846274986362,-0.692040043629084,0.0679378025408355,-0.506426860941732,0.828895015839184,0.13709058173005,0.115912560412875,0.614644220839696,-0.26847876177651,-0.621159450847774,-0.325554334673333,-0.188279823474017,0.207712242144571,0.603637414643192,-0.185211076655205,0.29989516345933,1125173
-4.54072563392055,-0.640194682359774,-0.603280216486691,-0.902854023486909,-0.589607962516094,0.938202640661386,0.217045232456568,-0.703765844886627,-0.541160984651009,-0.733074536644274,-0.520931852931285,-3.01033396702049,3.85076444058667,3.62710355966082,-0.479509146259894,-1.77978312813069,-0.472203251817337,-0.420423311509716,-4.4854303489581,1154608
0.194796386348164,-0.121915476195377,-0.571121618442893,-0.174154613853118,0.222845104273929,-0.0797812501186034,-0.539840008688982,0.509354540772488,-0.213108184625243,-0.567460446341711,-1.17229515293451,0.532142962523978,0.530767518835428,-0.251668068536295,-1.09804605809431,0.947046439148062,0.512255643198397,0.487228801931813,0.255733685598007,1181124
-1.56597171095659,0.63977812185549,-0.698537775464336,-0.788022590113303,-0.529581026271792,0.223993302148301,0.217487998776734,-0.972363055256652,-0.554947533007796,0.153690546121919,-0.0513499881280997,-0.590850188596143,-0.2009427896738,-0.949111760788287,-0.340875440001598,0.498026448452127,0.506177227649935,-0.608763166267588,-1.48604547582644,1183075
-1.07720121306003,0.0105298315838285,0.360130939553942,-0.934274715283479,0.0526991294306484,-0.180352615476122,-0.325950874720726,-0.106795215297933,0.0575582740813731,0.512229103082477,-0.0505349698991327,0.461962965955764,-1.29361359688908,2.48410239366615,0.970266647591381,-0.040555282256636,0.885648114442777,1.04223035001211,-1.36494927361392,1232870
0.0461276419894325,-0.830349856402481,-0.440188949274985,-0.0572813463601646,-0.57641667195129,0.0925472163109636,-0.233107518317377,-0.308703317817996,-0.0651594406136517,0.370249643027359,-0.0780704991934627,0.743510578256128,-1.536040936445,-0.408241721580281,-0.215295361182688,0.326442447809471,0.714335481417378,-0.439720388614353,-0.402512042631594,1279943
-1.19898552624178,-0.125083810343332,-0.550276525800381,-0.710995125947529,-0.584396692932623,0.667763066521736,0.612251492372195,-0.928560381122831,-0.609664057699365,1.36187423744997,0.736835116679172,-0.905227850950268,-0.107265260278778,0.810062465308732,-0.165694854735761,-1.12719639939352,-1.48133400742435,1.00436726748743,-0.299304203851859,1329352
-0.0319927695531998,-0.308721436641019,-0.218025594060461,0.110423636298562,-0.131032976900809,-0.271016720167137,-0.64263113084316,1.5978872897117,0.308314824079168,-0.828696936361875,-0.766031690879825,-0.894462949165588,1.62517964902842,0.823150203789186,-0.69226341035291,-1.34905215456648,-1.06866605295259,0.363184247562012,0.501581680421663,1330263
-4.09956672913117,-2.29814426080559,-0.291527187559464,-0.917045875806768,-0.619964699233009,1.50813850309005,0.148715717715443,-0.517744201037269,-0.495037323680951,-0.732233594252036,-0.79839415382943,-1.72273154387464,1.4221859937549,-1.04673436015593,-0.262037022787137,-2.0016901349136,-0.180199441281054,-2.11327211256472,-8.45641302628161,1364384
-4.86585989107902,-0.573998124610102,-0.86593258829346,-0.896953485652862,-0.52283248621346,0.1553820469167,0.162134079412122,-0.522143833704631,-0.57769902055397,-0.427390067241085,1.44982723573625,-1.3526048601239,1.79867673719041,3.32907943700836,-0.166130359579572,0.619699225547716,0.475938388643323,0.0551454000595524,-0.0994637243949442,1386095
0.859732743926763,0.92873390314186,-0.990286117243656,-0.0257276988300943,-0.763220926774591,0.246865787102738,0.0273474124355526,-0.786377568088179,-0.560788450264965,-0.333291513957707,0.802508406860176,-0.598416823856435,-0.263174736157147,-0.779066493067408,-0.316956312917724,-1.23162889338185,-1.32559025059151,-0.51803107011898,0.569289572152638,1458656
0.910207451709666,0.498050318431545,1.30173285096121,2.16125844998636,-0.199052495280444,-0.722970846716939,-0.58324349633178,1.28926595812378,0.682394105856833,-0.388556543161418,0.245992989717978,-0.650645143939216,0.462075340101956,-0.445057352009686,0.129695984463088,1.6065714486148,0.388489437145123,-0.0950545863070948,0.401855396246649,1485662
0.318066249619177,0.851365101072509,0.134402143481799,-0.356605720184485,-0.0739244466133664,0.169993750198225,-0.405627527912614,-0.107057058024469,-0.418652321643055,-0.560534602552385,-0.9508974218158,-0.121585820122084,1.35335274935656,-0.80764118918131,-0.850418247020349,0.282152634392141,0.473403687051222,0.972342677336318,0.611652400568087,1497807
0.502892956685516,-0.0203641384601715,0.290802140458209,1.74310398093377,-0.398245945259012,-0.308878802962899,-0.595281838912811,1.59122883820008,0.620226054146236,0.0879969977617871,-0.364231428516549,-0.145653131124079,-0.902414428242295,-0.402070617633339,0.208138205180183,0.642043114724185,-0.925144582582686,-0.874173661779716,0.351336369865985,1501387
-2.90833015210477,-4.29014846039943,-0.818733478242125,-0.359437445931007,-0.762531772486103,-0.297218327628455,-0.315712933366717,0.164417982193653,-0.0267846947445339,1.12334085702148,1.27604899673858,1.26954545053061,-2.01477202518541,-0.436683470562039,1.79119137778079,-0.559060039216753,0.634975165692865,0.667875667994911,-4.27260763800295,1518948
0.160033119089938,-0.481676708637561,-0.85910759351131,-0.904101563799729,-0.561530071164839,1.02543636427473,0.583255957683572,-0.960339616025172,-0.573036344983676,0.0219909881458602,-0.505562435714029,-0.271739368798111,0.0283675601356245,-0.78059187453435,-0.981547762248062,0.497182512383408,0.977405226754402,0.617321153743902,0.289692891666552,1526417
-0.419525066050604,-1.37042226684304,-0.366944596981915,-0.283398873820282,-0.793417750360791,0.649861804891564,0.714851829077638,-1.05940334049702,-0.604928257083763,-0.256845923535569,0.427010915582142,0.533983146744826,-0.597016978158979,0.171203262672499,-0.610414054947858,0.533346297044829,-0.546957377097786,1.31219216614255,-0.330056118952336,1565177
-0.220507999019673,-0.0259046209952986,3.60772881828319,1.92679033734853,1.89219588906578,-1.00205271497008,-0.629274301701741,1.07653455554008,0.436255767976933,-0.804327731817297,-0.478247691469824,0.0664528477872372,1.17909666189663,-0.35799626963841,-0.658980087427088,-0.474379824368576,-0.116222276945842,1.94384408243811,-0.0467329756599931,1606693
0.778482455194603,0.729144017782982,1.00262624648169,1.58708002109069,0.349043119356002,-1.00562478691942,-0.678489880534213,2.78644621071071,2.07823372509056,-0.504583659442728,-1.57509744544836,0.954445385023764,-1.05298162752285,-0.39796876406338,1.10601733803584,-0.0118805872187325,1.02028395814209,-1.96106841996693,0.519117778633057,1612262
-0.25745391695183,0.37402580488773,-0.0448072786896329,0.212771449930951,-0.380720459628929,0.228558031849171,-0.266219469808643,-0.661897437022623,-0.475131160459826,-0.56411472431178,-0.21190297524765,0.395824486697272,0.444200370353397,-0.751990337780039,-0.634593340762019,0.560164658066285,-0.393299153522492,1.4248418455077,0.22818528719537,1614566
0.856259044059484,0.884968512248571,0.381637874205709,0.749021158117697,1.79253935403907,-1.50436922738931,-0.667469069452619,2.3233885998884,1.82460292633135,-0.807183667233928,-0.704771440943621,0.599870146438767,0.642279310248751,-0.991309093100531,3.7390893411167,-0.697454558639788,-0.282340675286234,-1.69220706829403,0.754919924196766,1644034
-0.515675445803787,-1.0928832387688,-0.781033222680011,-0.404026387554328,-0.748720555740139,0.293600270315774,0.0724645861723222,-0.836260529755177,-0.444166458560502,0.642272461209119,1.34599857543711,0.154711970827338,-1.0523684068993,-1.05895257456366,-0.199140589032224,-0.925870237246028,-0.0195010082018193,1.22115070552865,-0.775482491133659,1668599
-1.25974184575522,-1.29436994879795,-1.17051282633293,-0.925362572058511,-0.890141894700837,1.21486921346381,0.580444670385164,-1.02280796762195,-0.565686067643981,-0.058683925090382,-0.699985022536342,1.21139696122799,-1.29611912259553,0.433390010117279,-0.760532711443376,-0.330403089081099,0.142675247894299,0.509960789691639,-2.4702594073043,1671370
1.11828966152649,2.07326687978667,-0.939446117771661,-0.989776355329146,-0.68654506914469,0.783370844311551,1.0081459763017,-1.03251272396617,-0.600234288621997,2.04052892332519,0.279348229605515,-1.09353482770645,-0.0337330354042281,-1.16826249339004,-0.367518242511503,1.71468162878226,0.786238958578971,-1.82512687047024,1.41575060816998,1684230
0.00857555683715673,0.759025673475499,0.183324556229802,0.439050952373958,-0.173712448002896,-0.668692843061345,-0.659470472419764,2.27737182727161,1.694020054394,-0.244554959376283,0.0060811906551348,-0.0791536633142692,-0.264462975232653,-0.911542946820423,1.01985939858576,2.42442289358085,1.25092321043765,-1.95938572676233,0.202463216220286,1692385
0.20673837778929,0.312952485813146,0.10122023343248,0.231948366884925,0.102287666629898,0.369589315251542,-0.456357912110761,-0.0706164409967857,-0.469985956558368,-0.515106334709563,-0.185071765697508,-0.046831843108591,0.307390793669805,0.225005052653568,-0.454920341274796,-0.849335205294719,0.128706404202277,1.19666168566697,0.322251843480079,1720713
0.136450415715793,0.116154980101664,-0.00959315037021519,-0.526858071091941,0.980916654074337,0.297885169928622,-0.290859012655627,-0.474270687971109,-0.304226488286056,-0.222274891847001,-0.252479595237892,-0.341634527050617,-0.283586905602591,-0.483428542075868,0.937115755473945,1.47093682366307,-0.323814196669891,-0.0320443344717734,-0.0475176045042995,1738800
0.231728042351606,0.0388570252089446,-0.694240545120559,-0.875176116356237,-0.300027723968553,0.954630913256159,0.719644777806701,-1.00254872120339,-0.589492577604321,1.2868468955361,1.37157807865676,-0.918783558666243,-0.537085386253228,1.56719628312141,-0.00349981695877873,-0.984289282577566,-1.37883503606345,0.830599943791541,-0.0218089531566978,1740845
-0.0400495541321052,-0.163193616571038,-0.215457001505628,-0.93868807485924,-0.659055338230755,0.191338247295313,1.61633655030003,-1.19150406676996,-0.60582084227964,0.82918604689353,0.286435668570222,-0.507767107263686,-0.512460054877165,0.381393219011592,-0.00699668982906399,-0.0162214967025699,0.178409506132095,-0.907811405002293,-0.288898540830065,1742294
-2.32203471947729,-3.04373532484366,-0.857384730807211,-0.769590571648759,-1.02156754146182,2.036958820752,1.06082102994606,-1.13432973553362,-0.582932145590001,0.918245143442033,3.1268025372142,-0.336618308588978,0.306749291473418,-1.42336638111478,-0.696324391429727,0.301188642516276,0.945749026133428,1.71330134846936,-1.73049070021492,1767700
1.08845998670528,0.632297628182469,1.80628663768144,1.55348333506873,3.22967575351403,-0.270187523874271,-0.557086338152997,-0.268698985375426,-0.194666654390824,-0.953929159106229,-1.10068572887443,0.807047697917894,1.28425571669703,-0.247095094070538,-1.04478862020423,0.0893497944395825,0.376382666873266,0.172367531595957,0.575606442426175,1768972
0.163308360990635,0.0334150178506937,0.115388804832356,0.151995892515182,-0.597669158599061,0.0470748352337472,-0.244065205737061,-0.480354789641863,-0.403428738271975,-0.681249428949583,-0.726746524012814,0.826976273772379,0.626817539329969,-0.331469377784965,-0.878095752547119,0.0394145328552414,-0.13333557039739,1.19088909900575,0.332659603318667,1889409
0.620699858995774,0.609535361439973,0.556259667684744,0.603992588364622,2.57071771025564,-2.59121742586567,-0.673018197846351,1.18746979586049,0.796516105622584,-0.174193702262257,-0.959209160587949,0.400083959005118,-0.538876314878758,0.474262528696003,0.851576529258839,0.594829207078501,1.0409327015016,0.268558366410939,0.0504737734553778,1915938
0.534448496113705,0.128212029118977,-0.788972494738847,-0.751147887111795,-0.0365876736970476,0.495843518296922,-0.423623356052515,0.205953610340233,-0.372009296808958,0.246644316548938,0.520434755288798,-1.51958861584591,0.768548108299404,0.0825759491037381,-0.274421366451533,-0.486494399234392,-0.19048197848281,-0.499372189486037,0.459657925442873,1916742
-0.6648202047601,1.53720430179195,-0.127424697632332,-0.266970057778503,2.12073888941773,-3.08358268344266,-0.685700041232158,1.33925461834625,1.84977579148967,-0.54831318387646,-0.965049198962512,0.407474946295404,0.963656606252553,-0.794287089892331,-0.287296534808898,1.27358243545127,1.67426794809303,-1.96139026885692,0.0966410662618199,1919296
1.18159192896726,0.0710793743633365,-0.242228094796693,2.37844749181521,-0.606994730595112,-1.10356192866371,-0.64748291664778,2.23581264467783,1.56725351764255,-0.501890770022429,1.86247804475567,-0.773465822441711,0.797713459126701,-0.843454875387105,0.700451492533403,2.96017490846824,1.77199758818759,-3.19383459284304,0.619055421940905,1926770
-0.0057490511814841,-0.0122635302875926,1.22922162989646,0.683536725524106,0.307184978053114,0.220830019545043,-0.382951282655238,-0.397343310891776,-0.534677722419988,-0.582435038478689,-0.512398699949513,1.04204680519298,0.509027639531408,1.1632901619137,-0.784045715469256,-0.731952187154632,-1.00984643185798,0.687145405360133,0.288426833686349,1938156
-0.0881559795061238,-0.305071771267029,0.804292630135719,-0.375737376901212,0.561625845368087,0.142115094681237,-0.379274739671552,-0.100008555653348,-0.211835722932369,-0.417112537348,0.161318494344447,-0.379666248297703,0.222229100490739,0.408170248703654,0.595658177353786,0.370953770244652,0.60683638016702,1.40928302875898,-0.33427114007159,1938561
0.819064328657474,0.927711776162035,0.332493443331,-0.27727169308146,0.299498363046471,-0.532092190206498,-0.462604195590051,0.515542449453339,-0.0437714256884042,-0.649262132298545,-0.530741714918011,-0.799065320061645,1.43593787931666,0.0992114697324904,-0.0720220031501728,0.107728608831464,0.350597986340161,-2.17222926244945,0.544283773794378,1966316
-0.147911564774024,0.916208519179605,1.33204941984133,1.72002340893102,-0.108046830983206,-0.194448026633086,-0.552277734168712,1.1301672884011,0.538317289649222,-0.891493019872001,-0.868382175751083,0.787300555101033,0.408972922890873,-0.891736827393849,1.19430599652262,0.0398414333604586,0.881056750879172,-1.34456409180046,0.173871861144324,1967281
2.09138867383822,-0.106789854751591,1.21428258599781,3.32265661926766,0.374662992168062,-2.60093150660022,-0.702603676816307,2.26890174053454,4.92707088935381,-1.03782797986841,0.177183855763955,-0.160600562728955,2.3632626131863,-1.36039418851823,0.0561644547548071,0.894423515290486,1.12837274751485,-3.37601542640161,1.46065729471989,1973544
0.0197270620228604,-0.330669843988796,-0.843508622451007,-0.664046467613199,-0.537510506099512,-0.324097447952884,0.0891727143355928,-0.754951857715866,-0.523733215586814,0.210051705695147,0.662316576016432,0.717297306662841,-1.52699876729612,0.0793351445201055,-0.109679703273805,0.735253043721172,1.08947544760086,-0.414229339471053,-0.277068719841802,1975401
0.432956194655745,0.322355905747825,0.100157789916817,0.242391102458202,-0.2580036719141,-0.41581793686353,-0.520600903133116,1.07680391331024,0.436123539388476,-0.228622950725049,0.759142538868173,-1.63005568657326,0.619104225922818,0.0700524136071723,0.689897702589552,0.991809379189976,1.14557382889176,-0.750126821407421,0.466705326687432,1976407
-1.09014285051609,-0.221060997325276,-0.0760024266440613,-0.146449243907971,-0.590075029633353,0.0391728908154191,-0.298901502478108,0.160797827629792,0.0412369958966278,-0.965935908804633,-0.11678505878801,0.558826438626056,0.178195947434255,-0.698920366122991,0.134542466223681,-0.643122020969219,0.215987316923123,-0.287787111062842,-0.456005613316194,1978972
0.213484562429345,-0.539162618013528,-0.604070684264215,-0.789995824683203,0.0819729247017157,-0.578515480708432,-0.504800527233992,1.11752739586615,0.851933698087412,-0.141318479856006,0.0974332470953334,-0.939702277882048,0.528399996546991,-0.00271561949022883,0.0603901080695913,-0.4752551970598,-0.377702884982456,-1.35997161980566,-0.215250367121751,1979045
1.16836119385591,1.12174511898407,2.88496341843259,0.830454252357765,8.95888931526909,-1.70920710722712,-0.701885141512634,1.80407817944039,4.25997527187915,-0.953888576652612,-0.84077243902234,0.0776060072709394,1.74683233971518,-1.1626273750111,2.7601726107018,-0.846939739064889,-2.37238523871722,-0.616171586327448,0.43214265674558,1979422
-0.879661573212107,-1.02123923310361,0.778414972141746,-0.608950446654128,0.695258937548691,-0.992463228649222,-0.242331400864144,-0.121517311059184,-0.312290533888695,-0.721886667847549,-0.822288199019349,-0.789071879136037,0.782199110583284,2.46145047324815,0.221877336289672,0.459911057257567,1.28562668755511,0.526727648639033,-1.54306127936156,1980052
-1.13947753017303,-0.403585479063801,-0.476432577667509,1.3106368493324,-0.776871513224687,0.0238332955918258,-0.532995609923905,1.45014159945987,0.466436254252672,-0.293105337771874,0.786940269513279,0.944397756542554,-0.781952936035674,0.422621702478459,-0.241266500518207,-2.05266178536875,-1.65053908012461,1.42440390801434,-0.567208614531366,2001182
-0.201513501242318,-0.994565979791444,-1.03755509879075,-0.896720837011416,-1.01365432507164,3.34218111611456,1.74629746666019,-1.23547954713811,-0.628089964653908,1.85757225842257,3.03079456836683,1.80656636540594,-1.75616893690355,-1.37456483872676,-0.567113672509194,1.05662134191496,1.31116288507804,-0.634373296521883,-0.119466937246133,2002465
0.740430327361173,-0.475051985185201,0.660224827521299,2.8877103528824,0.129462312731493,-4.68867816209482,-0.705683775981733,2.21725467819074,5.58050558796374,-0.469079497495122,0.600539081314855,-0.606500822129187,0.366543963804957,-1.07392833965818,0.0770910253794608,1.09256704739349,1.43447724533352,-1.936100970204,0.414439651917385,2004451
-0.214520467718667,-1.36073759517423,0.0638560345425992,-0.688279311875737,-0.0293445188515422,0.573225586599379,0.0104020219083397,-0.773598879592319,-0.418450639714359,-0.51857517576536,-0.310547458273131,-0.768553001320538,-0.223160546553033,-0.274472703686163,0.490488915173526,0.801086004382802,0.263753134748366,0.0115778480812906,-0.502676142153191,2006164
0.408682528912514,0.669691417822951,-0.143968967771394,-0.12077393877206,-0.166466074908067,0.279603142984576,-0.30077803868846,-0.505974588376446,-0.369298625246489,-0.634565090967353,-0.803931398836354,0.235168120599202,0.432404225341584,-0.70026550603908,-0.693877376713233,0.711180764637534,0.556901578804544,-1.19755148412031,0.555328127211617,2007309
-0.458584910973203,0.140035134173687,-0.5913479975551,0.238315546292471,0.820378516885106,-2.07848588005244,-0.703153400580542,1.6547584413716,5.11231336240306,0.011299794231382,-1.06497285848884,0.954355581481902,-1.429483562843,-0.168098136691248,0.188156416814874,-0.370166192252703,0.101926021741722,0.0340147415230001,-0.387317669415714,2009915
0.910482382609339,0.463070522586656,0.0516679450548627,0.124218099874024,-0.458881558104652,0.363944565049721,-0.173138687514256,-0.624757318707598,-0.503387778041094,0.734779989014287,0.497289430944902,-0.66510962009406,-0.322296569866047,0.672436279843365,0.55343979072927,-0.546574851551305,-0.148851763865249,-0.345175710139654,0.554538885370364,2010259
-0.350702571930822,-0.0839115046158042,0.331313235671126,0.396723066076987,0.339660462393038,0.412497355556886,-0.57070131272336,0.422751330309637,-0.165791625436511,-0.58636571388742,-0.352243452251154,-0.555158552059847,0.800949599926415,-0.406726066116696,-0.799090236845136,-0.0301582773296114,-0.98746919432693,0.353079527265641,-0.0862743273974657,2010554
-1.2250410430393,-0.174726115185928,1.2588028833993,-0.00177563358745046,0.248467307186391,0.904783259238218,0.120195211760362,-0.84773543311866,-0.541923887318525,-0.70896160132938,-0.542788741606563,0.75195075751676,0.385593644762486,0.934951001209413,-0.624441797962687,0.45537602821071,0.774311536698673,0.88168770786263,-0.886756784119826,2026671
-0.759260901962021,0.0669204771900578,-0.934707315946359,-0.607686630616,-0.665347150777768,0.309190749431656,-0.0305023741561499,-0.638589902719654,-0.467450257079315,1.67320140683425,0.92518218651452,-0.039207019704022,-0.666699522450146,0.00359702204687549,-0.398362727127176,-0.704459117444778,0.312454752460115,0.332672919203327,-0.450992963088511,2033049
0.614579593550624,0.0285066757363043,0.626447273787492,0.199967351448834,-0.243496278347957,-0.581478149121151,-0.340280459338286,-0.136500836865863,-0.334011299802881,-0.120568950650743,0.0166171594040677,0.0400231983086837,-0.576188085067696,0.0898697145379724,0.726049724961965,-1.3885810501338,-3.32295354738466,-0.299460523007781,0.136015930745851,2034136
-0.402705162485311,0.690680150118842,-0.746453256678215,-0.500933048872562,0.329673331547213,-0.618720488546854,-0.598890470108815,0.93469148084687,0.250194827485914,-0.564720083205257,-1.75968058436712,0.99863373393205,-0.0457388366985805,-1.08270104771442,-1.07708327513606,0.0496329850664404,0.771491465643578,0.41325996981777,-0.471724610093927,2040495
-0.0934281903662653,-1.19021600764749,-0.247994535612348,-0.239112445055813,-0.64071717121284,0.875937152444491,-0.275843884541948,-0.187323609842967,-0.393249529669747,-0.340293534284695,-0.877441271662641,0.390345964286079,0.182583374692802,2.84836148713451,-0.218215370667205,1.30914188154949,1.43051925599822,0.236550705545859,1.54568740934927,2047354
0.58437798560127,-0.197121912968596,-0.0319412254835783,-0.339164563025646,-0.294084227704089,-0.179472045120323,-0.204011589717806,-0.458588813256728,-0.356463593142158,1.22722083096036,-0.19726749885267,0.0338309026183993,-0.983122312082514,-0.0195891416811623,0.629178660268796,0.669340715509419,1.03896373084946,-0.216605434190391,0.202821352528698,2051378
0.780779254438361,0.988389232003446,0.688462624724482,-0.318805152123815,1.19838216806413,0.997579558438239,-0.324349221925564,-0.216159584000799,-0.231461346666444,-0.556319051859836,-1.02556863223876,1.11953237186553,0.995520324466143,-0.842306685597019,-0.380466853493646,-0.00997255810249589,0.706209407861966,-1.00313761867324,0.518634252680366,2055667
-0.0573133126258285,1.11473898957096,0.839724318873208,1.75168601958058,0.793785520440481,-0.851249615922512,-0.651368378870062,1.38448799320944,0.364476982444053,-0.828065716322147,-0.624734188042581,1.2364815510713,0.643316961511131,-0.146123737623975,0.534493395842772,-0.767867770303012,-0.0719052312615034,0.262883603042424,0.50801010134864,2057358
0.348547185198379,0.409407744047931,0.153607488844122,-0.892672025002445,-0.115824022512343,0.959279662367411,0.518685914930736,-0.875918682271402,-0.555070433450444,1.83132666490839,1.61106067426127,-2.62890059918954,0.231339656661489,1.45031122473822,0.359777447260516,0.465841784391949,0.0738814084125931,0.412041954575294,0.26555475609764,2059713
1.65874272603187,2.85819131938922,2.04887677903887,0.432839746909896,0.54857302650704,-1.4368782265223,-0.390114285652219,-0.15851018962377,-0.265068289046564,-1.11827642972879,-2.05261208578751,2.03192808097844,-0.750685623258216,-1.02026228595561,-0.558265917655929,-0.700606005189114,-0.0679039095274907,0.457499690004876,1.47922922042751,2069079
0.125542359515897,-0.459681266091262,0.984489142018354,1.92383380075738,0.121420329610035,-1.44488610851185,-0.578873603320508,0.796073308101316,0.232310351349478,-0.962207736941404,-0.587667265189299,1.14980681402853,0.173409826039307,-0.648069764015335,-0.0887402281708998,0.633590800010516,-0.0274438072075461,1.34029967723045,0.279663816940957,2070958
0.825634123344574,0.60987575061425,-0.121382221140095,-0.346521666225378,-0.410897005310644,-0.159969761439239,-0.0930990195370086,-0.479667201379609,-0.201887508810896,1.60659459807628,0.877515313699593,-0.698218530796359,-0.805438671524771,-0.428118698925763,0.344742031371488,1.08137693007146,0.890793351987006,-1.64992751458029,0.633547361530802,2072215
0.936136060895306,0.373977613979649,1.88720993102616,1.76201814849181,1.66918612117747,-0.842981846073953,-0.593865553727852,0.745907724393223,0.316332889875183,-1.06283324760374,-1.32574109879221,1.24211192347048,0.886982309220428,-0.988335811561422,-0.735910531745526,0.575248728380928,0.665151223903227,0.255219936321622,0.652482875270497,2075832
0.813962290016302,0.50300325349029,0.066713499026477,-0.501648119723086,-0.199751116017793,0.263674136634034,-0.324911781232403,-0.180488883932296,-0.24371658972335,-0.13454623424858,-0.265857837312494,-0.883319237726241,0.383013456997516,-0.139008701362911,0.1453302551814,0.759183985126285,-0.0932008171733904,-1.13748281286003,0.629971030806994,2075846
0.212918356939827,-0.810313777677752,-1.03535844335636,1.00128372095932,-0.964971370897198,0.206405441862984,-0.513857241373764,0.495237804804353,0.563789248861051,-0.279137974085637,2.29068755412541,0.758150392664634,-1.40131480261114,-1.51246440625828,-0.388971312225996,0.893108743161243,0.896504223840925,-0.509629511154167,0.0406644451297913,2076301
0.120911074033799,0.744631834241807,0.926314866148833,1.1691431376408,0.757453502751751,-0.21580801684134,-0.497389451801558,-0.0370481833808805,-0.342926053639343,-0.857003598599271,-0.837545276777874,1.14659659915168,0.530120935759628,-0.589168561306469,-0.949714564152972,1.46149885957297,0.439658615959985,0.805991386655473,0.494268822170986,2078198
0.410672937922263,0.215250751205866,-1.26674306584268,-1.0292270778353,-0.996611238739568,2.00465655233528,6.66299896268001,-1.55032709129893,-0.646498971738396,2.85715895991389,2.82935938001332,-0.00926889512535155,-1.05643153672322,-1.08870614746648,-0.752854802010287,-0.312467211877189,-0.100757177476267,-0.615553344709569,0.341492234381619,2078899
-0.926645224163953,-0.816354562520376,-0.374107059874141,0.0584105904204669,-0.637556195861891,-0.13361430434234,-0.254289392822231,-0.426526822537645,-0.0678032296738976,-0.438709613839613,0.926282385514138,-0.211753489724538,0.0480252843584095,-0.807182069354942,-0.121592638483022,-1.35168810148386,-0.146121344278983,0.553660981128749,-0.150197045451952,2085349
0.0697244364477162,-2.09155258539591,-0.364475730226483,-0.563945615905914,-0.479124565058261,1.38049419085505,0.455857572973071,-0.979408010443438,-0.615266628155801,-0.206540341929753,-0.529656080016577,0.437833579889895,-0.352861558520804,1.00401385207719,-0.426704982199898,-0.369495072513078,0.00409704540080731,0.346106878177652,-0.457757294065883,2086044
0.394296221810162,-1.38374772890865,0.245112510788397,-0.575282217751458,1.58003610236648,-0.344527303481873,-0.533795857949697,0.386251872291927,-0.183542660555094,-0.270890722430275,0.400760266891551,-2.82046201942891,2.0643630342896,0.587484525965212,-0.432835254630269,-0.845595799680662,-0.845249065427108,0.00881341205014598,-0.287635837756732,2091555
0.473562011576492,-0.483076294720957,0.769760359453072,0.594882041027526,1.00561549607693,-1.07346924958163,-0.590718151651417,0.635722045096007,0.707286821603498,-0.874047810449458,0.00915140032630557,0.142270877217726,0.485455498924599,-0.236120872912552,-0.337820831889891,-0.945528316117782,-1.06754934797776,0.165351621703707,-0.132867274013085,2092954
-0.709265709196577,-1.06361609347477,-0.863402647585554,-0.712981150669671,-0.533253929584925,0.442063666619524,0.649384476081852,-1.0600846495674,-0.555320955056585,0.141711558237423,-0.427259490628593,1.06714308741803,-1.35798048241324,-0.261705205102089,-0.702616918751872,0.383850016934045,0.72292536195948,1.07705710691886,-0.360640708072653,2096627
-0.910744934662027,-1.68707901071664,-1.17629640332501,-1.03446580489734,-0.913090874487964,1.35600246767036,3.28272872919231,-1.39427584374935,-0.637164588648681,1.20730784165169,1.31359593036765,1.03251161421838,-1.50639501183202,-0.758837150766263,-0.678494088742748,-1.0320455677541,-0.170147818820634,-0.770508315895603,-0.855417760317036,2100050
-0.123669403409448,0.48619267292507,-0.604986950546221,1.06876309910236,-0.33652701753248,-0.278711053834856,-0.644491175664857,1.85402969472154,1.96916284467938,-0.670474200789541,0.510083424133214,0.936912220940394,-0.422465214044326,-0.645496739060507,0.460561955861994,1.04588840393468,0.702847542540175,0.660377186086056,0.163681750888951,2108003
0.39209675134199,0.296040181000776,-0.232557381061083,-0.15735050344005,0.147265609982372,0.210223897210928,-0.380936303326319,-0.286394570515144,-0.362581180734802,-0.737011451908585,-0.7250725358418,0.311464643705638,0.802583262887424,-0.296029167207516,-0.820436011033538,-0.754934081263597,0.239827962869455,0.877369633955823,0.527084843723455,2109902
-2.34930781362651,-1.29565335336177,0.0261970303420479,-0.214242008827447,0.468379130788202,0.954385961518828,-0.486890802397999,0.307827494782292,-0.253436935762804,-0.816145202968784,-0.362099006962508,1.17665197181485,0.283878438084903,3.23477912300117,-0.310631623920544,-1.06443069370292,-1.3565633466005,0.416782904986512,-1.50528293118447,2110540
0.0943887679813663,0.315126571748687,-0.864759202129575,-0.792481896204318,-0.893209810627777,0.265356932037574,2.09544271726918,-1.24856541339791,-0.614504604472639,1.99404782767313,2.07757742444824,-0.0836084878584016,-1.18245436854165,-1.2979723666549,-0.0824469729111109,1.07800787040305,0.175551210225566,-0.669155142718749,0.0966473567122018,2116787
0.699898169077805,0.404467412765146,-0.192208557026439,-0.110216475642547,0.113791052119642,0.367431488230449,-0.430234647327501,0.156448962586093,-0.149095582044457,-0.861763422171559,-0.943138030346947,1.27488601855801,0.560956590220515,-0.751277293909866,-0.911603284442221,0.0226626413624815,-1.37615775171733,0.160143121085322,0.580212310195827,2119177
-1.12074457303848,-0.633043631328969,-0.385477354420224,-0.609164325006207,-0.10578639206712,1.19068892001182,0.072137083979759,-1.00952217976787,-0.504462624394336,-0.953384896536825,-0.13736254145873,-0.453734056111084,1.5506564922276,2.6750114839523,-1.08554185149067,-1.53263920344988,-0.950235778556766,-0.00766993529319559,0.281074555279945,2131601
-1.08829495180846,-0.104519463320329,-0.574338504134339,-0.539081929232497,-0.906448523981733,0.230094568444032,0.336704150279859,-0.9138232937508,-0.564883244826685,0.731478320278028,1.94374862489924,0.458497341222755,-0.926097367121068,-0.785167683048277,0.0279196597993279,1.07277202349444,0.668970493021259,-0.639481412864362,-0.360514479701656,2132424
0.170606193528779,-0.205519342245612,-0.663258029040417,0.513573264965503,-0.394318930780868,-0.994653295806342,-0.402514637084556,0.0118993248587906,-0.128680723760868,0.333683293345132,1.24560211027631,0.583805739505287,-1.43934901830981,-0.906932921740974,0.352846747224365,0.521651761155441,0.0249734138988879,1.15996587123237,0.0367056550227614,2132982
-0.13434101695852,-0.158423414457869,0.0403848870301831,0.0767700146716003,-0.292726074788789,-0.535067576054149,-0.336151833726044,-0.226559718825134,-0.378363680186258,0.249956664834891,-0.0222083824954004,0.204325994269269,-0.630576466725092,-0.187183242084701,0.555572415274694,0.764589995163186,-0.376769889664138,1.02909202647145,-0.0819834015102697,2133204
0.00811575109288379,-0.681825695753548,-0.396780401986504,-0.89549102654556,-0.900303616714989,1.18058116170658,5.11669625675408,-1.48710878423689,-0.633357273188592,3.40184303804053,2.92179573352929,-0.216878802780742,-1.00167932112653,-0.363068119966876,-0.31942979728411,1.69469968206303,0.91763197149809,0.537030217465352,-0.538108571701185,2133380
-0.223499242716198,-0.329024985808522,2.37772222885975,0.423774623116335,-0.881602199763767,0.570820719459398,3.18415164103439,-1.37380694087791,-0.625522066396649,5.24887096476865,1.29262955978258,-0.777904775021682,-0.646471894492639,1.58482859183311,-0.225230886145171,0.65477298080012,-1.27810794088601,0.385441630540281,-0.111708715108415,2134220
0.671630490098865,0.47765012577779,0.912672292487349,-0.11356458376087,-0.0910126000276563,1.10384383859632,0.13577336267236,-0.934080279971192,-0.587515604270091,-0.814863737906922,-0.850802833677121,-0.235402164514075,1.06079421912904,1.13929687400612,-1.0554020772855,2.01409762048296,0.609772241363312,0.664636716327195,0.830410361140269,2135748
-1.80194779524787,-1.24061523683457,-0.56343133668726,-0.803906073586781,-0.906591185636844,1.37376211087032,1.22266803194148,-1.15087161615259,-0.619713884128837,1.4835979048402,2.00325865583893,0.334033864825301,-0.759190772453463,0.860041696223994,-0.43326293803556,-0.147476343487264,0.103042129153747,0.36136764826749,-1.83865876880249,2137799
0.50443279739994,0.208267114517503,0.780188118118305,0.295610629389226,1.25366593636843,0.133739193860773,-0.395447979121142,-0.658028980469052,-0.461132503880754,-0.847320595178292,-1.14034817436949,1.38944886332339,0.239643361427706,-0.420589397450474,-0.721302622022453,0.976351292207183,0.554341104428546,0.376928899087925,0.209157932880098,2138375
0.167934632369834,0.00265626582525192,-0.449692108158638,-0.0286580813185482,-0.380387968969006,0.726893880573073,-0.01514354302653,-0.980653671145675,-0.556636357449562,-0.653272180023286,-0.770461117885143,0.527743503602764,-0.0318122346783961,-0.328548551022887,-0.966035279604548,-0.391288769775571,-0.38924112255418,0.369043866231974,0.20827307619304,2138678
-0.707516298398965,1.26623336740161,-0.551652116631431,-0.303816981792109,-0.467609208054911,1.13830988530483,-0.152528787076835,-0.585423288150195,-0.565103147440194,-0.262498785440304,-1.0031820642987,0.248811433811889,-0.20396025887284,-0.877798575719474,-0.912866433621983,-1.47417591695438,-1.75386415761664,1.22501007740302,-0.429938825660181,2139733
-0.97951137197401,-1.41937707713813,-0.305685565206915,-0.590319667028878,-0.667862515505384,-0.0151215404555258,0.637623758922896,-0.827499772357495,-0.535766870305023,1.41473253243623,1.10567547495837,0.550083446955982,-1.06147040564584,-0.465675037140516,1.44409136344745,0.614912498130128,0.0395200036030996,1.26729843880204,-1.21147738137567,2141116
-0.322642261403109,-1.14025032218641,-0.711512969360581,-0.949773756947207,-0.969571460944343,2.34723691457461,3.1529579561643,-1.36360831097896,-0.628337805687833,-0.239985347510511,0.577477177631564,0.292504687442728,-1.31680505172513,0.514109143999329,-0.254427882505519,-2.2421431286749,-0.904479958601092,-0.61044205705996,-0.136282569207116,2144796
-1.73193734018559,-3.17774372980321,-0.503271584372064,-0.356423379845178,-0.833993589841768,0.430175463787606,0.0552473164546144,-0.505913288874366,-0.310791955382416,-0.0798109039597974,0.421718886477299,0.713788397562066,-0.84104736313481,-1.1198981860456,-0.233055704183358,-0.543460337564375,0.766276801611754,0.253900155015261,-1.39464187687008,2145166
-0.493056408485984,-0.925862273694448,0.372757602471564,-0.587089193243033,-0.592925584145549,0.338283968859542,1.3047486515665,-1.1505762000786,-0.582823681093056,2.17227457848707,0.334552425666089,-1.51892508852415,0.263044819067266,0.144518184714114,0.0684928784807522,-1.4527331200106,-1.12881033540321,0.0275500683135215,-0.32800039976752,2145694
-0.694823167197313,0.923351393020125,-1.18585042234203,-0.919566135955016,-0.759492321603293,0.885887069055351,0.358629367272448,-0.897146135969484,-0.51307635976597,0.488996087903413,0.273633018904017,0.0952317336409773,-1.06301323539345,-0.0517551077672543,-0.392323673865956,-0.708144632398255,0.31578430629246,-0.12202327093828,-0.273926849557706,2146138
0.142353658507247,0.261286473564356,0.694232939281744,-0.800661893524198,0.333053110703575,0.0295769341756065,0.0681152881457622,-0.834855126468701,-0.537660912674197,0.531201402287243,-0.0923970067945271,-0.418307273003932,-0.516431566932844,0.766559158230225,0.552555496759994,0.592912462857213,-0.0986997910146555,1.24324457281946,0.221501473982886,2151024
0.732833698066209,0.436063814357576,-0.547735601782482,-0.635966326537561,-0.0784851109931307,-0.451807736236521,-0.383666723387746,0.1920175056918,-0.0680455627351279,-0.0750103935935472,-0.343917305183583,-0.438654595058042,0.00704264348666057,-0.372992705434475,-0.0347411074342417,-0.103644381954109,0.84051468172083,0.369406597764716,0.166663843733346,215131
-0.462613527322534,-1.26709781987512,-0.277323036693203,-0.389845234953157,-0.559630740406601,1.19043415309437,0.542511301626385,-1.05402588974802,-0.577576912866554,-0.740771694269375,-0.911666686568119,0.550294283118775,0.593464382248069,-0.83391996254142,-0.990134084655158,1.77092468844852,1.5372801343341,0.171338000675542,0.658011761792858,2152442
-1.24760510299471,-0.0632362530866914,0.438269183708173,1.00094583265524,-0.220390173174832,-0.195382218518065,-0.551055017915026,2.08042203018421,1.04019556280335,-0.393154228599533,0.622978095011724,-0.398647179261293,-0.280180793105481,0.288860032535139,7.26360294683958,0.945409165828756,1.52500002885946,-1.11273600462016,-0.483161487614999,2157529
0.85702889943623,-0.821930228779571,-0.628766372327938,-0.539797386638535,-0.610831026004687,0.0556365109803766,-0.349487081187104,-0.0326495119327163,-0.275633431007844,-0.690210004519728,0.28605387806849,-0.289246228778856,0.824092742296274,-0.436776195973195,-0.368837865957535,0.374312299638591,1.09778903225948,-0.647779721111635,0.707068048778042,2158101
0.014617250146124,0.0900326840650846,-0.839578830335501,0.292197779043266,-0.272585317062153,-0.0175627520216093,-0.584579137595008,1.0156199452373,-0.0044914129392308,-0.702320971400886,-0.668198869725533,0.725975415895706,-0.0674355211059621,-0.728792647577067,-1.07302725492372,-2.00968820925369,-2.63686345578586,0.158640801691409,-0.198891002495137,2158329
-0.871806359490325,-4.49497019932622,1.18771489377467,-0.319130173179751,0.657043386247066,-0.697900672036634,-0.470765243617995,0.84234911004654,0.19437587762104,0.254786881814341,0.0544210502387681,-0.44241487943306,-0.205031298727844,1.66367636726063,1.95614475328272,0.492687994320989,1.25106629520799,1.37313797540408,-1.96529056735111,2168082
0.81253087799836,-0.594776343319288,0.960392240458081,2.54593138849697,0.446805152966503,-2.065657754303,-0.684155658514172,2.72817644369092,2.01370336823425,-0.94805218255163,0.00405813153789135,0.506084443658298,0.314940943647724,-0.854358160615119,0.245806820399274,-0.634524445731623,0.414995593760223,0.439192491122079,0.318082113603575,2172217
0.25979891330175,-1.41047479903582,0.61260659405314,0.0545092099389635,0.481515989231392,-0.675037798022388,-0.374104091748575,-0.257360925682776,-0.0531612073436697,-0.842378165374041,-1.99378796473466,1.53698098386808,-1.2888143845405,0.401221476300484,-0.0431976554330437,1.87111035434032,0.584356949161065,1.16334079096245,-0.0237749285827313,2176530
0.0268203343993749,-3.07968146832771,-0.036710827049708,0.27028890328662,-0.287732365723859,-1.61694561185551,-0.58946301745094,0.292370087421636,0.584664571222187,0.744366671976569,0.290635406641493,-2.36119794699696,0.892510486750216,0.63926472027603,0.249652966659365,0.799763937243079,1.66244433980194,-0.454391818621756,-0.0360345970137601,2176784
0.790122289786165,0.257707846168105,-0.0857087919900133,-0.220774003265301,0.900208421161559,0.938398760683651,-0.292233887202094,-0.655502372766019,-0.481859050376264,-0.230614776595934,-0.397985947900494,0.355492752833339,1.91824632281293,0.17985722206632,-0.570940173353085,-0.298266395678243,0.644524427405027,-1.30021467499848,-0.408528648740234,2181724
-0.887288480068628,-0.419854467962044,-0.151252375344848,-0.325713459510217,0.153380207698486,0.221218586253619,-0.388061230194396,-0.116488206800851,-0.535669999408267,-0.4525218279605,-0.404227227285735,0.506579554946864,1.04477498634467,0.862232117485614,-0.846192725310763,-0.698628997910653,-0.365854840690294,1.01547666265059,-0.00318754257274064,2183291
-0.171385179388488,-0.215609580746736,-0.934288081324214,-0.575576963371823,-0.194154108724873,0.609703557398447,-0.210880764963344,-0.589929454977838,-0.411436310735938,-0.14659924114661,-0.172479537932114,-1.66103665707272,1.46700539783653,-0.40076166187642,-0.983127342565333,-1.46357959428963,-0.270742216557821,1.33522622561668,0.131404611252535,2183356
0.200175608444789,-0.693415543729639,0.774907211490575,1.35380197195835,0.44172490317912,-0.668465875303132,-0.589662585784465,0.800412847567059,0.232701372290664,-0.739626012880914,-0.273753345163824,0.356221277868867,1.11656370553091,-1.05599956359832,-0.29707611510403,0.594777211961644,0.843883616902731,1.82485295963857,-0.475437233909344,2185290
-0.155276046359076,0.548305062117751,0.0599644514862239,0.108072753621662,0.770104656784932,0.88111965935884,-0.177238085124026,-0.674739202834659,-0.577179555424847,-0.81541245887271,-0.778701430717597,0.0355293385931375,0.485618764030712,1.99190398653429,-0.785475081595388,0.700701207541361,0.531421742049124,-0.247692554092477,-0.0457193744217842,2186951
0.62014531540346,0.178518888764602,-0.555438925955042,-0.523856867762715,-0.497541636045592,-0.000102622065737885,-0.342483351934541,-0.0610932431109279,-0.097336718985788,-0.0578165225806212,-0.525285921195335,0.140241462286693,-0.328770640671091,-0.352311448589972,-0.224852706425923,-0.127209014057478,-1.2071542495553,-0.573053342690322,0.320299287681527,2196212
0.0695430628515519,1.21979778588963,0.305932944234967,0.410021329804018,0.882828354844265,0.475107575279811,-0.346924325980659,-0.754371799801343,-0.505901708367227,-1.02841031141957,-1.93093887930431,1.73457289403468,0.0391256554565928,-0.454007701366793,-0.973383557657434,-1.31227964952173,-0.684435424573519,-0.0523916016552358,0.269221669306948,2199403
-1.58875726758877,0.199783759324968,-0.77840859182177,-1.0319972171328,-0.794111078002671,1.29629013062139,2.75769854577339,-1.32850459877693,-0.629333374709965,3.58918384572106,1.6575889032831,-1.84543084403232,0.16187424271457,-1.6383062944934,-0.118972238964126,-2.39389663691186,-0.480256328340481,-0.444354792273866,-1.11616028355503,2200416
0.178747880930279,-0.224717836820876,-0.394266881724061,-0.799409847007976,0.219817210318664,0.0881200871751055,-0.448517837775335,0.568395037150325,0.254817569850773,-0.256246501533573,0.0418088136386082,0.518733369730766,-0.729922282361023,-0.0395457936338635,0.472267135099934,-0.696969473467385,0.0074058939244319,0.263268739664617,-0.385680055499617,2200813
0.0311145166603684,0.777729458941421,0.274432126519186,-0.416098139466158,-0.429740472797594,0.610327915314126,0.338439541066662,-0.937814323831503,-0.542706829528557,-0.549542572199051,-0.155380296724508,-0.196610872827298,0.287981523124389,-0.762738569093655,-0.176426405314476,0.0967393869274883,-0.0893525795629725,0.847584878424093,0.390265031736258,2205389
-0.344905340898192,0.733083897091659,-0.278612700336875,-0.820035176423113,-0.454067977668651,0.678654548558917,-0.00284169002544145,-0.587491407243431,-0.360363269612063,-0.0580743053791105,-0.0587604813771831,0.151031440697087,-0.764675873283039,1.67943550803484,0.256951682822932,-0.327974359353684,0.00955740485531746,0.165743310626857,-0.217985035584457,2212664
0.202651061758183,0.351917451697972,0.0076411091714853,-0.81385960365764,0.586355441613242,0.155983511987559,-0.1983269777113,-0.391022837277757,-0.45015838024348,0.662836270479498,0.261689833156475,-0.848619801534626,-0.156941358145844,1.1928843805825,2.84838751204468,-0.819013213000494,0.753876603021779,-1.47962744728158,0.140724542538407,2217034
1.33376535544667,0.772344811847291,-0.278352605634337,0.184660068198044,-0.517641872738676,-0.32039928821581,-0.462358476089694,0.342315707728277,-0.417483522264121,-0.708653955285104,-0.741710858598443,0.964701204824224,0.378335763459716,-0.550056801621003,-0.83004066595124,0.59600648082854,1.15168689707525,-0.550852850542777,1.18100400018036,2218615
-4.38333451439326,-2.12571431331881,4.92813591556189,0.436680085337901,1.48534282694992,-0.231167009696188,-0.604893215446602,1.43184370291101,0.70040476823006,-0.358084213270559,0.920926517217326,-1.72074327110858,1.26638755595844,0.506717096546501,0.0474815127554309,-0.407642704940069,-0.162289294532762,1.45164168237898,-2.1525019192579,2219842
0.21292658931411,0.531007197331967,0.512701079988252,0.337941019683983,1.54207787093338,-0.382938617700869,-0.592047336481585,0.641030324959832,-0.326256632658879,-0.959736604717732,-1.27567461426785,1.73730874781517,1.25569636402957,-0.19871192876653,-1.05982829092831,0.798378778614085,-0.751099515997896,0.159430642835633,0.376812274549455,2224150
-0.157692757137539,0.712849625080253,2.31907549917815,1.19400051597169,1.06538188226859,-0.400088440864382,-0.691310561767202,2.22774548772932,4.91296301079731,-0.310282897344622,-1.09722187350161,0.18257008181618,-0.686818571830674,1.49283908850859,5.52852877795046,0.93878230183111,1.14788882008765,-0.680906384037781,0.426371378201836,2228399
0.0497880811298403,1.04088971561793,0.159480510758301,-0.342211723443744,0.528243910216165,0.191753554984755,-0.148607657445969,-0.562139267935938,-0.494684172466776,-0.57784901824574,-1.22667145042473,1.00034186786487,-0.870568360471471,-0.329088205856166,1.35958787674403,1.32053877146635,1.40549303179218,-0.586601143086785,0.462343947755958,2228400
0.391198790041276,0.75069950568609,-1.30208305165598,-1.01657143880841,-0.991415455975474,2.09537733459051,4.57327295880572,-1.4882766627478,-0.64216605008668,1.1835439590211,2.26202994700768,0.416451536585965,-1.39788400087682,1.05906702955708,-0.428318599639502,0.397288091869932,0.650972906216635,-0.434002221039817,0.624481983803719,2234271
1.19433236452492,0.399295765123569,-1.2503002912774,-0.927731967286983,-0.927564833271793,2.01527607773818,1.69515718881149,-1.22625286617914,-0.613837315299792,0.509463684882003,0.894817984558336,-0.267442906423738,-0.482779761696706,-1.03432410909403,-0.620227496976441,-1.24035367508968,-0.798891411349611,-0.640013481844252,1.261602282834,2234422
0.702802094241421,-0.310885840783263,1.31304596840641,1.64326778321534,0.677293813062862,-2.60760250888411,-0.664515114289071,0.773394430174559,-0.0611030124783654,-0.459064811285687,0.440136594898807,-1.02086313618878,1.25428744167403,0.331488931900132,-0.296199600055266,0.135155869662634,-0.254481904310293,-1.09231586152106,0.26887988816953,2237571
-0.233355757589854,0.441243988082891,-1.0507380316762,-0.279243177303156,-0.304560109147844,0.00423483947800848,-0.464691428700407,0.155007211808779,0.0615507403487156,-0.784256597221886,-1.27304449599356,1.20606363373726,-0.350475044851994,-0.259158096389757,-1.01736048340561,-0.417084805223878,-1.08198434930286,0.808632361658531,0.24548947746935,2244172
-0.494940208138256,0.185396559969788,-1.14150377406235,-1.08000549972041,0.122576350355306,0.897887734438436,0.4152732789246,-0.997599383739611,-0.586805069101539,0.576834380527828,2.07175539699532,-1.49664744376048,-0.395257890746684,2.4838974513131,-0.309262692778921,1.07698051802676,1.19796011319553,1.07055485944888,0.22713016898464,2247869
0.054484395992696,-0.84483988119977,-0.212788329407838,0.475541197051924,-0.0565992231349071,-0.275848706574652,-0.622787103681949,1.26389206819153,1.61701945584262,-0.363602429733784,-0.826555072638275,0.562698120322059,-0.193994023522642,-0.518805623997366,-0.108229682011192,0.00511366324624502,0.753928282790796,-1.01028314942549,0.0554868430464197,2250648
0.883119327159439,0.141961505758185,-0.983755473396972,-0.728865503243921,-0.608601209529666,0.61954637142468,-0.110357394548963,-0.391483824703002,-0.423223016118786,1.01166231216501,1.44096452122626,-2.03121323389536,0.785413924329819,-0.586940716759554,-0.219405441163164,0.650178251652974,0.52827338324136,-1.33050268605638,0.485119991135503,2250836
-0.334991148665084,-0.493611394179444,-0.651102148283594,-0.598594340307948,-0.419796706189681,0.657111691211179,0.88555057189866,-1.14781352164153,-0.594555342889276,0.455466404400454,0.71218814972584,-0.444093786013308,-0.177079174917306,0.631556625923783,-0.124138649215861,0.287502806860767,0.653821962674855,1.94394812850483,-0.799813533847618,2267382
-0.304100591660098,-0.0746164160980256,-0.687542796594527,-0.614003246889966,-0.507295377714937,1.48662398659937,1.76799679925964,-1.36883905322863,-0.626901607918198,-0.273768107448214,0.0439312712964843,-1.28891485214182,0.558708425195503,0.692222533690639,-1.13877789616097,0.713355439203871,0.457036873594675,0.296690892454301,0.235791280433844,2269346
0.356990258575899,0.900151592082762,-1.18759969915384,-0.993170103973407,-0.898255529554142,1.04742396176145,2.10156845492428,-1.25014495286647,-0.635376443881318,0.233654276241956,0.618598200939463,0.522107826895185,-1.05587412867855,-0.979951299555175,-0.523382252144255,-1.15816819171594,-1.0197467097641,-2.16403502525824,0.0890111693118939,2271329
-0.206461758562085,-0.150675810138447,2.46179111089638,-0.0790409862663973,2.39108032603073,-0.718239983447982,-0.622526281071513,1.028506343223,-0.121782820086827,-0.210139674782662,0.472280987143358,-2.14817434583446,1.62610719011136,1.76908512598944,0.355100153147556,0.549404935136304,-0.29564728668704,0.821340623186343,0.114283682766348,2274521
0.703421407837101,0.644125094405331,1.20768677034386,1.87054176023005,0.227333561628821,-1.41767957500072,-0.545122568578238,0.246895808984856,-0.336822511142681,-0.867235365574075,-0.734789934112841,0.588374322545748,0.706396633015849,0.0297508688334911,0.195019386735616,1.18364654837574,0.609965181687357,-0.9291442139418,0.694285434238595,2276121
-0.437872918823899,3.17617595174179,-0.375058643426386,-0.528810398110456,0.470866253422941,0.589971919881894,-0.570783400289576,0.730331583423227,0.117785901452271,-0.879972542641745,-2.14333585840907,2.88969985876601,-3.1794429385605,0.115094908412203,-1.05339771507221,-2.68510695009715,-0.411414243780642,0.271452939417653,1.25494866378335,2278618
0.769692114030524,0.0850700236013598,-0.736623870177988,-0.71274690209444,-0.496506205930236,0.743335144662373,0.177125143888179,-0.727161419437978,-0.572564167055291,-0.520590998360251,-0.196689946574602,-0.183032526587908,0.259579496569111,-0.172101478377101,-0.664140181320346,0.0627469826023023,0.43350941230006,-0.222407108991594,0.268773789239755,2285214
0.356638273165571,-0.367106706113328,-0.641225094126735,-0.538867339692898,0.141981539429512,-0.322106940494023,-0.441707568844282,0.31095546797962,-0.182744654505409,0.087973915078631,0.0541501981332932,-0.61063977875111,-0.0426200848312173,-0.180107285474206,-0.197720544183134,0.407260216489955,-2.22698463218435,0.425679850228063,-0.222853424816715,2286108
-1.6555238524798,0.320592892619387,-0.634666727287195,-0.23338575051174,1.51696029345166,-0.146006656910076,-0.569397444965722,0.513120980196326,-0.467557530128898,-0.869433814740137,-1.18491933610712,2.13196502375219,0.091016229690451,-0.0100426578533025,-0.996014990750622,-0.573307878100435,-1.4265319541212,0.836782442418883,-1.1132264174969,2293123
0.576560947985209,0.381592464340518,0.773680555458375,2.75260171982879,0.0346921297885981,-1.36019957200517,-0.658670744681276,2.07176227194557,0.992270003634518,-0.271267464531434,-0.63922217110841,0.256359030339879,-0.820184127119179,0.905349789935877,0.147145131925776,-0.0842581847308578,0.440261437854265,-0.378298568952486,0.164557800945475,2294852
-1.88820562627747,0.793946986055467,-0.326339496685062,1.03807731358162,-0.664307591088471,-0.120555677535049,-0.59986863183835,1.63903712243956,0.177077647780413,-0.619993067950524,1.36240284085078,1.82716516361119,0.0619726537801726,0.373234928919081,3.03215736989693,-1.36244586984862,0.12093435656221,1.10788649853309,-0.114981426760456,2294873
0.269025345830174,-0.395869264252155,3.73320343324274,2.94426552306218,2.6465915613713,-2.15485739856781,-0.674185859641602,1.74387430529344,0.0726126811459221,-0.963715505163069,-1.83020323960963,2.59586510819873,-0.454754984967417,-0.000904552944614533,-0.605321574240972,1.05151022927119,-2.22135663395886,1.40424256699335,0.428240061328629,2296332
0.547430782096397,0.948882718063324,0.133422530774183,-0.61326647516796,-0.0269905568093685,0.247900026181639,-0.117513288302939,-0.48693527615962,-0.332593144445167,0.864079971843621,-0.492323985790827,-0.134334696723826,-0.918664656074508,0.509521023780785,0.410681404742939,0.0246746007087301,-0.079036318844331,-1.36841524654867,0.127343496485959,2305114
0.890009432832576,0.340333785677736,-0.573027125887799,-0.532632353879588,-0.505964506511755,0.203776096837808,-0.144295851684097,-0.52001812881395,-0.479941787446661,-0.507007583341356,-0.598886041034443,0.258161609819171,-0.105275313122545,0.258251850246988,-0.340175479361848,0.802971843864825,1.05091411216456,-0.679148492765009,0.622126839180723,2305115
0.243607875975934,1.12735022312829,-0.785805984276258,-0.685379726922816,-0.363175052037588,-0.0415037232210823,-0.191088064171842,-0.0856125130864364,-0.0827478591351893,0.289034082839277,-0.253278746730365,-0.843167899020405,-0.80822428482612,-0.760551871423499,0.395657736244599,0.327230890570275,0.780059167883707,-1.04681368697261,1.18006965861697,2306459
-0.295277338204758,0.515712351660956,-0.982627791866786,-0.660235690905241,-0.820589295742494,-0.0714744538524661,-0.367811510446197,0.102243513416884,-0.244873016411452,-0.151807244193923,-0.119289626978492,0.770187910648619,-1.53270635208255,4.8709204701457,-0.0709973595911359,-0.634492278226385,-0.480856192651335,0.656277134724238,-0.168282929026727,2306893
0.905102443321172,0.614608599322196,-0.120861914868733,-0.298201422646917,-0.412988899099855,0.0616364668755886,-0.0158229292321032,-0.788527453806102,-0.543362951051892,0.660146350638017,0.259581863600964,-0.371401069207288,-0.558611034063839,0.0184646026974774,-0.217780387589626,-0.0890738527163246,0.446623010153074,-0.485874032541412,0.35653983042192,2317120
0.597067990514282,0.247032491541844,0.132954007773144,0.577360249658433,0.0601037896782614,-1.05189290155566,-0.630336188061421,1.81646388386123,0.0462945648763183,-0.0177081800405667,-0.0329152567999596,-0.143000989144392,0.0390518327680421,-0.388027859496733,0.433054583206205,-1.61367010193134,-1.09832459520783,-0.267881822032153,0.39064036194238,2319068
0.437322115895451,0.556146987601383,-1.0650139983016,-0.89054003677284,-0.505973896113794,0.458583733670451,0.242167922058684,-0.855844793595105,-0.575028750785289,0.00919163144192155,0.117923871919247,0.155886090418504,-1.16078155202308,-0.603424322448235,-0.348068413853163,-0.198259213832942,0.285839916130023,1.05829193193843,0.315043826069102,2321962
0.822463991368211,-0.602186447738332,-0.46521131943116,-0.3589038050072,-0.164034726773089,-0.033122725990158,-0.11965585464546,-0.491381923723926,-0.374877173027457,0.739131859448126,0.82062961537858,-0.602056491146828,-0.115676652353216,0.364282328584437,0.0388687255243513,-0.227412851533743,0.718292664013482,1.54862650246547,0.114864081654921,2331869
1.18420184805319,0.00709805017072151,2.64952114418206,0.939289733619561,0.651246672012059,-0.334953362573716,-0.541866530038944,0.562240410307888,0.11731046897468,-0.396213414482957,0.947621196466406,-1.6322202722822,1.68078005420868,-1.08466024424539,0.454761724298265,-0.100077158902714,1.22048304672132,-1.94858314014655,0.587950402892322,2336735
0.693997237509588,0.319534687876022,-0.624842405299795,-0.168873777414106,-0.500096757010644,-0.0625872535452374,-0.38107878821445,-0.150248571988854,-0.28967424990457,-0.52895890505542,-0.448466061560346,0.518548478296203,-0.131722934284172,-0.0919906741774024,-0.672392853956622,-0.40199154776579,-1.04565316707185,0.535014813233366,0.478986382649759,2339674
0.0600138522843824,0.216895008362655,1.21205869279836,0.0459876431697693,2.06496189225475,-0.419059770799807,-0.572190895069233,1.0766976731527,0.668339504439913,-0.743868354595397,-0.691557434062134,0.555501059576051,0.78894224984784,-0.54198928343098,-0.0211723802237308,1.02923837883991,0.5362194506874,0.620975724088719,0.241055548676805,2340155
0.850656303290501,0.753340083973029,-0.673372751811661,-0.306445772779733,0.366805876126594,0.971855132767914,-0.162403713869365,-0.772539339400165,-0.536130515468113,-0.895749815564747,-0.472586340032764,-0.583107561145841,1.70783998272293,-0.174922955316542,-1.13933826927336,-0.446289312440536,-0.953100820757883,0.116408023880571,1.53754672782833,2340322
0.0180459415098478,-0.536646027737155,-0.8765045014331,-0.985843028282636,-0.527026722098327,0.658475505761252,1.41879345286651,-1.17565754851265,-0.60064401338676,3.76141364001291,1.55369691804672,-0.598712431070646,-0.698427684853837,-0.155183504591893,0.204464239852077,-0.320626953867911,0.547292512454508,0.543694268358647,-0.146975496129685,2350037
0.334770679996252,0.302938371502118,-0.490451418798093,-0.544272224625462,-0.460143830072016,-0.224515487980816,-0.206740979422256,-0.0490820821162653,-0.234396051211803,-0.127217949053739,-0.602322940942122,0.318493581144382,-0.942391860080484,-0.00664150905197282,0.451041195585619,-1.23957667486284,-0.639631621344843,-0.153254326055114,-0.0481734887974557,2352038
0.614782267450676,2.4444350855214,1.26391935545976,5.17017781564143,-0.505326289587505,0.124722784926868,-0.600110101578999,1.78130768336202,0.603776925910809,-0.0410942455545935,-0.368481527706116,1.14808613711887,-0.76448392409443,-0.569874275360318,0.0914289906294739,-0.866130722444108,0.979288889617039,-1.79399721904858,0.500227556136112,2359944
0.348411298101401,-0.0943936158812421,0.176881947195675,1.29200183895498,-0.216732076503642,-0.577690854644969,-0.556624111117265,0.768110356132272,1.50298238323719,0.114599946669478,-0.252191700469727,0.289772348880477,-1.4853757795184,-0.138304320215786,0.434323064742077,0.921753575191422,0.0966623187546752,-0.0206882709144589,0.104679423123213,2381907
1.22379701048692,0.675052296550651,-0.332804161416838,0.280287310500665,0.489690906454196,-0.330494400432925,-0.534442664352438,0.271030380821149,-0.444777766062926,-0.831750605434084,-1.04301996406909,0.337405050526666,0.875664603843788,0.0124860326145899,-0.791662908231041,-0.315626994903982,-0.187534078982892,0.0808125617373339,1.22244422920646,2393207
0.12019705018076,0.0840546891409312,-0.362530196059257,-0.358148336233237,-0.323717078236242,0.251983545295257,-0.342884005238576,-0.428750973092577,-0.470116109682059,-0.267693055446005,-0.300262907910869,0.461270687099267,-0.6287458902452,0.420265999038073,0.090451741638745,1.2948323093773,-0.254123011948792,0.682610216454897,-0.179068115888231,2395415
0.277373842560525,0.521677993576318,-0.394738535521236,0.618990108397418,-0.160044966625725,-0.559622968657728,-0.623923653046889,1.64553061154311,1.79842009827366,-0.221911248482891,-0.927771506774967,0.034353472552101,-0.942116011989906,0.554107900222193,0.542716624740143,-0.191962690336822,0.324034634419258,-0.112310376874777,0.522331779414866,2395943
0.770425798103651,0.263411490906725,-0.387145517186687,-0.23497184633773,-0.279853997914842,-0.312563047089781,-0.40234283299072,0.0544119262419356,0.000379374153369857,0.248797648899661,-0.600459243951847,-0.116059490384622,-0.599203564254742,-0.431222516214645,0.103068598454249,-0.493768673179932,-0.498761093663463,-0.568417772845807,0.343734989624457,2401405
0.775881343663304,0.399799261986737,-0.804582747234197,-0.493747809316367,-0.452325676870598,-0.0451761402975209,-0.270267783237604,-0.206685580450222,-0.38085887660295,-0.458616030841281,0.0795138020456564,-0.420592309046658,0.281541644736166,-0.15734553314997,-0.243272953866688,-0.610571630414412,-1.0709332538312,-0.0588901370192516,0.619318782130228,2405144
0.21854075373366,0.128280477653126,0.132036904202391,-0.165919565181182,-0.436951141082713,0.410860372746626,0.0343570727071929,-0.902957003934692,-0.573410810692876,-0.32406333823701,-0.208735563304669,0.0165706108374371,0.750236961024362,0.453331347778666,-0.837004288053488,-0.472570163251261,-0.043687323184922,0.774282684374893,0.708688888159787,2414406
0.473551100615775,1.23615059643976,-0.846359910351549,-0.846482008384691,-0.0306304136458492,0.005073498397796,-0.247385521414544,-0.460716127547443,-0.359745229734122,-0.309133336489021,-0.985077638499267,0.629405159725708,-0.831649222095146,-0.328504842843451,-0.0620307340360849,-0.193633598537647,1.10656246716797,0.301182015699211,0.0256747212330036,2419459
0.232889496698246,-0.304736462853649,-0.884482853723578,-0.960136802270486,-0.581634672998995,0.684903135783718,0.86891897986184,-0.934058151584299,-0.590470757727683,3.30573964856771,3.01488591334969,-1.58204953605178,-0.104061578954248,-0.580249198884441,0.0941007832805215,0.805861587554845,0.0490230067787362,1.17158472989348,-0.134172752149016,2425694
0.742597759843924,0.0690651034347314,-0.0196535038113434,0.0192913786557256,0.0425269047490761,-0.455454741833836,-0.477615707527055,0.347535758831424,-0.120151321149212,-0.107775344637288,-0.467689851232212,0.134405752725262,-0.762656567805626,-0.061983594219083,-0.0495644425627968,-0.305473517949968,-0.317337405714035,-0.117277474509047,0.274457001478152,2426863
0.811897963666304,0.231047654554556,-0.622676626840936,-0.776356551495225,-0.718409418262561,0.438698050436025,0.499027784155786,-1.00092889023475,-0.501002703013918,0.680975163838007,0.784215851241479,-1.34853663130527,-0.142824468785797,-0.881281475857827,0.519016821715551,-0.806290978847373,-0.391502930105295,-1.09803034600603,0.364463281723003,2430773
-0.160593957577621,-0.055808420519108,-0.619855747796982,-0.490181461944919,-0.759076569874318,-0.498566888350985,-0.201710277509076,-0.325684384478696,-0.216946170431173,0.0927044612364741,0.205706891183276,-0.215140126167675,-1.11946317334652,0.541869112105945,0.524860871339565,0.257916986227222,1.33406672100001,0.437577219109724,0.188247637083835,2439458
0.060027081354879,-0.337513018353899,-0.839507289407038,-0.697857488087299,-0.480030113964602,0.150559554192015,-0.243406961541243,-0.337657694808422,-0.486300523284747,0.182738695377975,-0.460374282466079,0.552707604526163,-0.516061597913644,0.554406595426672,0.0288909876177882,-0.493013443093954,-1.91002038450637,0.586336626923682,-0.313420813235634,2443354
0.433493350814049,0.0348933884367593,-0.255671878931141,-0.109821667022907,0.123626093825136,0.0557709224879128,-0.492824784096695,0.3671903467001,-0.312103661497168,-0.211978788010777,-0.199908734619847,0.320033109996907,-0.579914246706291,0.0396128680048699,0.502198105176985,-0.0292097166592532,0.136483855434604,0.935072033455281,0.039621069093108,2445526
0.964187386190677,1.06726514475699,-0.354085557466898,-0.302351058791611,0.586807921607872,-0.119801734467898,-0.454297054434132,0.024239282883267,0.45829188097217,-0.808214556772274,-0.95569049638683,0.791073071840712,0.412432023223651,-0.8103942689504,-0.771554837839786,0.705607110000562,-0.221639636804929,-0.892521324454853,0.668869917878792,2448298
-0.602831843747692,0.805044610788063,-0.461423355173784,-0.72080247560404,-0.616739416940692,0.522794591823294,0.285479438744015,-0.757251880196052,-0.573732235705839,1.73360845619211,1.17238355587159,-0.933859336334056,0.293580099624212,0.152994828581829,0.193737168886596,-1.07938515100957,-1.80472481596983,0.776696917600189,-0.0748089331679956,2453577
-0.164177592615089,-0.992417319466229,-0.628024859162102,-0.525836040840493,-0.504793239675921,-0.429075153547112,-0.0886641120702152,-0.534595132193195,-0.397466134348455,-0.153124681152474,-0.587244501393937,0.809282508942836,-1.18079224746663,-0.533135831056916,0.49241728526472,-0.673214662020841,-0.505280381616423,0.242672974276572,-0.672192876498959,2474709
0.441488268383569,1.80734578561142,-1.04885381467802,-0.549670479921393,-0.47259653948908,-0.506179993602998,-0.452754950622167,0.364801139414438,-0.0394418477750964,-0.473306441331227,-0.551580113866345,0.33599516945722,-0.896570915946665,-0.663814578920096,-0.323568626105511,1.21330940311375,-0.0968109581590088,-0.928237921616595,0.340953771828925,2480056
0.100068766553077,-0.0439054624755317,0.131952859406435,-0.481960585174873,-0.354251280387645,0.669756599686638,0.987193043740123,-1.22028011518331,-0.610344452057626,2.23327966530903,0.541566418403458,-0.396492536324907,-0.897878229059167,1.4655710828225,0.365909655072086,0.577231526598128,-2.60011221054484,0.715017576221542,-0.0051937768812185,2480330
0.860935445606185,0.133112221300382,0.773531654464229,0.0610839950486992,-0.0156721282108633,0.00547581188755576,-0.324763832907133,-0.310611358078126,-0.208078494301471,-0.575464631199333,-0.914258142873607,1.39696582136032,-0.660887214550955,0.456164844670505,0.42042678205458,0.339406942868972,-0.481514413708625,0.63127589322022,0.350208701794184,2487135
-0.434031182508381,0.389513948434166,-0.640959500498782,-0.514018720864284,0.823262690243173,-0.633185873667754,-0.549275859354588,1.11188335005241,0.61921147312898,-0.0956027977616233,-0.058894357609948,-0.0537568371478013,0.430085558462416,-0.248329609996956,1.28621648641115,1.25975340006199,0.466057872122139,0.640854393253414,-0.181751622021164,2488660
0.875108046886996,-0.0833179932419744,-0.243135716785756,-0.48602867565959,-0.675038107458434,0.712874916956854,0.48130863159166,-0.848381655258786,-0.505531385656898,0.346537562112686,0.0263600902168176,-0.208720644898771,-0.181379869086372,-0.952311085844277,0.23015581533614,1.37162472631182,-1.00490783003102,0.0267712218775231,0.481619984542995,2490180
0.489743672818672,0.350802246486858,-0.385519316862683,-0.233130245798381,-0.340355304404764,-0.422656463064907,-0.541698827812112,1.30030944569216,0.104916093819905,0.170794528591189,0.0172943958073704,-0.373801905387187,0.0256078760023698,-0.227507639363381,0.253216445070507,-2.05921764316387,-1.5443649474806,0.260423935362942,0.381972540679435,2493534
0.18891020680445,-0.0837323151193516,0.0254474246290756,-0.659991465570974,-0.317506775610198,0.414062133137092,-0.107141433346874,-0.653109863191632,-0.507993612659871,-1.10707003018212,-1.3202047943189,1.22634995308073,0.194716676580393,-0.832158059424424,-0.124855557757487,-1.25123197239437,-3.66706392350761,0.934273376622949,0.932049780958108,2498991
0.219921547032401,0.33835213628691,-1.11551586341078,-0.522834656692277,-0.141141128202659,0.0760381395886457,-0.464028704516535,-0.0942942425082406,-0.231324382901938,-0.317968603627088,0.18195529871814,-0.0330850482639976,-0.638505816703425,-0.342262792747429,-0.154248276906764,-1.35966155567184,-1.50778876299653,0.615266015361296,0.283042208159414,2500377
1.48397823761953,1.3502852453532,0.0256732293280494,-0.169720507157846,-0.70267726243491,-0.186408649602464,-0.215721854497437,-0.0289556572584739,-0.0486829667246599,-0.378157597119063,-0.779541952089576,-0.22199347390368,-0.640863113286837,0.878358597892206,0.689723164148359,0.381846871349885,1.17621527723018,-0.327772472328982,1.33322451215597,2504802
0.117006887419061,0.287611013322532,0.125787596605534,-0.576216356592719,-0.409154854792134,0.167210209730777,0.0618891271610837,-0.706120732301334,-0.496607534128992,1.95960272313334,0.72341099349583,-1.62201017723188,0.67944342025715,1.68133648374195,0.0950532912027596,-3.29998836288584,-1.55040950594314,0.597639622558187,-0.136224277700244,2510402
0.26138047677042,0.0038194002743578,-0.262930322439557,-0.496283858622968,-0.107637635614653,0.140282019805087,-0.289036908756341,-0.48211209703022,-0.467202350492098,-0.564648250147643,-0.434418237629361,-1.02253950848202,1.45944361115096,0.451683616840112,-0.645542651230418,-0.328757323158754,-0.849672886781736,0.410724447154925,0.124325338392707,2520618
1.46976577437319,1.42615055650793,-0.396816711336607,0.190941894995289,0.338916743496007,0.155959253166694,-0.498814751385837,0.11564521539262,-0.424679353165147,-1.02368819867554,-1.33080764706093,0.62527991394017,1.00831861539649,-0.490837532425622,-0.905995010600434,-0.0282510620777345,-0.517338350083794,0.394088827057844,1.45185485781877,2559453
-0.396888767662339,-0.621139648410877,1.5511193174127,0.578730906684552,0.21818918010374,-1.11536403208483,-0.550129294663706,1.43100338308064,0.291188142808669,-1.00073091454499,-0.102655737395085,-0.345678059097007,1.73401065141614,-0.198037380263577,1.31053395675521,1.6886100985038,1.5381102950631,-2.52390179823559,0.744689555058949,277752
0.693313977452682,0.311041400123021,2.64214219958583,3.89190074602981,0.878421016150305,-3.64018017451138,-0.696516559399776,1.05416283420851,1.11525624114336,-0.929989740268866,0.236999676705298,-1.56874160496287,2.09301869030173,-0.366020611496503,0.351533445923835,0.339699822312071,1.18982869674812,-1.86095570947251,0.389089975604912,308862
0.353883873733585,0.131187305255755,0.227089280666437,-0.000770589567968836,-0.00114103194579484,-0.238955473408042,-0.512172934036221,0.701633508991782,-0.249311636205135,-0.171283901744717,0.169880308448539,-1.74966656917042,1.71214735982648,-0.418051855698633,-0.147599669610697,-1.75689911835342,-1.52028450797122,0.720717528783546,0.124563956143862,58325
-0.677790693855055,-0.714683390787269,-1.0276945955483,-0.826281015492203,-0.577182217341389,0.71180171518268,0.247921814846716,-0.846776696188617,-0.539224935853029,0.882468894280228,1.11819463967755,-0.227735872205668,-0.866018684432987,-0.832389314711985,-0.344017718153501,0.861361670032316,-2.65887032986506,0.610974315231428,-0.862326352289833,92173
1.21392502001621,0.0124940363020466,2.2789132650706,1.63581566188893,0.871579409807224,-2.02359726945705,-0.666106310496037,1.29912906009462,0.433571195553983,-0.463197985907019,0.739789480451809,-1.64726722764887,1.55409992877373,0.429445096346067,-0.412254973308218,-0.314006893417326,-0.210098612982391,0.334348188688017,0.759639439436651,923666
0.0651109654645357,0.570409381226969,-1.03771700774565,-0.635313183255008,-0.797867055097304,0.832762327333977,0.308670162970515,-0.899941684322513,-0.589870136151036,0.443714732590423,1.39463267658392,0.533354636828406,-1.25830020931269,0.116216140452996,-0.230261890494062,-0.663874938532155,0.310692098662394,-1.32394579864593,-0.0203395039474782,965005
0.4776509142834,1.2627394175365,1.02711513927779,-0.379626207137784,-0.320954776037619,0.0214800698392116,-0.00346468439640131,-0.531516750995614,-0.361443366325272,-0.359577915930573,-0.394123884778636,-2.8346474773223,2.87312130207426,-0.501418683438671,0.894284197386875,1.00723802354498,0.952087123001404,-2.27391086448525,0.54662633751661,983079
