pgsalome/predictR/output_NEW/signficant_features_results/os/pcaElbow15_letd_ctv.csv
"letd_ctv_wavelet.LHL_firstorder_90Percentile_473","letd_ctv_wavelet.HLH_firstorder_Mean_473","letd_ctv_wavelet.HLH_firstorder_Skewness_473","letd_ctv_wavelet.HHL_firstorder_Median_473","letd_ctv_wavelet.HHL_glcm_JointEnergy_473","letd_ctv_lbp.3D.m2_glcm_JointAverage_473","letd_ctv_lbp.3D.m2_glcm_ClusterShade_473","letd_ctv_wavelet.LLH_glcm_Correlation_472","letd_ctv_wavelet.LLH_glcm_Imc2_472","letd_ctv_wavelet.HLH_firstorder_Median_472","letd_ctv_wavelet.HHH_firstorder_Skewness_472","letd_ctv_logarithm_firstorder_Skewness_472","letd_ctv_wavelet.HHH_glcm_JointEnergy_471","letd_ctv_lbp.3D.m2_firstorder_RootMeanSquared_471","letd_ctv_wavelet.HHH_glszm_LargeAreaLowGrayLevelEmphasis_470","letd_ctv_lbp.3D.k_firstorder_10Percentile_470","letd_ctv_wavelet.LLH_firstorder_Skewness_468","letd_ctv_wavelet.HLL_glszm_LargeAreaEmphasis_468","letd_ctv_wavelet.HHH_firstorder_Mean_468","sub"
-0.972240881831634,0.464117169755576,-0.0557959889956425,0.25357162296966,0.0745463867879449,0.390121693410867,-1.31307176472584,-1.40101949744206,0.133267022071821,0.201314482087542,0.032764259649211,0.728912787237915,-0.0826955013255036,0.371289618589012,-0.0825590669685932,1.0921581675768,0.150897922868373,-0.248122767560387,0.0531946457755567,1916742
3.83087610704674,-0.305873385306372,0.0576740666219712,-0.696333748785547,0.698196613501188,-2.89323543028955,0.556084560694247,1.01447209741021,1.4549082745993,-1.65177337370564,1.71710946083746,-0.181829351547459,-0.620990181821828,0.993832240962539,-0.362729324572212,0.405080460594356,-0.0967650036531425,-0.392206807081416,2.10160727530371,1980052
0.0243581572220475,-0.122362957032229,-0.558117815817758,0.750673577825866,-0.537572836279135,0.827284048740091,-0.803704592943475,-0.460747481694595,0.95135853815819,0.0599364691311458,0.533307909357697,0.547598996154426,0.655939800508814,0.960467444688263,0.311715867298866,0.0373910684018297,1.19157228345363,-0.257875766010668,-0.271615896294626,1926770
-0.807262004873837,0.128728967674337,0.120250524463682,-0.175509590179509,0.49268808284176,-0.31362856705801,-0.301253334295288,-2.72094922462545,0.999239982497892,-0.171218825193437,-0.245290951021582,-0.229403859448477,0.238547183091633,0.924998756432356,-0.180655916643641,1.12185726801142,0.124824674648553,-0.277105939560992,-0.417023873031263,1979045
-0.182610680829406,0.00562062380282615,-0.136405955242116,-0.382674315224825,-0.472786391222321,-0.199565394283247,-0.214119799804695,-1.00227201996459,-2.20329997704815,-0.226015713798191,0.0940198322027359,0.936124133656943,-0.397715897989468,-0.63533971781928,-0.0392477385573966,0.93069718771427,0.00665595662864352,-0.217267913410121,-0.0845293346034697,2196212
-0.816443162244571,-0.240522449876453,0.223163541541652,0.0224358243695692,0.817797852472925,0.499855681306307,0.4636670738922,0.511711944345727,0.346314979785535,0.0475341011362381,-3.89878292220696,0.846810514373344,1.0409688998483,0.351831255188919,-0.248329829866127,-0.135505190898538,-1.08029424320605,-0.00322661626114234,0.0795775228639764,2393207
-0.309897958383473,2.34698167873394,0.00103494261193231,0.42018678608836,-0.700862012982862,-0.417547135237521,0.364864174785205,-0.203652275977332,-0.189310980122418,2.10109806007033,-0.178028510594032,-0.371950015991207,-0.708971056298839,-1.13199953995806,-0.357691983028848,-1.80001423622744,0.748555568846376,-0.420458891471771,-1.45342820251371,2146138
-1.24381059183916,-0.20174211708148,-0.0963025915253568,-0.176815786089719,1.00561780477679,0.299935253116524,0.642734793530452,0.753005754761717,-1.41192105063219,-0.211647584632535,0.142247878078562,0.618365572979911,3.1762217552825,0.471850444481748,3.34437508495166,-0.260896483713389,-0.771863251410087,-0.0178096010352658,-0.101312795326505,2228399
0.863116760722,-2.44104665763134,-0.623105994225588,-2.75683790474229,-0.708681411635874,-0.325580456540737,0.412936802625454,0.742552913752855,1.18131836485062,-3.11013949433524,-0.228745618298132,0.465772923364997,-0.892420950950031,-0.860867465061648,-0.364416142935132,-2.2658436282198,0.457789468010084,-0.464915050728619,5.44298869675589,2144796
0.165775971405121,-0.413810505182179,-0.0886924628466292,0.122991191080837,-0.994743119975064,-0.478295566276786,-0.59957357232967,-1.22058709194831,-1.12880970359421,0.648366035775337,-0.082953884183595,-0.126575520554044,-0.927684981260135,-0.915122519183408,-0.364429675522646,-0.390362640944915,0.736853285065362,-0.454970133001717,-1.57183961568433,2234271
0.318970522268964,-0.604792411516736,-0.185786192041264,-0.245189419165186,2.124432301063,0.24968953746975,2.09612409609806,-0.315793745796279,-0.119476353164366,-0.342634743622085,0.0152740832957108,-1.25059403328411,2.13017193554915,-0.125060644998197,0.916945797542414,0.13280457947917,0.775582595122624,1.32112686205626,0.209891893402745,2296332
0.300120091877626,0.976148075410522,-0.145079234531078,1.45103905167833,-0.594133703366395,-0.248039196681716,-0.0747700327500226,-1.15206186347145,0.351307408957202,0.928360316264758,0.0504953470169961,0.696272597661032,-0.857473497826001,-0.698554049019837,-0.364010828216286,-0.864613645968541,0.975032675996006,-0.422505074782298,-2.54589600215607,1684230
-0.763851938355825,-1.03771413116038,-3.92088510568696,-0.153707585609082,0.134512662979111,0.331535253818957,1.06327946937772,2.18724065688511,0.484475164821895,-0.252711183008199,1.6306908968539,-0.33156743011097,0.210574306035947,0.0120919581141686,-0.243229249723771,-0.534952356686979,0.385197298760741,-0.0695786256304561,0.16634772743068,1720713
0.251934006001708,0.271378434559407,2.80066519035761,-0.26420597234259,1.13909770481519,0.483404690859222,-0.00623469066553303,-0.433881680927048,1.24434876830939,0.124497166628309,-5.55528397850284,0.802011506510333,0.476204748592636,0.357331264318305,-0.352129913565923,0.330364983723506,-1.63198466131369,-0.0374268778790728,-0.266113687316218,2186951
-0.163103790785105,1.47046297017622,-0.0091675734498029,0.839164806200668,-0.640448533508833,-0.470166975110791,0.10903167076868,1.76997361750812,0.846114854725202,1.11005653128264,0.157188948332978,1.93493347854913,-0.524546351191971,-1.0029872807824,-0.346891259002141,-0.134859465928425,0.0739690414060445,-0.347367202001741,-0.709784680724009,2439458
0.600404518793179,-0.24370134361684,1.03866426408815,0.214078678239932,0.468594134233272,0.663365461286866,-0.462408162596325,-0.0606200866057278,0.734513097936311,-0.020098773237307,0.0105766170305253,-1.22558033208959,-0.171791374450337,0.615514050464346,-0.354929522260444,0.400607965538198,-1.31063877802672,2.63624353951525,0.310226565092185,2135748
-0.337419252361673,-0.488118917758561,0.064744584415375,-0.43835797275818,-0.806867213947158,-0.133681597923115,-0.235119174299087,-1.70418048689169,-1.40507068219527,-0.910786942188749,-0.0792445535438195,-0.553378787130265,-0.882359211034,-0.441364640221011,-0.363945135731416,2.04010366465638,-0.689494741522507,-0.301640846300293,0.399430841359162,2141116
-0.208655842138594,-1.30198649926044,-1.64908133559736,0.398964754499708,-0.663869853988121,-0.557685566224042,0.36958297492052,1.94471161073062,0.0405818834601871,0.0176790026246328,0.22190515520827,0.367622187308126,0.242433174784795,-0.703919067950468,0.145773168417973,-0.900193091821792,0.660325507798332,-0.33402383058019,-0.220788778077368,2108003
-0.364661065789458,1.10182364198668,-0.138477761179595,0.136514842875883,0.121792174609795,-0.293194973017077,-0.00998754440423736,0.817087360336138,0.538936155720946,0.793412023068646,-0.162156268969732,-0.563837720278331,-0.545652775426998,-0.0486016496045864,-0.35788687166329,-1.15282788854999,-0.481622394441702,-0.121639313900377,0.0959298213043672,2006164
0.218290579921864,0.59426906054789,-0.00348020783006818,-0.376396867088361,0.256538557535405,1.83043951248756,-1.20475089539424,-1.54197825682339,0.17391072408072,0.305474061092971,0.396556783242402,-0.0463240058455217,4.12817603355154,2.45360539603796,3.44540889610945,1.40016133157787,-0.355403471234224,0.863543648744475,0.075397361329314,308862
-0.781763297705945,0.779196882189006,0.177271991296409,-0.516609707034089,-0.671990233647485,-0.481548123122981,-0.228457883703132,0.0247660568697005,-1.14264650277272,0.353013781574743,-0.019880424173616,-3.41359490315922,-0.567478069319515,-1.12027639686686,-0.32326025064434,-1.19998110485442,-0.334405552797762,-0.33715476673208,-0.140862014403099,1085983
2.44991215506751,0.334365896061653,-1.22656690205522,-0.455981284669342,-0.357311109920955,1.22812756763721,-3.24133159623037,-1.1574582151345,0.911579642653194,0.412641661942998,1.44191270532705,0.820017986494332,2.84056578649724,1.58273811909873,1.1439407024233,2.4695209654393,0.141868293235834,-0.0982439198344239,0.170815909545072,2004451
2.16470794133046,0.403820879359943,0.0159909797669398,1.19183117140732,-0.447728972202621,-0.331837301664382,1.18869193505258,1.15519502878901,-0.289241778114916,0.20239162269993,0.142783921900313,-0.0585468179697812,0.297868530973871,-1.02061653915414,0.0728508103637121,-0.0219629512852676,0.265593397286872,0.965209325885392,0.236634807278534,2359944
0.290956604890081,-1.55319294707041,-4.51314521415708,0.683892174450235,-0.00738459112602491,-4.09186077379749,1.91095588849529,-0.189232654522732,0.647243101846018,0.841879838577153,6.4895336233773,0.182234952037139,-0.608338485354466,-0.288815953291677,-0.363448288671224,-0.806399840636575,0.782186928646634,-0.0746847033938071,3.54175767426293,2069079
0.576347291984408,-0.236551026881601,0.462925317997876,0.308095310372134,-0.615622256395232,0.615293592616957,-2.88776031222929,-0.0888918121104065,-0.334313901818929,-2.13011810171593,-0.121609263614323,-0.0472675248117794,-0.892201291757526,0.661282038154892,-0.364260132723387,0.0485680578516233,-0.243960531810347,-0.340191182115445,-0.857074556550119,2059713
-0.0684538748966698,-0.62816192553811,-1.53671138527797,-1.66716220492921,-0.627389710302287,-0.144164962666584,0.690174164354977,0.0576406696415911,-0.257680137834397,-0.905057346987927,0.243369007906887,2.71856136204499,0.369411553893905,-0.680432450436921,-0.147317878151869,0.588196167184895,0.474948107374731,-0.304682158519712,0.531231773569529,2294873
0.432184700135295,0.537922039627298,0.141766400786683,-0.0480108716249008,-0.853512647187548,-0.491348684864725,-1.21054938510681,0.161207402733179,-0.12458192059837,-1.59308549565348,0.111002858172845,-0.787619909029895,-0.771420422919053,-1.0121928588879,-0.36113377448533,-1.06277644363895,1.12024921280686,-0.437468325450487,-0.267872005933212,2033049
-0.292260752241899,-0.64956644455102,-0.344759640871298,-0.57560845644738,-0.60946729939802,0.654168502650363,-0.133981217804723,-0.771368930463808,-0.809795994437335,-0.436946777827478,0.00481170095624401,0.184068650235537,-0.151816267924811,0.625592157909586,0.089224612464391,0.107894039480801,1.42066778176304,0.038211279134322,0.211333136379175,1485662
0.195769529022929,1.24005098330192,0.481015376073494,0.529395732927874,-0.647187069603463,0.339351681960919,-0.063962974331503,1.12971659856296,0.934303376513441,0.216073795777712,0.343886741086968,-1.51830980744954,-0.79144662185375,0.0456408472300554,-0.362642555840009,0.807209084285018,-0.482074135674564,-0.39598513993047,-0.266704760293944,1526417
0.713071472102618,-0.902120499505327,-0.0867122185052484,0.904248094743225,-0.350552913526859,0.789427142146076,-1.54059282629967,0.494326355951701,1.42599281943229,1.18010232763903,-0.783807128603532,1.19425822158941,-0.666075940768308,0.713543994590531,-0.363533149294051,0.337069478117141,-0.190677483590912,-0.445934708383849,-0.479609826481526,1386095
0.364567454428737,0.122065686521728,0.0761363770077457,-0.152066548641501,-0.336261494301016,1.90226741802314,-1.7728285074187,0.640917297559062,1.41545814245407,-1.41862345205427,0.150116518714882,-0.215152184151172,-0.773284746038241,2.5882144705312,-0.363500962507409,0.934921588439796,-0.770445250778202,-0.249705208290027,-0.732005791688268,983079
0.434772903125817,0.486689930240956,0.155864593649981,-0.947289548855312,-0.94525826254748,-0.279920123324702,-0.318468519065218,0.836255516006738,0.643328236639506,-0.741884039138984,0.110835593861791,0.0383749583731502,-0.816746979448787,-0.779776329540621,-0.3638824842417,-0.0544667071492936,0.447709985646639,-0.378622895558128,-1.20145272874961,2132424
-0.250505308933275,-0.266299931628212,-0.137066494807744,-0.112795419732202,1.25840378782994,0.204884366223366,1.52937882828985,0.381021591964544,-0.446177834348646,-0.278779246316819,-0.301096878314889,-0.457931257322915,0.609660336754142,-0.194455772624295,-0.25104533663055,-0.190213389353286,0.337186549013449,0.253343689036713,-0.277940610622674,2138375
-0.150967909303187,0.349484066916281,0.0545735516831483,-0.258982477626076,-0.592948570063697,0.398839692722349,0.0123027075811221,0.379627499558329,-0.579669252615925,-0.408413544793601,-0.0481835498542291,0.297377519603743,-0.769689086849047,0.222195914682329,-0.359247281246134,1.96946815003092,-0.0852314594507476,-0.146090660460266,-0.539142405745216,2490180
-0.438777307957462,0.51696277174261,0.266123226552583,-0.0482097419070988,-0.155796255820515,-0.134562217559523,0.429882323441502,-0.712230092581853,-2.09767575804064,-0.0168965783831248,-0.220595996789821,1.05791929453243,-0.209406402789379,-0.58102457616991,-0.0732443112516056,0.992810832010475,-0.248372165365577,0.247559288929446,-0.0314790497425657,2034136
-0.17524685188468,0.570739388663976,-0.0982716791381078,0.100183460342258,-0.294245497138019,0.82062848656537,-0.823076829815015,0.770892452658946,0.244419611742273,0.541987635631266,0.207476258341699,0.736615103871107,-0.610496419253264,0.876415615822386,-0.357903334883437,-0.778592884291996,0.643882105010821,-0.171385227731911,-0.198188603658219,2510402
-0.0488199154549029,-0.0585557883474531,-1.02214869370005,-0.339737410350066,-0.18335221464773,1.38937837987417,-0.886245199311345,0.847982739235599,0.759341664622097,0.394720373576052,-0.76785673781701,-1.59472998655236,0.864325560762148,1.69898179830694,0.0131568538287132,1.11361747753752,1.17142270077795,-0.166608626119082,-0.489157825706218,1330263
0.220807281788578,-0.858094566111702,0.0418920550052426,0.0128416033810291,4.94970395753308,0.769627374799059,0.480212599955314,-1.53519567142053,0.346166148594913,-0.0603248922610501,0.799750862616472,-1.47392311364166,2.61536462413645,0.824400619588994,0.028345565959908,0.0632786922365544,0.445392587171321,5.38148493070835,0.131023586717342,1768972
1.10343128381413,1.89170271929514,-0.183980472926998,2.05936823969453,-0.15790160182486,0.0347604232239558,-0.0497740969973715,-0.328253178120196,1.17626393974033,1.69055242738208,0.0482878704124854,0.760253357271703,-0.584098079773187,-0.538498582772069,-0.355839915779249,0.864012490340157,-1.03031830739221,-0.42771885797657,-1.71067971268094,2306459
0.616659238739912,-3.61391570821396,4.87413558800789,-0.244396408474682,1.23664830250581,0.456455715673144,0.160244545731001,0.513210548200775,1.39657707930902,-1.70888775759241,-3.38872609085227,-0.419306627750817,0.366297700237297,1.31841551297755,-0.35539008817166,0.290138017361675,0.603995708448093,-0.153242555869911,0.039559499346725,2181724
-1.55666378364517,-0.0691579158578699,0.0540250529574998,0.0103193234824303,0.97134012355722,0.172143186494031,-0.891587649633405,-1.26152151476905,-1.80229327930579,-0.42494911334016,-0.0606592168368522,1.42274560852854,-0.421442072218916,-0.0351848502993549,-0.30488475910585,0.375632853042821,-1.2060758142847,-0.161609111551043,0.00995878866631131,2217034
1.00996420173907,0.190497609803243,-0.95822338532527,-1.11208024227828,-0.453890906527472,-1.33262913730863,1.93488267713329,1.30035120585425,1.33281846951863,0.373272915863709,-0.00100546530774327,0.544879475637316,0.0157888457529186,0.192433467925972,-0.291420116834978,-0.463608243870639,2.27643709595754,-0.246739326489125,1.66334615097117,2218615
-1.28902292269955,0.628383271991708,0.0362520883315623,0.191014902684338,-0.693116921051512,-0.57369664381379,-0.370408359235839,0.620331178244072,-0.907248996783099,0.161880330109707,-0.395678657051103,0.339769698323238,-0.688289956149198,-1.11991394793553,-0.346280648006148,-1.02673904283978,0.239586744821407,-0.365696454836329,-0.237638599508068,92173
0.392760534412662,-0.227103482838366,1.02774050611575,-0.195490000966598,-0.41049466413224,0.472738433819093,0.0984712743953727,-0.55768694011471,0.994589255482755,-0.00906836552840973,-0.536105654256518,-0.130502614444674,-0.457245248894438,0.395959622010946,-0.344799486436054,0.188224774677271,-1.78987473334175,0.0233861142722403,0.271525249381697,2414406
-1.25167581380887,0.678470571331791,0.014172544877349,0.0963184488993749,-0.226568476853189,-0.565485642461477,0.165115908865416,1.42957601533797,-0.918018017926968,0.406753038277561,-0.0580528274119866,0.609700545441701,0.517225229068127,-1.30754319245637,2.29568902061914,-1.28853888595301,0.618923374705629,0.00183343176479753,-0.10399943151869,2381907
1.31574978939606,-0.749244158249283,-0.071115964208117,10.2588728740323,-0.821346382834907,-0.603129095708127,0.192507859405598,0.97403453279757,1.11993979181553,-0.942038789797859,-0.155918714707272,-1.00401367196225,-0.855381993601976,-1.14676548891596,-0.364336485825081,-2.1885044688388,0.450491323949304,-0.499603285521523,-4.56494960658054,2002465
1.00726630468149,-0.461794361605036,0.191120902993293,0.393079493812009,-0.287861173850544,-0.411915236580444,1.08844013660308,1.0626710248824,0.356029928514951,-0.94534329112005,-0.15212720847936,1.09136379397711,-0.615619534727532,-1.20490226335302,-0.357993888887032,-0.645559096600589,0.256576221285195,-0.305207889969159,-1.09046999618193,2474709
-0.981565615163722,0.225741803082817,0.384864027235443,-0.262437482241411,0.386823069167194,-0.550668898094329,0.640148842540404,-0.309305306874601,-0.780441198715234,0.309171960011638,0.1728654576834,-0.526382906638947,-0.411218525138697,-1.52332818167354,-0.307911633370686,0.188113472083741,-0.466664670589711,-0.0134565079112657,0.995613343859991,2176530
-1.45234275065626,0.710044916577255,0.10641510375442,0.35422782384197,-0.544316140235964,-0.872654707695988,0.0504397640718898,0.0482815896121929,-2.28951591185562,0.428388342500293,0.0586181655526107,0.439296010128256,-0.396336683460032,-1.73558863847229,-0.0170906603065759,-1.53176479015616,-0.475112679914682,-0.152004095299559,-0.138144463177747,1279943
-0.632617444704266,0.949180590028895,-0.0886245224821098,0.798871871792272,-0.650813063183807,0.915364812220687,-1.91001034695284,-0.152620906322387,0.140742700757677,0.642681135006107,0.00829824096198282,0.209282189396323,-0.4939214104562,1.11512713722132,-0.281136397897571,2.11363814454242,-0.102193030659535,-0.196993656939017,0.0414577812705618,1976407
-0.565290711243748,0.529598496389688,0.114345361841259,-0.00680964298623224,-0.666325319857634,0.746653546051354,-2.52170043451115,-0.428250750298381,-0.725394922155203,-0.0242447230078733,-0.0899020411297803,0.597043394906706,-0.622220611903261,0.973811040876681,-0.339354150129312,2.06219510537733,0.596238381212984,-0.342673445868497,-0.14132697220634,2250836
0.465532909516429,-1.83811971638863,-0.402855846598678,-0.385828914544318,0.862798601986033,0.186564699383235,1.35547885305719,0.767179776766981,1.24213175095216,-0.143102467562942,-0.446667117726705,2.40179492329956,0.954396414659344,-0.230823775454888,-0.0720781407976616,-0.568270065868602,0.743451083590113,-0.284450559387805,-0.452823069922157,1915938
-0.192587202145431,1.32562648479194,0.00887889941652213,0.748783112519468,-0.948706582961586,-0.702678180987878,-0.669118095203743,-1.16609265705026,-0.213570215177794,2.30524143994939,0.049001241547611,-0.574277630936234,-0.958323313087131,-1.27080582385745,-0.36444482575381,1.92598537039872,-0.5574586831448,-0.264491544418126,-0.594352117972019,2133380
1.07487276456974,-0.984911135066042,-0.321562483803092,0.65429396072999,-0.891364072934734,-0.523407753661939,0.102677222582158,-1.36133897032547,0.0584807819196549,3.34698617936882,0.291981812277841,-0.00637973764203389,-0.901943478161435,-1.17734016794746,-0.364406329936152,-1.75948224978104,-0.293149478886467,-0.481715593756885,0.558619987284333,2271329
-0.780545073950735,0.917906634294299,0.138855203907304,0.321013822937974,0.252269011989904,-0.096353566017449,-0.141184454238884,-0.359711005836793,-1.87585582885743,0.327432630180582,0.0249426773681428,-0.430531106295541,-0.12968196284357,-0.526645310157819,-0.0155825141903395,1.00888598521383,0.0266452951223359,-0.189178185557717,0.128395720909729,2286108
1.7830840523439,-1.41267000577625,0.674668543806682,-1.57995289772317,-0.390005142357552,0.486347428719373,0.707011177192218,-0.28594259482616,1.23523451794759,-1.84742336827445,-0.857568702574244,-1.06551166003669,-0.151138113917288,0.200146918798026,-0.335031875321517,0.287011349085336,-0.358379680431433,-0.421384537600546,0.996660440674571,2040495
-0.782332405344061,1.05380416943382,-0.139306946455642,0.330694901314416,-0.762192638064575,-0.135955428966081,-0.745665313358965,1.51476289445887,-0.770610866575785,0.558671479999317,0.237778134980435,0.281712429564938,-0.157540771223522,-0.519280364289202,0.546020282806444,0.621148531975517,0.664459054682918,-0.33687973101128,-0.356206960383436,1125173
1.18851512958785,-0.9759474016683,-0.535030177508488,-2.35454949976065,-1.04296123622693,-0.31776677641411,-1.29535018458579,1.112565760296,0.841346957637396,0.696826730965357,0.901313970296351,0.769022599567066,-0.896129477753525,-0.63949246212207,-0.364371376820587,0.0297324304010329,0.63451529659038,-0.402949560960221,1.58364295747243,1767700
0.343553959319931,-1.00960587645909,0.678101290719262,-0.686549996845642,-0.47388344319436,0.217384619559642,1.06492928044719,0.0929387009304252,0.0674242919702032,-0.868318860991277,-0.21935606383881,-0.874786396694213,-0.345302754665256,-0.174589257197651,-0.332305067530221,-0.0423848531032226,-1.14596525753816,-0.16763417423072,0.551089180515987,2138678
-0.152214867920853,1.1009786699965,0.551132064378287,-0.0233858864815421,-0.431456783768336,-0.162726082631415,-0.034805400839345,-1.05613591414118,0.876058939270939,0.561617463663572,-0.43331872930941,0.866370416217484,-0.432411190735724,-0.676693971541809,-0.344743223548685,-0.654251744191696,-1.18596937310641,-0.357188504631662,0.395304334944366,2443354
-0.0411755896668497,-0.330413228425403,-0.20888135370699,0.397817697779401,-0.938445773729076,-0.448339478819873,-0.627002321672022,-0.663051869543605,-0.951861067250019,-0.374644087275772,-0.0444880723658779,-0.215423039122777,-0.873222571759106,-0.929410481782642,-0.364155414039592,-1.2459023458869,0.267739555519257,-0.458124496796263,0.121975053825864,2234422
-1.10328583685537,0.802350338512423,0.0902701372639536,0.515401494862038,0.179460832680824,-0.108682910165128,-0.0885132640316866,0.662885662043896,-0.640412478825193,0.72723674524401,0.045408901025579,-0.168811451720471,-0.562516237222509,-0.594612484918887,-0.320828369721839,0.990647653360598,0.923902752128052,-0.0547975031476222,-0.0811280342617718,2151024
-0.14842540671,-1.01316723672231,-0.233562481473524,-0.131171237886978,0.0997574362462401,0.806234180459287,0.611494177009366,0.961789810081245,-0.23349572711049,-0.236283910657025,0.57338133348791,-0.480057790795632,0.568705647985338,0.806160150222235,0.256117548535768,-0.486511938632935,-0.394152406258536,-0.0461558171591673,0.772726309032006,2057358
-1.3760193333801,0.360823593747384,0.0245706297913514,0.0151905659221586,-0.513524508368699,0.257948540042958,-1.52088672447136,-1.04753246973952,-2.31515885061712,-0.253757340613112,0.0163663188665953,-0.372045268964057,-0.807018735833758,0.329642636065508,-0.363237408871913,0.424487894498735,-0.314599990466042,-0.342485146826205,0.717904025078218,2425694
0.00387067565358534,-0.332506301131617,0.574982773205406,0.0947384854626916,-0.231182806734915,-0.0277776870681644,-0.647846909531969,-0.878624300869833,-0.267740594849032,0.0170301034645656,0.276970901944093,2.11316608305052,0.254791963858763,-0.418559203646149,-0.281392620725635,-0.0995060238147105,0.34035278736907,-0.388012489763959,-0.159817185351871,2500377
-0.7949591563018,-0.54102151609128,-0.117785233989493,-0.107933930153194,-0.070868360934628,1.23501690648344,-1.45154208809449,1.42966940775453,0.155293773159927,-0.472777326996356,-0.5276592272337,-1.19880293002346,-0.342064838196924,1.51628162766509,-0.353186958241414,0.378122292730232,0.905685931615687,-0.313122242512281,0.497895998312454,2183356
1.98376702039236,-1.03597780473048,1.71688699505324,-0.633765753097647,-0.0754107129833649,0.844544008165621,-0.441756574386286,-0.939550208652891,1.42597440684781,-0.899066609295522,-1.45207482571374,0.226148388204847,0.0281554213904801,0.977025643301228,-0.357783974959057,-0.0525788112498366,-2.08835956494152,-0.271169179290998,0.245433125166744,2131601
2.12882752341981,-0.646723033724193,-0.662716792809738,-0.86405558501432,-0.265675646106542,0.238775864099496,0.32913198233444,1.55238343765674,1.43797146622646,-0.0800212567830136,0.0948122550035143,-1.83955626118853,-0.415375742729757,-0.0521442816022933,-0.362287388273521,-2.22346537814174,0.334461634703623,-0.352792849622158,0.725628617136423,2152442
-0.00142296463224035,1.14011043593521,0.858010899212768,-0.4135584028151,-0.765570168717626,-0.312121599280024,0.201087049094602,1.30816852814525,0.177232449801408,-1.31185639317434,-0.13795943907735,-0.892478070420778,-0.269740596031704,-0.973852292393796,-0.244476261933751,-1.7632554926656,-0.0678975483996006,-0.393725552134973,-0.742646167093814,2306893
0.426720191505918,1.56150420338225,0.209185079449681,0.50334936500386,0.0286897992724875,-0.683423479946158,0.329906874318099,0.934312105866544,-0.378131981742027,1.12323345040932,-0.289569025049375,-0.325313668560448,2.23558676649937,-1.64554998213101,6.87860682228882,-2.00764795000554,0.356016550019495,-0.352177120868164,-0.428569403272299,2009915
-1.06398474092585,0.209721274139951,-1.84402259671283,0.0360214089783966,0.132430087933943,1.15598173678968,-1.58551006221928,-1.39460863126364,-1.18984690644332,0.0969221937542225,0.0840011560887856,1.27600110832422,0.126384463946616,1.53683181567397,0.0195549687961856,0.435871346011347,3.19938942388123,0.0253651223026474,0.272466273155022,58325
-1.12108187974377,0.636497875404364,0.0134566718779982,-0.0111629311862549,-0.118202216063351,-0.255512498423755,0.0350313866679977,1.96140427855136,-0.397785716077399,-0.448026811269623,-0.0246445913273552,0.304864803313265,1.2074811633352,-0.903584080417483,3.81356800191565,-1.5405466497497,0.457133183923575,-0.256072427147981,-0.366923308132301,2395943
-1.5893834896243,1.02031819607492,0.303504464195362,0.179778533030987,-0.155743460660904,-0.261441076290152,-0.34214236564079,0.650791515377267,-1.0536397559074,0.515563917225183,-0.0646601848632054,-0.0351651863523364,-0.650535477405297,-0.786750046975152,-0.354711835179372,-0.603439986148708,-1.53297498793692,0.0924088987046076,-0.611060885941269,2480330
0.273919109916689,0.78055278181139,-0.00606404801840052,-0.613600016474802,-0.993149911260134,-0.650100514395811,-0.395113062511678,1.2742440179746,-0.117413697151752,0.71386594176931,-0.287904430652676,-0.0547928578396317,-0.0591544231025641,-1.27605259438218,-0.237954402464968,-1.11533335837748,0.745288049721008,-0.368513986805922,-0.274941559818479,2076301
0.121426719103147,-0.585361914000424,-0.248020636247329,0.0390790274835246,-0.431962402423123,0.414994560796075,0.524670698675602,0.223870389412255,0.161134241249663,-0.160300177618649,0.163429451881378,-0.191169304360107,-0.692404574122554,0.158585904164877,-0.355554489692184,0.834574228807939,0.486569761539668,-0.0614369378313164,0.339250550792913,2205389
1.15638322611885,1.68774571086561,0.235774517299772,0.791241826469925,-0.706551010626881,-0.726042108654627,-0.0429406832882656,-0.798234533831958,0.425517796322868,-0.273991746228409,-0.328873924874767,-0.349129144444569,-0.779432679718772,-1.47604386600237,-0.363284236382315,-2.23864416313,0.736515214981739,-0.433720165610088,0.0320753737677494,1975401
0.676850825552412,-2.05643586060613,-0.535188467026645,-0.640464937273011,-0.285457479134242,0.614903477070158,0.227590169030984,-0.529624886625327,0.916930183738138,-1.61633901252832,0.439351493394884,0.419403023768625,0.303564922534309,0.422499231054338,-0.0191105491251682,1.03550004963993,1.01192146835141,-0.255213218495834,0.656055271694881,2250648
-0.965461306567758,-0.148106150285506,0.144544999808658,-0.184592038394582,0.746848031538139,-0.60748727945225,0.723779110599749,1.40061082117604,-0.148408015056467,0.314825492891312,0.105814367492819,-0.0532341388702075,0.733604149796052,1.01144018312979,-0.206496755291631,0.596974628225958,1.13308572930203,0.0513817065386909,-0.311372837096042,2185290
-0.974586780922082,0.479621376494452,-0.0698105817715347,0.300558658358115,2.67865350929319,1.67870721583125,-3.53899354890124,-1.49991787571038,0.0358815876700518,0.678515605161179,-0.331842392208512,-0.187624607855601,1.47577572891401,2.40497652546621,0.138825200936883,0.0645285099089682,0.12530842367539,0.0403099248245323,0.0718732568823361,2091555
0.244279320582696,0.59048875654911,0.555933675633099,0.858891685573174,-0.0935763235285045,-0.278411328386624,-0.0747972753516952,-0.720829549832318,0.387042422588408,-2.77762350754937,0.364350258405148,0.424270507768279,-0.646677451689071,-1.10091210892035,-0.354949406141254,-0.0357551268640114,-0.53125634058855,-0.291842920583173,1.70786762845767,1232870
0.454956086926659,-1.3879734711139,1.49730037374187,-0.211284672974782,-0.413789774694152,0.356014618930382,0.802973540586396,1.35680565274,0.963485013584414,-0.448447246832251,-1.61286174879649,0.311189591049653,-0.419407326230673,0.00503220671119835,-0.360916902644149,0.0537992797476549,0.295259276391196,-0.291236209583749,-0.222802673985402,2139733
-0.281394810710884,-0.526083403044706,-0.681797671080095,0.106140857827972,0.5871369061803,0.150255740145497,0.803840503389277,1.24634165709391,-0.180789512069685,-0.0359962975012241,-1.3675542371134,-1.06375430336937,0.387417699316406,0.322657968498438,-0.256987480538909,0.237796910705261,-0.177249487593297,-0.0366591134840416,-0.208462589206288,2559453
-0.365861061839561,0.512055753293527,1.84570630868819,0.204407607823817,1.68846368227155,0.483926422284888,0.962764670972444,-0.286011099431176,0.631293489105734,0.207623664598147,0.048029770147551,-2.2826630821959,0.815469051408093,0.376214830496067,-0.282477593184663,0.55812322597808,-3.2459265785548,4.25937057550012,-0.313361612961819,1938156
-0.334994328301515,0.353750502555903,0.237316602106397,0.0530928679401248,-0.501392163984254,1.23124422308851,-1.26755651940688,-0.715925657698217,0.604535444384045,1.01639966259869,-0.284225150135238,-0.767824645881765,-0.289767648779406,1.62443313910768,-0.322864543901915,1.69428225835961,-0.674458157454966,-0.328427129430466,0.963282660879622,2158101
0.830314169499287,-0.740566004691512,1.01886086452779,0.0782679015388634,1.9529084359778,0.00875515809993414,1.58611221787814,-0.185328497287974,0.937002468930686,-0.215005644701733,-1.71000584199281,1.39225573784119,1.54620289222489,-0.536736670804905,-0.343080696520972,0.0363094790768832,-2.68555966110958,0.122726015282633,0.664788516674416,2199403
-0.0632934017657725,0.91627991568371,0.0960392178631713,-1.28633920193071,-0.745803537003273,-0.0587078757860127,-0.852369709852002,-0.59126431353707,-0.0497030410523141,0.58513029484011,-0.320986517955737,0.587040629572504,-0.818683398322019,0.107405727205491,-0.363189669428961,1.94138421165969,-0.279321341669845,-0.349361716006036,-0.942480540269884,2430773
-1.17734511744491,0.356239293315358,0.112505313369398,0.0144383389454818,2.03091018727608,0.221589970881675,-0.0167130772911896,-0.0909864054109708,-0.82520223918908,-0.247883318411602,-0.0730808953990085,0.509170136409744,0.154186042529062,0.0085657702187523,-0.168248213689106,0.638096263526634,-0.723631185920932,0.0523700362325586,-0.472292261383726,1738800
0.0960192652035336,0.380520341807204,0.350275424298416,-0.525235145647922,-0.924777795928074,-0.398502639750961,0.782369001992391,-1.85356533346106,0.136131704165976,0.0775598347126962,0.235635777372494,0.86404139831124,-0.803288557216623,-0.886971087193784,-0.364007358692106,-0.582278899167597,-1.57734704467265,-0.230479401934452,0.00247033072971772,1565177
1.68600565537012,1.58392146296909,-0.353921149425478,0.0338222892604809,-0.51684998037911,-2.57318355382086,0.656144688954272,0.694753794041489,1.05797261309249,1.47601347873069,0.0744684735428395,0.0115056040342681,-0.585430985027377,0.702699058453758,-0.349266745271746,1.30544537339589,-0.493275878500573,-0.121032520240897,-0.606736219651298,1978972
0.0860087144668225,0.297918140483424,6.00426292501351,0.052652227677803,0.0156647997000547,-0.0723795546869512,0.809989832633357,-0.0968387291640768,-1.30313118303752,-0.0451105276761425,-0.832244974775286,0.691183316147876,-0.394523144045214,-0.544624573972244,-0.350645899747808,1.26683102018309,-4.09053895115758,0.150065472768524,-0.431090598336967,2487135
-0.758521875443427,0.512634951800905,-0.0769693476760433,0.243706617777405,0.237016963197658,-0.72123817583594,0.768757722242018,1.45039762641493,-0.488679272528497,0.443557868322828,0.173899714923643,0.30134191628334,1.04047646754652,-1.32377748384928,3.4284987948589,-1.40570483214198,0.478225124861512,-0.0309718026451595,0.192808940257041,1612262
-0.467879314423533,0.621736140748167,-0.055354128335725,0.299482567662895,-0.518011292745389,-0.15642979634878,0.600570598970902,0.172164867108263,-0.928459302797914,0.452302341080306,-0.295216398115882,0.552830177073381,-0.586312870194736,-0.74732833665262,-0.344919495303212,-0.411484644572576,0.374052465164385,-0.183669869191852,-0.311916438726836,2051378
0.0604890093760522,0.151234263262692,-0.551936833989888,0.043279298884185,0.223804105415564,0.9942367068443,0.180424802643345,-0.504497898488813,-0.230597125992498,0.00710647228825136,-0.540425093258151,-0.769493241749641,-0.0320139679473847,1.09095250345661,-0.270276738778029,-0.428163040840112,-0.0130349569224682,0.0856947194453938,-0.063927574285194,1497807
0.344220942522066,-1.15290607321567,0.693049841444443,-0.613407966750486,-0.13063234294969,0.614939241230949,0.663384040033511,0.391571520511204,0.714552248393779,-0.104653252884099,-0.709350522522488,0.415418507146476,-0.763812152489756,0.441871920530201,-0.36397556153687,0.00821109685764472,-0.0239917493018966,0.0671891769611771,-0.935872736736704,2026671
0.0381285983242792,-0.74340977533739,0.199404976697652,-0.298203499602269,0.709881622304914,0.808619038725657,-0.376283935723869,-0.339531327443292,0.449528267504381,-0.719114607700828,0.425604804574137,0.561267656850729,0.726644928188142,0.828996911949997,-0.300790919886947,0.350681530414771,-0.439188345591807,-0.188745265350777,0.00554758457082724,2340322
-0.0294729112339885,-0.790172238749621,-0.722867571704447,-0.383981155597197,1.24514681912949,0.174491034239668,1.09298804902574,0.992418962658647,-0.0154867892924419,-0.26024279610967,-0.117079986942009,0.243734669735558,0.743565931051508,-0.256684674206168,-0.306999122866639,0.227366753161694,-0.191658274209838,-0.239361911162256,0.347118263878076,2293123
-0.537554651624988,-0.737909401762447,-0.237988623781906,-0.238202353741998,-0.215054109396093,-0.162759283582536,0.73028140334824,0.33144142573786,-0.334375162530811,-0.290118305399104,-1.13198161527244,1.20203168367821,-0.17753480355204,-0.71568960517897,-0.321798506860181,-0.177637045922214,-0.0675442131282771,-0.185694075507652,-0.129525632146625,2395415
0.0664964151215459,0.770761048536837,0.385492079675662,-0.683509037687405,-0.188856180527848,1.16581264424563,-0.235223474874305,-1.14038162671837,1.01919234604822,-0.0322388440943907,-0.000410416632572621,-0.414182799553605,-0.545225285165714,1.28340657129736,-0.343858592269437,-0.65288637573516,0.375328187899832,-0.200020391830682,-0.255746069295058,1966316
3.08514344893137,0.157486457752788,-2.04085159638692,1.16584155911772,0.253634962638247,1.49565197312954,-0.871023034256853,-2.10186389007718,1.43325327008277,0.434095638595579,5.63631033408461,0.783879814082667,3.32688147451827,3.15881595817556,0.143175078158683,1.9120801929502,0.885003404379416,-0.0121798032287934,-0.416156669877788,1973544
0.68031458127724,-1.00756574987867,-0.332234263503538,-0.870940202435801,-0.851283172494805,-0.327088584409819,-0.288059224988075,0.346518108609734,-0.516670800017115,-0.532949647122532,0.106974370624705,0.126911356340254,-0.762365553925976,-0.842332549431385,-0.361334672219877,-0.144378811408891,0.658950910969752,-0.315963666781735,0.349535225912882,2010259
0.866988049903976,1.0254889686495,0.053526919658808,-0.158733058585245,-0.650755461644319,0.726411104843088,-0.529896912686977,1.08946109526774,0.550975348410911,1.01223913541933,-0.0426359365539653,-0.554962241725791,-0.884615697948406,0.822141674777311,-0.364344650695331,0.0445475702745387,-0.429679010954033,-0.192074642091695,-0.594741170153962,2145694
-0.407244197714661,0.72382161613965,-0.156576557122623,1.94142453197641,-0.840810067086814,-0.727571469248122,-0.052655193789069,-1.12972015350932,-2.80517893461125,0.913631023376862,0.230502873452578,0.432086672561044,-0.701239946633463,-1.48058874334513,-0.352273807054529,-2.16786845821497,0.43069920832537,-0.389454528514771,0.235522108224023,965005
0.0135101483433595,0.391397051618764,-0.262945303976142,-0.465139865347835,-0.693777296702112,-0.430718107698756,0.585106243005277,0.993662794608834,-0.154030365464421,0.470806809992082,0.168333297112614,-0.737699135697907,-0.813398175074532,-1.12106084333672,-0.359028065161144,-0.802045445278901,0.374469506585264,-0.342285628191939,-0.198489953073955,2096627
3.10532348550255,-0.455908744614464,-0.437569233859511,-1.26261165183019,-0.356013775469,-3.00221361547248,1.42796257693657,-0.678703325759621,1.44170889496174,0.831802904057171,1.12867981717652,1.65812177110297,-0.430211994006105,0.146526159882958,-0.361080161066934,-0.0525516228300328,0.0868447188105478,-0.299063419586891,0.156655599025528,2047354
1.67860940340319,0.206997213131088,-0.791585567881544,-2.32321531979634,0.00792051994666325,-5.66763000790075,0.722379318257722,-0.41424275917529,1.46215609590194,3.35501270271548,0.286947932014759,-1.38719741449795,-0.667875655636922,2.52745282968588,-0.363414563900001,1.64411367637239,0.266602357653282,-0.504540468420164,7.67588941878372,1364384
0.483686818643939,0.832411085578439,-0.00639251459467175,-0.0182615530097084,-0.291252128616874,0.0277860084817246,0.949796973985355,0.789269297251855,0.911812842613912,0.737954027325334,0.332640703071238,-0.286397573214078,0.168776915242929,-0.159405266751387,-0.161825411407242,0.224638565162967,0.637645745352112,-0.328670375085293,-0.340246625131692,2244172
-1.60209024906101,0.261912330186045,-0.370844957373098,0.615266449259013,-0.622772516714775,-0.700520388974093,-0.943313950610669,0.728191262431072,-1.75514186942305,0.356529198277018,0.08822262751803,0.342054076552816,-0.357349473218845,-1.28759733744638,-0.0934124852289568,-2.05596432089431,0.675913404519576,-0.295669495441299,-0.114301043270163,2132982
1.77650483430981,0.354304192351245,0.975857854518008,0.138483545888764,-0.925991293720223,-0.53111099245831,0.835967189459694,0.879016202619037,-0.166650289341532,-0.0203475995023155,0.00685177188285027,-1.00947023234259,-0.950460976332526,-1.20424118735906,-0.364464394699507,0.52144349876128,-0.310632045848726,1.40442773761425,0.601924980199409,2134220
0.315403498070965,-0.0517376433151805,-0.672029963172346,-0.0633156772026122,-0.547797843231455,0.194861674664733,0.892451561350693,1.05627718046822,0.654908748736597,0.140401636811022,0.241545105704967,-1.21125164299604,-0.292682983160474,-0.162077458267646,-0.284144313924747,-0.0243325919979636,-0.812626095945544,0.180072780568585,0.703451561837516,1889409
-0.456894597756547,-0.740367817754065,-0.128835714558496,0.0845632012772191,-0.131742099772349,0.542110583776146,0.332627267603274,1.22958848768827,0.317616522018478,-1.05818027718044,-0.0454657441573676,1.04491833329707,-0.611989019358434,0.429569356702352,-0.34402224295784,0.250866893883235,1.22004203792102,-0.112550173554094,-0.529846532636609,1938561
0.101051029754849,-0.565981667771795,-0.0302503211987172,-0.388237785213936,0.610390785218617,0.617777621342116,1.4637129685386,-0.773284379225066,-1.13430591217388,-0.626041075920051,0.0129804178251667,-1.01918411198277,-0.56531200220173,0.423196460843394,-0.333391380544527,-0.629037883385004,0.274536810757732,0.144739478005753,0.273714596022551,2055667
2.49194465293703,0.516062596410447,-0.0493035741089814,-1.11387859245963,0.0657698153133049,2.35093511332745,-1.08735119793183,-0.708062826807065,1.4271569313557,0.348338065675573,2.38243061114947,0.844751950068931,1.93923811611734,3.20247759644146,-0.247013218523383,1.33302972455339,-0.76783256086218,-0.14552276856232,0.17582781024906,2176784
0.408043350500439,0.580513642977475,-0.366622809749127,0.313932069911615,1.15225488806513,1.48938263690239,-1.45921814750998,-0.920432368914787,0.291428217859103,0.265742359184256,1.61647436993774,0.61879472596861,3.04343714614023,1.96840240193885,1.37159484064033,1.15847412200746,2.06847039134606,1.43906690238162,-0.22206692439989,923666
1.02202523816567,-0.871648389135432,1.06593804621643,-0.479861443409853,-0.485893050588331,0.472943851212489,0.839923233052884,-0.863458570886507,1.04094684188376,-0.885302841216686,-2.41485537732684,1.03794576952891,-0.633720580714556,0.319564556062368,-0.363702386419591,0.91038743812796,-0.870013908676713,-0.271455467389501,-0.67156757639841,2086044
-0.118568032342213,-0.347307092180094,3.17742500110824,-0.070830610841767,1.75820254885483,0.351878931606611,0.843797971011076,0.596190219360771,0.388604771271264,-0.0224886864882726,0.294670967337793,0.731492440084794,0.876582415455487,0.184287906183605,-0.166641026360351,0.159272506148869,-2.85422327103659,2.08503910146601,0.448983863715879,2078198
-1.02329870002831,-0.295245786849352,-0.427863776838779,-0.335436849895942,-0.533188032938854,-0.317033303360976,0.249126760528279,1.35868505749514,-0.32561564087428,-0.333855511201717,-0.118551619601979,-0.392780822484747,0.162277969756085,-1.05792937372634,0.315903787974437,-1.19212365153387,0.739228262862057,-0.0696773133027399,0.0429528210126318,1501387
-0.891666966983277,1.08236684672504,0.00742777895299451,3.21864000989428,-0.685353896872973,-0.636662744896785,-0.793915552626513,1.12893019063791,0.411789164721202,1.39134105678137,0.355837506222702,-0.985022805553144,-0.578802112351838,-0.82878894016854,-0.353537566535284,2.49912915459523,-0.068815665212636,-0.440808801484128,0.977038982472902,1518948
-0.900324208966774,0.411606986449204,-0.116000892972975,0.0227941936663769,1.92240907370775,0.694062966967565,0.310405018181406,0.328611285629492,-0.355427120488772,0.17933943222897,0.157621625087806,-0.991159152437876,1.93253885041214,0.68417369713694,2.9888034893384,-0.237677573209091,0.451300901457002,3.1071376547245,-0.165311625701135,1606693
-0.198286621963551,-0.958009778992194,0.92813753578921,-0.143461432067847,-0.485028470386881,0.181125578944555,0.340314876369065,-0.963760352626843,0.0522137746952406,-0.665926718633379,0.164235112373754,0.793396008068724,-0.520200558683586,-0.138374821656518,-0.347275166900769,-0.0699980919567606,-0.878636800150879,-0.230694894408318,-0.280259755128241,2305115
1.02966821982438,0.102111891830837,-0.949730984496352,0.315179861438381,0.99846614575427,1.49742203345435,-0.930035729277293,-1.01228102452216,0.00295247088017761,0.161511336442644,-2.29481883329279,0.755643828378246,4.30772384820421,1.94047912938027,0.275056394281793,1.37311650062566,-0.0761221348144357,0.945986956779361,-0.0343962602632346,2237571
-1.11827599336853,-0.512333633171075,-0.0163222974486063,-0.0766020058064535,-0.380548244891049,0.386045013507333,0.935126518069988,1.49957985527016,0.0481389294493422,-0.473909794407809,0.628751640011124,-1.37815330739076,-0.632155918495105,0.147216124785359,-0.332786663125158,-0.930428313909235,0.820347951918697,-0.219192422325697,-0.284044962551366,2285214
-1.49636223230056,0.319327483761186,0.518012220141161,-0.0933907606997264,0.0912672851139728,-0.233361869926951,-0.200672608412769,-0.0260971331927843,-2.19331407884617,-0.0364788975336261,-0.111567129792646,0.632115088068302,0.022283196363856,-0.711016247202651,1.77507060831978,-0.482267996230676,-0.281761875729786,-0.0977445510916531,0.0491367121699029,2426863
-1.84414213307973,0.0763716075160516,-0.217451389896448,0.376811829540964,6.99227685417621,0.562587839590286,-0.338566629824171,0.657031253747051,0.0229868704171033,1.00770002860358,0.379959383512972,-0.583233579481319,3.78686701937027,1.20041139046052,1.65879210589244,1.3263184330548,0.0368612524089295,0.0428166517171613,-0.347684763645522,1979422
0.432884008008717,1.46991097570647,0.147649633062274,-0.203616454010364,-0.340506609197527,-0.722546025491253,-0.0507395001890343,-1.11224834754372,-2.22001232855331,1.08250672007457,-0.465519199579722,0.351625102254939,-0.154255218158958,-1.57227772240567,-0.300887359200364,-2.24063061705122,0.528670679019463,-0.408881531855364,-0.935493249584339,2480056
-0.675516348671886,0.485228895328937,0.0975527718131226,-0.66955660373382,-0.903590186047682,-0.436819953967946,-0.505344270286394,1.14986367198271,-0.226609267324954,-0.320161045952492,0.0256264077681306,-0.625211551093715,-0.662450260145876,-0.963465363025825,-0.351447018194931,-0.668911400289513,0.547876659812971,-0.371318857711725,0.424048459219895,1668599
-0.591110239134966,0.560770030759178,0.312910202147827,0.290124633355583,-0.436589470876279,0.171576640258796,0.998136793192332,0.635425106745923,-0.406332095088536,-0.0174214252376382,0.0567294674853006,-1.40321426928167,-0.110146552314079,-0.174583681186016,-0.104622952938036,0.0348404547698719,-0.506845328400492,-0.131401698923453,-0.156414087489585,2339674
-0.664021682449273,-0.145787583955392,0.660099286239274,-0.389191331429027,-0.492252257985203,-0.273784493529925,0.480140240585107,0.164134915707873,-0.266660984792466,-0.344745581282032,-0.0848993778753951,1.48316842639378,-0.399851951876393,-0.772598001690058,-0.277791060578768,-0.0127715661185667,1.48669386418719,-0.21754744558327,-0.0308109159931323,2133204
-0.998797156515754,-0.167789915308475,0.122968562883063,-0.330636788302021,-0.0706541506061884,-0.369647778992411,-0.0449145057998051,-1.75981742118069,-0.993066970608606,-0.0204622402382459,0.238245920986992,0.667403071348291,1.95869011303187,-1.00193693489924,7.41487158935113,-0.287076383060905,-1.00665715410579,0.176319213235531,-0.0670259611122238,2294852
-1.12538086432291,-0.0519062190647035,0.219005631964888,0.00319190494136548,0.199463725754312,-0.145960346288199,0.16875625867727,-0.668461809774723,-0.759029648999956,0.25046855437305,0.0720115382796677,2.39438950211974,0.186075775529019,-0.59298140425597,-0.217331521571291,0.468654632816386,-1.02339412326648,-0.132300923719737,-0.126441607704665,2445526
-0.684020573005054,2.20646675400587,0.0745060911298109,1.33163370377649,-0.739653921837246,0.424350506481867,-0.0389029114383638,0.453350455836851,1.17386177069504,1.95650123016491,-0.0257708857481263,-0.327993340204736,-0.902103222300865,0.307453936327779,-0.364429599364426,-0.92156573869443,-0.406000367722077,-0.423759235832425,-0.699920199711197,2200416
-1.78207758400027,0.300053191278956,0.229599643655028,0.43237071919973,0.548125702476359,2.0846503791301,-3.33254789353558,0.146082262977733,0.701350726168848,-0.626461559592938,-0.121756753908092,-0.874752810229194,-0.285310214481475,3.02363704442686,-0.29758402686092,-0.80999041132565,-0.168145711932438,-0.0710499460284536,0.212391749485589,2168082
-0.574411808981829,0.0295687289086573,0.0576559102102907,-0.252925865190502,-0.132926682962588,0.347460930552553,-0.256905501332815,0.331618882309787,-1.30005173731302,-0.340177728585907,-0.0741756969907273,0.475755287098861,-0.348832480585701,0.176264639894521,-0.14271137813584,0.333913922144784,0.0267912417922047,-0.101097858608035,-0.00447656152496285,2075846
-0.620838150899398,1.05861681888954,0.0792210211098541,0.617606083210346,-0.0823005010966273,0.109095464286621,0.407919747602963,1.05275030721937,-0.366576648264332,0.349750077753079,-0.0323730136304835,-0.452956825960688,-0.367044884760964,-0.264609235348908,-0.240633141467895,-0.97822810482189,0.676143834176887,-0.262430914197043,-0.0620732358581598,215131
-0.431457015689682,1.16678922620221,0.204673934388577,0.0884662682107763,2.29293220975993,1.34024091977055,-1.97054408924318,-1.46312035357372,0.24461932286986,0.756820297420296,-0.391121494750645,0.904492609784645,1.1906908840615,1.810243173703,0.367605572565753,0.718294455176625,0.26335476458933,0.624805204268283,-0.622780765629414,2274521
2.2482630202975,-2.468380397628,-0.337052290264385,-1.25837177822967,-0.123895035079178,-2.42438783648794,-0.419694166634571,-0.426587955541492,1.43183825210089,-2.15760455171151,-1.07402776420484,0.782192031885716,-0.514281537209772,1.5601937326783,-0.362761010707449,1.14406765806899,-0.073259497259513,-0.273819440501717,-1.28274964293499,277752
-0.154271320233638,-1.30359746347459,-0.363597760624765,-0.332746327779401,-1.05536217579476,-0.514539464305574,-1.52600765409413,-0.608413769533834,-1.22101672806011,0.602611711099366,-0.0445037864895152,0.266977567087122,-0.960259575507604,-0.837266052531258,-0.364482637138018,1.8289303584763,0.676648198929327,-0.442138015319332,0.575016554161385,2078899
-0.224277083765604,0.511895695587914,-0.784988936322662,0.29817405705942,-0.1711705447244,0.656573445059791,0.703688280603795,-0.981568472560149,0.567423104693632,0.70957022475919,0.33548348463141,0.0233262685463906,0.701911417629163,0.590930138369444,0.145506975904726,-0.772415165531874,2.01114495142867,-0.106886449150888,-0.0757361456520367,2172217
0.977350640997729,-0.183269685156877,-1.11703717999171,-0.32429330427601,-0.280947286482367,0.190886683285,1.38492256423386,1.43439481564061,1.07260813124296,0.0411241065825771,-1.66080532572342,1.56567844784342,-0.136071660687182,-0.106192961086649,-0.338001288361086,-0.080864963493276,0.964798777140414,-0.0592351588090476,0.00844994644212652,1614566
1.49765582797917,1.35179472689959,0.00857264042762193,1.26475670518015,-0.880334607584394,-0.527272938295378,-0.147842887962763,-1.18826075717166,1.22895305780932,3.23246528609622,0.0610121017750184,0.0332641434959871,-0.940246179911028,-1.08467429416036,-0.364449455715015,-0.410456582449105,0.222246410376259,-0.5030373972415,-0.607613938159238,2100050
0.716953317617407,0.824357800111317,2.23488429132144,0.19648804056039,-0.0798814207133476,-0.142890364357319,1.06024041693079,0.295814649511298,0.911002914187465,0.070210270835276,-0.231889286915892,-0.211169856904976,-0.196324456814217,0.216369479111195,-0.347765097338624,0.542171270301921,-0.46155655359385,-0.11055301165146,-0.179166037145686,2183291
1.16661506644094,0.077106155869615,-0.278062389795671,0.00909489907955929,0.906055364585055,1.10742980564192,-0.770560483489761,-2.49221573043298,0.587437835395433,0.496269080933645,-0.480996566527502,0.248910228211872,0.500564174909383,1.57615093131219,-0.221072781002105,1.612402632873,0.445655180190811,0.978748390783262,-0.126069906322688,2336735
-0.403326863907103,-0.273866198453837,0.0316271376740909,-0.399124233395321,-0.430397153521201,-0.239821437701066,1.40754020803385,-0.09813586817874,-1.03674604752471,0.127443823836205,-0.210618925972263,0.233671502532343,-0.593475397657186,-0.899227931278466,-0.35431280984667,-1.06715887705454,0.0672248197590654,-0.25514411799025,-0.00831861102392159,2352038
-0.412758012942025,1.15772393745647,0.166999803601558,0.291200568305781,-0.0325460535424024,-0.547688404011764,0.266371596754796,-0.300434550014329,-1.11079114613269,0.964350807993191,0.178024275768819,0.486677020267391,-0.572793743578745,-1.41424939392346,-0.32897465369577,-0.706638731306516,-0.415626152254398,-0.148411418918285,0.290355322080458,2305114
0.261795981271619,-0.309426988103371,-0.771182066867707,-0.316519006839705,0.633818674163378,-0.441367692437975,2.08255130273341,1.46735563340835,0.372553370622553,-0.250280881193916,0.367713347853202,-2.31796026926003,0.0994064740530544,-0.212050288757875,-0.1655794581844,0.0125264088618511,0.875363326926808,-0.154324162609887,-0.081960275702498,2448298
0.584314569432533,1.37317041453511,0.119867175680612,0.0806944519537955,-0.554332622791075,0.88566833156024,-0.557577017770134,0.109121392294014,0.797378838926412,0.763544355751601,0.0426485932931586,-0.0683211445223418,-0.774142337803769,1.0512299752713,-0.363184047887836,0.996867854026648,-0.207020318913997,-0.261825084942468,-0.614679781718973,1329352
3.27506151463431,-3.35374138887136,0.022451806889341,-1.32605147593102,-0.806243300776957,-0.0379087888796614,-1.04528626509552,0.00229973467769559,1.25015102721321,-3.10491500875475,0.255624489405868,-0.444333179821461,-0.808512654464169,-0.495466468979132,-0.36408691195873,-0.396836883408422,0.0012932650030709,-0.444188565757466,1.27289090435876,1183075
0.0820629408495887,0.183952796019421,0.338418505437705,-0.00811264880873919,-0.0883599144151046,0.477879660966752,-0.32285489887176,-2.00388131282202,1.29636325434638,0.684539562988152,-0.345576348691812,0.178454088473324,-0.260091656906515,0.384264706691597,-0.336660615372015,-0.456056660272779,-1.92356827826651,-0.222801340940264,-0.328401582376076,2110540
-0.509643773233784,0.109164368258643,-0.482502472930738,0.0255860520873956,0.0939002712200188,0.452962952376114,0.910098040848273,1.23989767787285,-0.00625865661209844,0.0315083570154898,0.796681417998415,0.764042506286667,0.662610142833465,0.284275471600433,-0.0249520062944544,-0.269584883113902,1.93754064240179,0.202047637233751,-0.0187280990455954,2070958
-0.890517408566817,0.477769931764751,-0.0966411107989837,0.143744075697529,2.48290651616111,0.482313959688555,1.0529858161501,0.829360502678021,-0.628024944927959,0.00182851215370275,-0.137285506027207,-0.427726963756079,0.611814569954011,0.335455314643136,1.23090929660028,0.535555987910735,-1.21525867685697,0.46225238846881,-0.419060098363873,2340155
-0.510360653139465,-0.414832165971283,-0.525560312955534,-0.209051439726417,1.29747567700415,-0.0284754489030873,1.38565816729712,0.0471853830537282,-1.55750043520655,-0.254643868375159,0.349944966686694,-1.55204771691178,1.11533413343805,0.552504005638726,0.18801073919594,-0.358115475792707,0.330456760633853,0.272358754272127,-0.344124243110859,2075832
1.62792772832618,-1.77964506460804,-0.349045186812477,-0.773252799756383,-0.194023119155623,-4.07443032948019,1.1126239086279,-0.00487138515977967,1.37740719211826,-2.54175141116353,0.04231975377349,0.605722774467787,-0.629962032892632,-0.0488962405502439,-0.363527371133798,1.16974287237405,-0.0586177534914983,-0.393281893845181,-1.50192629018026,2498991
0.534430913775846,-0.535520885448692,0.326667959441422,-0.129195488754457,2.84862605439727,-2.8447495924768,0.818668559315037,-2.28540464463455,1.39507087058753,-1.37676512029275,0.489925929396291,-0.985952956155418,2.62970934698018,0.906235001373543,0.344298988928826,-0.877314036564938,1.1042945422921,-0.307934389025136,-0.0368965577513502,1919296
-1.48561680343856,0.593161247618034,-0.0922001598216824,-0.17135263737718,-0.303017154813083,-0.0403697034290163,0.554654988189363,0.974184396812368,-1.24705091059951,0.532058904767385,0.121549390325205,0.325728190470277,-0.253526943483952,-0.48569998504208,-0.0990307862397657,-0.202937569816994,0.487864841237539,-0.139348351624323,0.352896046056643,2401405
-0.674022348917838,-0.630663208178252,-0.00999690992260729,-0.183786267353268,0.705489657848346,0.422597156879839,-0.135816075753061,0.0622569434660856,-0.846905755115678,-0.632618710674876,-0.0350345196210052,1.10399213888805,0.446534159501393,0.647065106155702,0.317114700133169,0.223033598756985,0.256842703619557,-0.220442832396832,-0.00429434085868709,1644034
-0.921549994551146,0.64359215894096,3.23628761884772,0.521818307941064,-0.413378911282932,0.257472979462208,0.0265015328686583,0.403872396969049,-0.423481497936075,0.563793586946415,-0.241373672519865,-0.368960073915153,-0.449944465521996,-0.00183422098762025,-0.303033222331618,-0.89136450213173,-0.151800005219682,-0.22550199214599,-0.470264135728669,2405144
0.216749617600253,0.34595157301212,-1.92571611651387,0.115457686190376,-0.042942889696655,0.0623565378683851,0.906911667663666,-0.501994542674717,-0.229757226645543,0.408718967834221,0.463965333247084,-2.34979733405459,1.09987326712508,-0.300386976907673,1.34940745410807,0.51422667258214,0.526015557970425,0.0351911684045702,0.0309356883958045,2158329
-0.873421198090106,0.286058693846257,1.04673101525956,-0.116896766190975,-0.326341582577133,0.1477490112258,-0.341952291952068,-0.598712288867475,-0.936721222095066,0.0738523618522782,-0.0782477878748598,0.0838784600039888,0.251681497925804,-0.0782581840101818,0.305407256188886,-0.411034336369733,-1.82319460572058,-0.184970508330257,0.140812399823832,2319068
0.380714644028799,0.150014822641005,-0.125312365834929,-0.220683809896326,-0.511192454526107,-0.68211071042445,0.298538262745869,0.301453038632234,-0.292399661113431,0.49414234283275,-0.0157774722772212,0.49740533244551,-0.517652891262196,-1.06865298425223,-0.342412154410856,-1.02670080912446,0.404346800371492,-0.215970029865919,1.39837845012934,2504802
-1.95023674472403,0.308423483586112,0.015142164434721,0.107498471077684,0.140927510128929,0.168681786815854,-0.62603045758017,0.178818114215913,-1.84987178685459,-0.0428016922409359,0.10805577691659,-4.49189022257064,-0.231676709573214,-0.00567126898831291,-0.211285613049186,-0.346512817645497,-0.135348879046966,-0.00357524192130141,0.19363940760599,2331869
-1.07683360106001,0.893678774100565,0.508483247766297,-0.0350066133683888,-0.457430403414813,-0.389359201831344,-0.323956210301026,0.383436499215565,-1.89234404371109,0.0642576725515303,-0.24186304677144,0.73586291659176,-0.511134554300855,-0.924862295809691,-0.268134122121305,0.677844883627719,-0.458013515622179,-0.0577867434137425,0.191972764738635,2317120
-0.351586621412778,1.25946902658105,0.0719858480384477,0.389783499494144,-0.720697147073002,-0.433971990843136,-0.374333664290576,-0.408898356915476,-0.704763621322148,0.243028946130153,-0.198136783184752,0.473285604796718,-0.797193519777337,-1.00467613545102,-0.362685402555358,-0.242861215370501,0.446497379564181,-0.285370182393956,-0.389507976574079,2072215
-1.00723848543121,-0.203260259234373,-0.370142334088268,0.43346775491522,0.529037933749922,-0.0683316019376631,0.753579203754837,-1.37726103324407,-2.93471152458172,0.296238575021365,0.0109384102276928,-0.127105638981846,-0.291548066713262,-0.553588276894376,-0.309762650286611,0.385423233083114,-0.485256796135786,-0.07078621246002,-0.202835564199465,2228400
-0.272675640427125,0.224789460783336,-0.685529976457635,-0.0568727848880921,-0.765041872397962,-0.00182270057781939,-0.290612513372321,1.92711289824191,1.32637306901345,1.17836982906416,-0.359162597192705,-0.662335271101726,-0.723845862781643,-0.433165575084675,-0.362539651929567,-0.751319500685886,-0.32665969858578,-0.406126418005213,-0.778357955670471,2145166
1.40014206423594,-1.00586860264455,-0.358697305111539,-0.617521998372817,-0.282031008821008,0.322974275795042,0.0738050089377379,-1.37616649500903,0.630406129721386,-0.597843748721882,-0.0769527138088086,0.66513099214435,0.306855506823781,0.0389189118902169,-0.0190523751899811,1.48025416810115,-0.0851525051891666,-0.157152899562686,0.460461328376987,1692385
-0.351687857300128,-0.415209483474642,-0.29073469493027,-0.129300750907605,-0.088053085638773,0.50743491908934,1.33131810775743,0.156819180702747,-1.50090226473087,0.168768131711112,0.205502633099552,-1.72329485111006,-0.314599282371434,0.273220855048348,-0.335060664701444,-0.470706120713163,-0.228166669835208,-0.164350699961173,-0.526662563620208,2109902
-0.684444252406026,1.13919370612066,-0.222655766642361,0.252645968539894,2.12012145912909,0.338088464171667,-0.0510215257863642,-1.14501114312109,0.965248005595392,0.505743987714419,-0.288595436351617,0.497050747574656,0.688273317652308,0.434268830081256,0.355811433161439,0.61172434596434,0.574675234559674,10.1775936548727,-0.510598555364835,2219842
-0.0644590241669493,0.174821834335873,0.93548581060345,0.221307459938064,0.0961738868287604,0.874790220274001,-1.37092894852501,-1.08280045238382,1.03790387999394,0.457598270396985,0.538674766312857,-0.572399211487994,-0.0266745828967286,1.04922688628729,-0.322500393125064,0.674629852987046,-2.27406267934574,-0.156616443294224,-0.0330795977189542,2520618
-0.286112868589247,2.63979255179997,0.242676710542073,0.792548623878152,0.133974906752531,-0.576103469022642,0.6518755875646,-0.319414356177503,-1.07678678984435,1.3998214523214,0.175843169270939,-0.581622125656383,-0.389205905072129,-1.48510828532832,-0.285139947797224,0.109668083872367,-0.728037783799806,-0.331813789548815,0.117889724320461,2419459
-1.02093060641204,-0.903310356271105,-0.774144983176615,-0.0932684632634258,0.0441468865021647,0.607299778302915,0.267360559970774,0.752215759473447,-0.781613464628563,-0.285345527050271,0.511593520708444,-1.56340591253052,0.862261874562771,0.522069506786815,0.0867555735938655,-0.609672931386538,0.0986898369737257,0.378259758335183,0.379404876546097,2276121
-1.26902755638532,-0.0221186829810184,0.0170142016067489,0.0745284957713797,-0.465815260928294,-0.0094409398974254,-0.542093592977379,-0.384497060303844,-1.00852470043843,-0.388056265574121,0.0722961214497792,-0.496705189289415,-0.842389331829782,-0.329747201705784,-0.363530015790353,-0.806431277246971,-0.800540582951097,-0.314329410072094,-0.685218341978236,2350037
-0.363043619230406,-0.630592705452328,-0.543279782747525,0.572381616926955,-0.864556364842738,-0.489315735652049,0.31270822110664,0.846727324751211,0.197492512911284,-0.087317490437162,0.260405795432198,-0.493738784246191,-0.185872755880651,-1.1419522019889,-0.193499728627277,-0.888655006171606,3.84571367017172,-0.264235477124289,0.402470851487996,2001182
0.482231552763242,-1.63909150010362,-0.919793743741011,-0.0836919059086461,0.696772845077577,-3.48890616804967,2.44768888417757,0.359698641251268,1.32864397377056,0.746667324634296,0.0335887722983577,-0.913435431824731,0.795504304224886,0.212466751386697,-0.317712555433681,-1.40274894112747,3.24671039459852,-0.240601667474385,-0.268401807903698,2278618
-1.06942889091337,-0.236455272179381,-0.0322490676660558,-0.151303247656671,-0.456948180263336,-0.062404680544475,-0.234182281014518,1.64284230913049,-0.374400738844069,-0.229071894013104,0.153446677206921,-0.0690669287437742,-0.842954126970753,-0.376918135389326,-0.362670572650666,0.0553796066481959,0.496685400433836,-0.309585648255493,0.0943942037373082,1740845
-1.14506580232841,0.144019927073688,-0.136294487335915,0.031935046264893,-0.419408596274662,-0.488748146617592,-0.194544119272211,0.462998297956286,-1.70547337164513,0.444125088288886,0.0177355891848704,0.029607487245325,-0.657774435403051,-1.17418212647335,-0.345704648972165,-0.401003508741894,-0.233624598503137,-0.333964753034227,-0.325265595935795,2321962
0.617620979669765,0.285707187528794,-0.126822037577675,-0.712676364006048,-0.600035018757517,-0.320436435736057,0.202445150252891,0.867412013916846,0.192842810135496,0.041614831235146,0.123513861433521,0.404447494462592,-0.731152572351117,-0.99050628446204,-0.357749197046881,1.08120888114279,-0.156931006260331,-0.294782272758813,0.325773456237675,2212664
0.161243468942049,-0.807399917551158,-0.264561120400914,0.10787849161788,-0.574962631677276,0.168962316034488,-0.966029547662204,-0.772465018174819,0.745579982667554,-1.10149269344189,0.0931334740276532,1.43969084604543,-0.71080808082098,0.0238305871812939,-0.360313767754946,1.18140840374202,0.027402829523223,-0.256830514151989,0.780580725706984,2453577
0.393598418741992,0.0502119839720208,-2.72606304944827,-0.166291289340659,2.56706317164551,0.601083283934109,1.08913022682353,-0.562631697358827,0.75306365333684,0.0767545651798826,1.99669445046708,0.363979793733009,1.496611230628,0.442813778644056,-0.236962243588819,0.242656840743483,0.316267878872023,1.01559852726222,0.276591455352788,2224150
-0.513964821204167,-0.317008868471657,0.0346428606803736,-0.184653434156561,-0.309278747204507,0.467821790784274,0.951876932826512,-0.312841964847607,-0.662594157456524,-0.36220344756899,-0.117270693936289,-1.16095792667437,-0.104866468200691,0.467824329065214,-0.10776336042496,0.0938121373036125,-0.458029300929549,0.0618251740126637,-0.427676294213043,1967281
0.924903763485932,-1.35038693863207,0.00938607213108619,-1.57460437734721,-0.735549225200872,-0.0827425220732131,0.130526213049912,-0.672318444104256,1.2169518751795,-3.33859606767713,-0.0418798297722904,-0.137133452400256,-0.907904620192139,-0.667076626570687,-0.364409885179472,-1.0490072082894,-0.253821997870194,-0.41363330435748,1.89133401113964,1742294
-0.771468086603339,-0.445018962607396,-0.151299175600653,0.0733373470981468,0.920296915349989,0.288874355821125,-0.911066091653403,0.563034857109292,0.00781094945986252,-0.117918153648852,0.0681625465298218,3.0483232038527,0.245988222684541,0.132871002660602,-0.0241211532816354,1.52807604960489,-0.816712409876108,-0.258261717048682,-0.496917361550237,2488660
-0.278238860603398,0.573051529648274,-0.406735393344784,-0.133136718589048,-0.825630854982412,0.408801913038003,-0.0288009868005636,-0.249702150517491,0.762655588381816,0.470347489311765,0.157503453943211,1.50747278227435,-0.572330726577678,0.256954150861654,-0.339234849526848,0.644790562262853,0.156986011589197,-0.338291421425284,-0.378096363915985,2085349
-0.339415923702762,3.13179863031995,0.186239183128272,0.0213159746935402,0.347132058406837,0.0447739906011681,-0.956901020117614,-1.03453061903874,0.705478944260698,1.04667703689037,-0.288754122559884,-1.37350744216829,-0.630174018201408,-0.213636882875637,-0.361402128467404,-2.96273635474796,-0.844858331381946,-0.408711117908689,-0.670988091087439,2247869
-0.94042645515445,-0.553503178955727,0.125710163650648,-0.192960164749148,-0.0128993746468132,-0.273522938843289,0.752934427393458,-0.84277825031297,-0.483011960210506,-1.07531267755812,0.0300226023771705,0.528507159754547,-0.252551131120446,-0.260676031294339,-0.281716502596919,-1.47404037638049,-0.588945049146318,-0.124596757830503,-0.495193125938243,2157529
-0.518140686814722,-0.446645827193494,-0.621344883620125,-0.109701861720499,0.26905095159789,0.387963162541058,1.29165080909097,-1.72044134623172,0.775695588851842,-0.233257727189257,0.198231837487788,-0.603741301641091,0.182535999760279,0.129544134571298,-0.28645825186678,0.240020413661569,-1.59188964467002,-0.176451336719164,-0.655382949492126,2119177
1.55635729989923,-3.31815448290984,0.363678891477458,-0.437149498793822,-0.332672661725356,0.583500487449191,-0.674710577946365,-1.92176354285977,1.32761578266969,-1.58184241654001,1.30897261642397,0.287254702295721,0.131562587943791,0.456864194285044,-0.327109525947112,0.0119359103694605,0.0896862854555056,-0.250148575508211,1.62682513093432,2010554
-0.639464373961201,-0.650995613321219,0.226314964437606,-0.210545345982384,-0.315673098210495,0.407990720592881,-0.250725270335001,0.180226375196369,-1.15498783084923,-0.487236144002218,0.0183156467748507,0.90773979221747,0.00321101848006742,0.270115936747454,-0.179557755797307,0.497874537352137,0.0582702989318554,-0.17938887104238,0.0455995389970445,2493534
-1.1912160240189,1.03850269750375,-0.018518699064613,0.525688872499578,0.462565497550222,-0.06883973014408,0.755249893677495,0.624786792572183,-0.65441384722942,0.67952599278774,0.124248210272218,0.299347789966137,-0.162886086457568,-0.48961293374587,-0.147799074149888,0.467686894999331,-0.301063763015453,-0.204211711096312,-0.0770875465431363,2200813
-0.599842932671166,0.605374825171401,-0.026888902998242,0.599091995698685,-0.895774675294156,-0.636745802604311,-0.952989288734596,-0.288867299597577,-1.95238345709251,0.00347090021148673,0.249656217268168,0.679423171595859,-0.901938121664183,-1.21240124271828,-0.36397380530438,0.597098675391266,0.832070809313845,-0.300763590160505,-0.576017037699478,2116787
-0.150576833234459,-2.73139611179093,0.79782721537334,-0.844514461119013,-0.404564673893253,1.86297815176851,-3.42042176681083,-0.836888542326301,1.45754253519481,-4.23251029417174,-0.47903946654996,0.336187779823975,-0.743583487415934,2.68473623893215,-0.363882156680031,0.0373621807057951,-0.469134570016261,-0.39277560442849,-0.279626830703723,1154608
-0.751054417405464,0.313709696382279,-0.210338862915589,0.485974622148633,-0.306160766675256,0.042493832757224,0.215314964196467,1.9024600420872,0.0590964790635274,0.262916254260495,-0.0562992365056836,-0.562701000665417,-0.704944442178888,-0.289373747409587,-0.35943507914438,0.413835131768108,0.477294759840698,-0.22738985853231,-0.574006459483138,2267382
0.0419303534009883,-0.511326476393087,-0.583379847261554,-0.0800399429155277,0.523946648857201,0.590055045718581,0.48326707238924,0.313585481232511,0.503504410974463,-0.127213164139712,0.123438410816138,-1.03379746373823,0.540282111896214,0.404148485391506,-0.0457064964593283,0.10386930371314,-0.864531735671461,-0.18897808569783,-0.0261857243108539,1181124
0.268363069358073,-1.6468723860954,0.308950731350567,-0.835660109545191,-0.906234946673136,-0.620015642070262,-0.22881500230272,0.838625075011635,0.457854792037843,-0.211475205570755,-0.860673120325781,0.932109877482848,-0.856071194270236,-1.31824215426397,-0.364428291707174,-0.569813008691923,0.511940698319243,-0.35325418374723,0.626119495152277,2137799
-0.581232494933121,0.0208821300755131,-0.842358325346116,1.06253977393838,-0.790723970946485,0.200580103066024,-0.888394707960011,1.0522673150653,-0.515920834735789,0.656978542089482,0.0724067513438429,0.234774451705446,-0.526566352001702,0.0178871974332766,-0.332620413352076,0.408791679896262,0.590058695558693,-0.341766793580827,-0.156931936185752,1458656
0.99250802687015,-1.47239366367966,-0.976602255891786,0.135255477882788,-0.497595607014902,0.59057030629188,-0.925597966278837,-1.21606648501807,0.98585669513445,-0.761401409438411,0.677208127156759,-0.485576622984997,-0.437464209726629,0.567206016020698,-0.359297799419495,0.199005832763814,-2.62724129699969,-0.126176001632062,-0.694705527033693,2269346
0.391300613254764,0.0852570670548642,-0.167924123315013,-0.0443550525998457,0.0516179541710693,0.521587153237532,0.662621723136128,-0.326599089188972,-0.187022755470082,-0.0647751394264692,0.206540476485916,-1.15822266873389,0.22846578576993,0.409373900652423,-0.103556218796476,-0.431072201758101,0.7517964956977,-0.0808981313901029,-0.00713506461172566,2092954
0.184600535502701,-0.252008623677939,-0.488818613389867,-0.380525098360331,-0.297395194273212,0.315581358023404,1.08998949810399,-0.0184701388350147,-0.400100401897111,-0.140558541341973,-0.00718891765028031,-1.78806107971882,-0.262967478777094,0.0114264181685144,-0.286620868218836,-0.362677182851299,-0.68350537854062,-0.147808792725172,-0.3944869793875,2007309
0.789264853061679,-0.274565806102566,-0.0491808220624167,-1.17535869305371,-0.802942296988508,-0.631304066737098,0.118905443512326,-0.71499978728172,0.607070645193748,-0.0725800669153172,0.153330346618312,-0.476075710790196,-0.767380280544445,-1.40794195595026,-0.363282279215898,-0.395644841128077,0.014327192291741,-0.463807851296734,-0.119602936649438,1671370
