pgsalome/predictR/output_NEW/signficant_features_results/os/pcaFlattening15_mkm8d_gtv.csv
"mkm8d_gtv_original_shape_Elongation_250","mkm8d_gtv_original_shape_Flatness_250","mkm8d_gtv_wavelet.HLL_glcm_Imc2_250","mkm8d_gtv_wavelet.HLH_glcm_ClusterShade_250","mkm8d_gtv_wavelet.HHL_glcm_JointEnergy_250","mkm8d_gtv_wavelet.HHH_glcm_JointEnergy_250","mkm8d_gtv_wavelet.HHH_glszm_SizeZoneNonUniformityNormalized_250","mkm8d_gtv_wavelet.LLL_glcm_ClusterShade_250","mkm8d_gtv_lbp.3D.m1_firstorder_Skewness_250","mkm8d_gtv_lbp.3D.m1_glcm_ClusterShade_250","mkm8d_gtv_lbp.3D.m1_glcm_Correlation_250","mkm8d_gtv_lbp.3D.m2_firstorder_Skewness_250","mkm8d_gtv_lbp.3D.m2_glcm_ClusterProminence_250","mkm8d_gtv_log.sigma.2.0.mm.3D_firstorder_Median_249","mkm8d_gtv_wavelet.LHH_glcm_InverseVariance_249","mkm8d_gtv_wavelet.HHL_glszm_LargeAreaLowGrayLevelEmphasis_249","mkm8d_gtv_wavelet.LLH_glcm_Correlation_248","mkm8d_gtv_wavelet.LHL_firstorder_Median_248","mkm8d_gtv_wavelet.HLL_glcm_JointEnergy_248","sub"
0.69847015605371,1.10620067850787,1.09844659474863,-0.124807983878425,-0.818657444796983,-0.835269306558935,0.274212048143207,0.0456089421642231,-0.0612956149658992,-0.598579376183397,-0.432804249039148,0.707824131864517,0.338921085968465,-0.630957651014558,0.923545594326147,-0.235770551133365,-0.406443556756119,-0.706800719684909,-0.671133914159267,1085983
0.962137579248856,0.796438141055738,-0.767245908827706,-0.0981191345019383,-0.746397959645352,0.153453203872142,-0.861291887887181,0.111245525692746,0.146968673327752,-0.302755531586833,-0.67511832956415,0.638392232576238,0.624210774913364,-0.279913278432997,0.247035724937966,-0.214510088383827,0.857026927043473,-0.238402290690937,-0.609814967317264,1125173
-0.8858295034978,-1.6700560069843,1.47820735587088,1.67885850127614,-0.708461689800375,-1.20827523386217,-1.24353239231808,-1.94794082009422,-1.54736674467655,-0.175691525432438,1.09604803335005,-2.88201098958513,0.488640141535927,-4.06374169052977,-2.34846987621735,-0.237357716285126,-0.41454367910533,0.456514285986712,-0.453871743815919,1154608
0.623014364482949,0.822227092376877,0.0173196822868225,-0.147937216479997,-0.0352047067111012,0.306156001806203,-0.0372827685952761,-0.353882261203667,-1.65109472521173,-0.784490427204673,0.550073875108045,-1.52309176961711,-0.736636624412324,0.273578420598661,-0.181340910917371,-0.0637726266683398,1.43519603158914,0.250162580473266,-0.507988597206503,1181124
1.17941388477205,-0.241603380840388,1.29086377065602,-0.244634331275894,-0.546248712991578,-0.695934345895214,-0.622745960172927,0.0680215953974897,0.50494274098295,0.681690407089302,0.0765461131982661,-0.0551550431124529,0.148906566136123,-0.764409823793637,0.865055836270545,-0.232218173638736,-0.707123613982873,-0.775004517955406,-0.355728534189452,1183075
-0.643321885140262,-0.347241854915511,1.2674793726372,1.73545943589762,0.21531634751891,-0.360860031058537,-0.946482097961019,0.0937537168077046,-0.371128867233202,-0.895626713254779,-0.527952668474999,0.310346910381738,-0.259720675584539,-0.562271262450675,0.0472827372410486,-0.146098718990858,-0.435282744573183,-0.48426837233077,-0.153868591759801,1232870
0.753640874637782,0.738301545200129,-0.993968646583137,-0.112274643009316,-0.720184584501957,-0.760830491499092,-0.0565316077820013,0.326269170619765,0.0743095685370388,-0.181985706843562,-0.469182082610384,0.874200168917229,0.258214325158283,-0.608076925331373,0.489309976957638,-0.208911600139048,1.63889027522911,-0.959812202939788,-0.425476337805446,1279943
-1.48853422497875,-1.60397004644515,0.350608715686288,-0.178406173166225,-0.617725566583245,-1.15246359262992,0.164641481306333,0.0922486474735969,0.313768911326677,0.677514632522637,-0.702281664147929,-0.758888098974815,0.361177377990959,0.310633661859573,0.948008684910161,-0.236324500386633,-1.27727435947929,0.53407867761929,-0.235910625785987,1329352
-0.447657071602672,-1.37603671622577,-0.840391348449318,-0.125557261127918,-0.235050444994967,1.61811601528363,3.13950404320663,0.0858661933643861,-4.4321138796334e-05,0.0147575497178447,-0.109687413276703,-1.07735243356945,-1.19485530772201,0.264060245014981,0.533177481565525,-0.209947207681803,-0.217227690196768,-0.373581238359815,-0.225803128400906,1330263
0.655066831636685,-0.578075999521888,1.51149159841147,-0.039501444544088,1.97903161129347,-0.38950328797296,-2.57100151546758,0.0742396825437974,-0.690464023725401,1.40329983953102,-2.72752804704626,-1.06187532752409,-2.34799702659432,-5.01988428575039,0.289559116255071,-0.236933023796834,-1.89485317145839,-0.358256118237597,8.53088992275005,1364384
0.363635750342831,-0.943475186393943,1.49382471136777,-0.0480837952116569,-0.42190882798218,-0.761744610390855,2.02632158342506,0.0813619871910098,1.67231349106985,2.70396422179923,-0.692388149907859,-0.314890223723451,0.519202043770909,-3.31704731356228,0.830556226584443,-0.236189525311258,0.731182656457988,-0.520452995870284,-0.105960383712427,1386095
-0.362001457343579,-0.982195069017342,-0.0599667010448167,-0.16119798791838,-0.839481388767664,-0.802181110290111,0.23099208848069,0.265505876051053,0.698946928545566,0.538906799211583,-0.606219012372527,0.512187614922936,0.588147888735067,-0.071289785285971,0.580103656300671,-0.237087310188152,0.331104489017852,0.180563317677439,-0.571015120945001,1458656
0.146635415210695,0.532727165187558,-1.7638449551217,-0.123619226407421,-0.248664642241282,1.07457659951133,-1.40706819252055,0.0691762562831209,-0.309522470334875,-0.592865437892046,0.0584182702482292,-0.230305211391644,0.0510159938259454,-0.110546032542315,0.297328825791227,-0.0472867682943812,0.240546192595294,-0.0330252593508493,0.623108828484896,1485662
-0.378308628064865,-0.213830036761333,-0.944549063833378,-0.113425058970074,0.143059008607522,0.373492694058972,0.126863119640983,0.269264398401447,-1.91907175124977,-0.616624063772453,1.62511185258945,-1.93336135864343,-1.04762706392518,1.19206255420712,0.538134834020875,-0.0703292472557944,-0.176466180728939,1.24581436800665,-0.140882310345769,1497807
1.46732281128987,1.70581052643604,-0.835134865415418,-0.122642431233802,-0.45363520076578,0.820269044534769,-1.39837286814726,0.0801650706991767,-0.0145541257581918,-0.100316568413971,-0.672535358420476,0.607238701554189,0.131138022852873,-0.273575961809774,0.333224633087965,-0.193081047445865,0.204673523366027,-0.302438346202181,0.112775923781164,1501387
-2.11439199153579,-1.33821568673436,1.5002534036591,-0.186734871432471,-0.602902009901982,-0.223228946641923,-1.78023015879772,0.0689702914203759,-0.553261145985805,-2.9371300219114,-0.166392709306131,0.545508212444877,0.0159779965107619,0.984709299901924,-1.86237756154494,-0.237424404683532,-0.269779722754972,1.65068164336782,0.0624681107002647,1518948
1.18685892917443,-0.349201686809449,1.05568168403753,-0.278631962154253,-0.611007474788236,-0.994149964420991,-0.405954680553757,0.3170747163299,0.419662199762469,0.179459204753653,-0.258486234424528,-0.439298077537524,-1.16795126852852,1.69352093796645,-0.0531139763881336,-0.23434189047314,0.319326611905194,1.31121408302597,-0.566278587193532,1526417
0.353180363437608,1.23937153475419,-0.116454213376681,0.0954344573877153,-0.83220586844304,-1.02287424862568,0.224195693981156,-0.903082838041723,0.6019855773339,0.381596549904724,-0.093402524513692,0.492800158907616,0.569690890412991,-1.39674287587779,-1.17889641945137,-0.236569032290218,1.0763647599904,-3.58003514861601,-0.465605440115297,1565177
0.44411516853019,-0.0479086016323747,-1.58312660571801,-0.122544275753419,1.77043447091331,1.30819661153975,0.346492358936087,0.212937755129271,-0.0797314794465769,0.231139860059654,0.732620850588284,-0.852844373371535,-0.826037697657583,-0.406215170401441,-0.219608540137732,2.5774286989504,1.18357199725661,-0.334312835809377,0.926503036170611,1606693
-0.520238955852486,0.403256439431639,-1.07462956100717,-0.12610027381271,0.034323818233709,1.70121259577368,1.35229405602974,0.0887701009439848,0.628351155689719,0.336824091228393,-0.475528650061325,1.34357360630012,-0.483671703207428,-0.187006447977857,-0.108750787513796,0.172781202055155,-0.633576536200218,-0.337038791753361,0.195350329068483,1612262
-0.310872187356838,0.430438044809545,0.272828436479902,-0.168333457710101,-0.207587334387254,0.357082404438526,-0.332349020290312,0.130860176051446,-1.21302382636947,-1.15852281723639,1.23541378481264,0.177454972382439,-0.519501799098107,0.690943016079509,-0.235185412826023,-0.223633618949949,-0.112421308861823,2.13189399243876,-0.250560548743384,1614566
-0.32339521099519,-0.715574095612324,-0.983076204259665,-0.123586651685944,2.26574108432592,1.78338114333376,3.75676531228801,0.0720006612411798,0.6004768324467,0.439243488587154,-0.430490029658219,-0.632553240481308,-0.110662790562995,0.246006504442502,-0.372788599493983,1.06687778737401,0.466695088983078,-0.17582260575897,0.214574142896877,1644034
-1.01341278083625,-0.840884954206186,0.370168976493854,-0.115910618984181,-0.802348837667092,-0.675699060194097,-0.785931374391432,0.0523178530978191,-0.0016884451839546,-0.599045260681753,-0.775316418869346,0.608804872888348,1.03045625591898,-0.625976141742265,0.742904700945673,-0.235803238441601,0.857943009270277,-0.584177664193873,-0.571005171570423,1668599
-1.33231230633857,-1.05973398640578,1.51717541961398,0.484117705409186,-0.776443073069846,-1.16672037137842,-0.962746627590889,0.0295461450075223,-1.00116151819987,-1.63483210809868,0.250094898316017,1.20537870358594,-0.25732386367543,0.496803310424994,-0.214980259740305,-0.237995538750103,0.0202690577716181,0.637059777284297,-0.353344803245592,1671370
0.79617137603312,0.439891853901493,1.34000119616108,0.124498431403967,-0.656485319277617,-1.26329652870105,1.18279302438244,0.0958029062473667,0.130588055542111,0.0974466435545375,-0.223457433683322,0.470319705203713,0.336373816976033,0.0415885906040072,-0.391332153244484,-0.236395829892677,-0.724473393353511,-0.0781446325597513,-0.480552528612625,1684230
1.21009201148683,2.13895556958249,0.0370842715080548,-0.127200059684224,-0.123959728412026,1.49632069664118,1.73048905269794,0.0827309253466844,-0.400089625493226,-0.00489711896466755,0.927629595884358,0.560398604436563,-0.0794786583533203,0.0026963803007606,0.140064648344129,-0.159403491738158,-1.19746689595899,0.461809344838368,-0.0360311474940896,1692385
-0.328802924185343,-0.59684527512536,-0.456377850978138,-0.0202558502326904,-0.0423281509898429,0.317918058436835,0.899233946130236,0.265376274514082,0.117289305870456,0.124525421542294,-0.448089491832009,-0.865803420939912,-0.112562394295374,-0.341671993993041,-0.443765455196823,-0.177066459391268,2.02403694414369,-0.464988636310566,-0.193865811004535,1720713
1.13386657406349,2.27236949683126,-1.3098073289971,-0.0926679733134013,0.608219304911922,-0.148874257196472,0.453516702568967,-0.0449574872008186,0.171991468765573,0.150680132872446,-0.258984728430445,-0.379088179170794,-0.0533686710937895,-0.840573682223943,-0.163801721975526,0.0740652991111508,1.05848597119549,-1.04189574398567,-0.235364342330414,1738800
-1.2927661108235,-1.04667599375971,-1.34238055995063,-0.143932982361055,-0.353430905585906,-1.16419583755459,0.679281579012111,0.154612701887572,0.590140766916815,0.43889311532089,-1.31517425634129,0.0647003386037796,1.08796081821444,-0.526067890317294,0.751295877386779,-0.127687593907555,0.482083276491588,-0.62249070276,-0.481749575016102,1740845
-0.364968697797447,-0.38251068760625,1.30919310163309,-0.113888548837386,-0.707949557810204,-1.27219575731623,-0.349419049756532,0.0801851148093399,0.62958424217505,1.93876331808342,-0.0337818715610233,0.258180649945522,0.105654191640478,0.220089553758236,0.209252543492679,-0.236622668207962,-1.2133235507482,-0.222152320561763,-0.234002300995626,1742294
-0.278366282503119,0.308141245948789,0.822316963096243,-0.0514985954478785,-1.02159027552468,-1.20213302922839,0.5243849316893,-0.0744211417686464,1.31636585205279,2.02852759541979,-0.68059061569647,0.530730562110466,2.6678641081664,-0.595040282362426,0.105314904950544,-0.238142114011239,2.15137391872878,-0.0548770571427002,-0.520925800872031,1767700
0.346343764089411,0.146638646983544,0.34823388168116,-0.119826573830561,2.73063055912351,1.19723302948992,0.577472397640151,0.0851682162500573,-0.324941997771721,-0.0409432919508024,2.58712606265285,0.017117341998523,-0.986653820204372,0.636092655208211,-1.25692206005758,0.286411453659746,0.189352096532939,0.449589347442487,0.0146467520236882,1768972
0.344240716889966,0.00696185386081,-0.0696927105332212,-0.104525132211186,-0.719352949596113,-0.411016542967277,0.430318948795019,-3.2393032314239,-0.191544383771396,-0.452833858567958,0.65334871777063,-0.112310447811934,-0.402952117695332,0.613357323695876,0.279607640366753,-0.22475871984609,1.97885908857854,0.228476434736438,-0.307582527974218,1889409
-0.577509722958234,0.442788700561938,0.137320338240759,-0.125661956870967,3.43120654629779,2.27759005597125,-0.0102775743905726,0.0733714954170351,0.268446676890977,-0.659760066783283,1.68790205785642,-0.600597324604165,-0.312356830081501,1.29011934040038,-2.59977289402902,0.720440405764068,0.540096451063281,1.81596861668733,0.287989095670981,1915938
-1.03786059356782,-0.985615695821922,-1.10410505108875,0.0139206195573558,0.0114299554752894,0.323580997007199,0.273817540909649,0.115868548414196,-0.623678176500994,-1.26533800872209,-0.607559021317812,-1.67429453578596,0.282557091803216,0.172718362049597,0.345521368760858,0.141164712845463,-1.25849814391583,-0.402286762486527,-0.429042543125948,1916742
1.8427269248102,1.24703259868161,1.16537537674596,-0.114656931777385,3.94178665114197,2.08798431001873,0.798372091212692,0.062999744511122,-4.55239767888204,-1.96282692142258,1.3889691305064,-2.61155174221906,-0.908946274851434,1.85858210757301,1.45943849489137,0.173774646559503,-0.0125988187188931,-0.0741560395945517,0.279431096225092,1919296
0.771152517679206,1.73857332311571,0.733789157006451,-0.123310167154957,-0.4819474343139,1.25019946819083,-1.08847712852826,0.0874845233473614,-0.39971819789984,-0.0989067076959645,-0.558984934473732,-0.040267744716626,0.40620743405916,0.0497707019759101,0.780601239542128,-0.230454207118369,-1.91040206903551,0.0801121242838575,0.104704347938718,1926770
-0.834611120491842,-0.761800223154846,-0.155577202808285,-0.0388400019405254,0.280242727596561,0.485808278422338,0.405578478178603,-0.563426329953406,0.443232644460579,0.318917570502331,0.900798976447071,-0.138943961284366,-0.503182398633657,0.40237192803095,-0.488746162973421,-0.134968689752081,0.320419264683838,0.0915670503274066,0.0903976769017153,1938156
0.416692437082743,1.2562956144084,-1.07751639599781,-0.122131494642275,0.512591581414344,-0.145325950845322,0.636003767961029,0.0851609778597918,0.0890715248673361,-0.0866418607163556,-0.0475131111017525,-1.19834221093223,-0.341185217629684,-0.320948256570356,1.15973987664326,0.52950835355751,-0.0532488526940319,-0.228558017265067,0.34625458710399,1938561
-0.382074986644887,-0.361338733660135,-0.523263715641802,-0.118522049700602,0.325324130424036,0.0646678111706697,-1.79396572568008,0.0837860269704815,-1.31683555472035,0.0720919860512311,0.31637362982053,-2.75348020081008,-0.63292107084827,0.700167630785526,0.441677374298716,-0.130637366259267,-0.910425657720142,0.270110997587937,0.582447784697425,1966316
-0.547924233463134,-0.335140774967176,-0.914632388772482,-0.123980850257497,-0.139305257518239,0.842813669391886,-0.77901270395985,0.0652768882249828,-0.341278488090639,0.297985024182735,-0.452026443280296,-0.552228399334285,-0.414369102196655,0.307289118934577,0.778554597213001,-0.116332357989039,-0.696525906578923,0.349038948991602,0.7663101662477,1967281
-1.15730347984324,-0.280617972851056,1.07434627888381,-0.126997028380628,0.24065262026433,2.04804616484636,-1.44787697990749,0.0910376749581208,2.44140202100417,1.95832388818063,1.90632805604739,0.0953236876612645,-0.799584768041249,-0.39553533206169,-0.703741499451178,-0.204834380815556,-1.83462376264668,-1.5794030622516,1.09318093811794,1973544
-0.21703094704056,0.427454114694408,1.01904695444928,-0.10215116416385,-0.62445505175648,-0.77902998978797,1.02515685320079,0.0765118250705376,-0.247672451520726,-0.736679425582657,-0.906239826491415,1.05722150135397,0.611792409827038,0.00397985576589392,0.690810763271119,-0.230969665643904,-0.599094899858418,0.560678798258876,-0.466055466083795,1975401
1.03252010456709,0.509930861525611,-1.40342472296057,-0.120064744665074,-0.458013109681508,0.329417716136009,-0.682671252383031,0.0906976605120967,0.812804465448062,0.660588176220501,-0.554624891205611,-0.368820502023481,0.86455966828748,-0.0821070281230463,0.402834711900619,-0.191796336645979,-0.0104975963400222,-0.44036326370395,0.0193499547469873,1976407
0.0351420845702384,-0.064073624996048,0.583582257639706,-0.12464435650055,-0.55415840341964,-0.592153823188894,-0.355301431714632,0.0836989810469632,0.607584227339283,0.842546688399992,0.0454430282576061,0.798359050085675,-1.09773663227038,-0.464024632074519,0.862376967443011,-0.235118128172567,0.87054964115259,-0.285651602685989,0.269981029571793,1978972
-0.577341057944758,-0.345372093150059,1.05572886255679,-0.123501321961281,-0.108958876595376,-0.0993188896997982,-0.746409925690892,0.0774637641029837,-0.94728243914834,-1.69654549889061,-0.367137630245563,-1.51911047287131,-0.280558062866105,0.459660749187371,0.518234027767898,-0.173443576067724,-2.16266234452146,-0.469574299212915,-0.435929576670662,1979045
0.0236697483678978,-0.378005160806538,-1.82241912867046,-0.132112141094129,7.02862626487962,1.98624317496632,2.09722359492164,0.075380997658779,-0.218935897916419,-0.440386335734388,0.813535051000537,-1.0378364468341,-1.21555077679424,-0.140050868353661,-1.97014128068551,12.179009431989,0.390804437989967,0.544473133516107,0.944201145800968,1979422
0.343070831821898,1.05766164775072,1.45765429728848,-0.185841251440342,1.30997929658705,-0.193073066026452,-1.81915781810917,0.0703331486518572,-3.11869839324853,-1.02240645524898,0.211940798583819,-2.3493797632977,-1.71521695119814,-5.09094062613012,0.803236304638951,-0.217738529355609,0.439372185424397,5.94849872259287,1.70389496060829,1980052
-2.19121090030807,-1.43450092633157,-0.898928311756577,-0.132277369302011,-0.825212757064429,0.143786241037439,-1.30223370467542,0.00803139103136768,1.12103130327325,1.0310592354421,-0.692930564937872,1.25546960630043,1.23329322100342,-0.653278861053183,0.520748450910566,-0.23438456995494,1.42686769678774,-0.738823363046694,-0.417999092000434,2001182
-1.22181136349908,-0.453477607326258,1.51997699860574,-0.239511444923113,-0.655714659590307,-1.15797953803195,-0.890440475727459,0.0776873733403266,2.38820086382634,4.14357048611074,-0.932903334438319,2.40537042634459,0.863445469828917,-0.0509289370461191,-0.0899814059538286,-0.237782780219266,-0.660845901317849,0.506148287198801,0.506040037694624,2002465
0.372198135177628,0.442172552647169,-0.129640280289058,-0.124152227602146,0.109762059544629,1.98278439780305,-0.0439713104573754,0.0847663376258746,-0.996910657531608,0.103483321083819,0.992354796600599,0.597973550571875,0.156045680810264,-0.228675919479623,0.0300317509381217,-0.155774753414471,-1.35475289522283,-0.680636582665118,0.118395450945773,2004451
0.647199389606937,0.772404288106745,0.0437429235890392,-0.0818964231691229,-0.146094918906333,-0.71661783677707,-0.333483170495083,0.094508196599158,0.146692531727042,0.509474197634605,-0.603134988965869,-1.38902234125934,-0.272680195471853,0.211754058541957,0.395653414673718,-0.209053067683384,-0.199204417102077,-0.185222595231273,0.00891518113501776,2006164
0.514079988310174,0.746043146170833,-1.22588727508786,-0.121720112691531,-0.267205423470068,0.0338641564854575,0.585818811336683,0.0269094556001394,-0.353918318660233,-0.325282687574418,0.32614771029016,-0.409818280212547,-0.535835932475753,0.179897918455018,0.192890695085645,-0.144298694351935,0.201316948344793,0.399062678024873,-0.340723882300653,2007309
0.885186056919769,0.486699643587093,0.0734442862600955,-0.117568668115099,0.903933114129295,2.10412036334795,-1.11509933974154,0.0927634877729129,0.392535147604076,0.63378387936946,-0.139320751866781,0.651981962231653,-0.778228985005885,-0.677522004945896,-2.49914922416192,0.677547471833843,-0.00929351661907884,-0.341750644109185,-0.325334629756474,2009915
-0.450471195547387,-0.234061239857471,-1.21508512492877,-0.151350527768107,-0.594703299928799,-0.599758901222932,0.234076549132706,0.0932301433132768,-0.544581893235642,-1.07549550156879,-0.425844419686903,0.180302987228136,0.596494933511534,-0.16265471309328,0.381023788642816,-0.20944831095215,0.704305844678133,0.0489518512470502,-0.228616917657037,2010259
0.585254796088233,0.43034206122469,1.16733033154299,0.0797109604224513,0.234053421013235,1.01103273623352,-0.320500485586489,0.0899071610873694,-1.87941156805984,-0.693190628636449,2.12184943023949,-1.25390045790295,-0.528719422786122,0.0715199050520358,-0.954647049019191,-0.2102342500278,-1.05961385211686,-0.341612508380937,-0.381084388020326,2010554
0.678192645633134,0.478817889294204,0.286038353508952,-0.269472502018307,0.190416762884513,-0.835709571058945,0.611948698915643,0.16887122509759,-1.66249184676881,-0.724182573349716,1.64792338911386,-0.847124851160497,-1.01904624026439,1.00106976630668,0.319788291328814,-0.204888908395718,0.320293993398372,1.14292099256345,0.432944206198344,2026671
-1.58854706210476,-1.03515676602848,0.864137084690134,-0.0603261538857132,-0.76312544826901,-0.714480183217188,0.000474050860058037,0.0756452342583008,-0.830359098807038,-1.54307298430952,-0.561217122561481,0.531518551569404,0.638640832410047,-1.03934817364131,0.877990205603495,-0.232667649944431,-0.220678776935674,-0.859439380654925,-0.611366053362981,2033049
1.0466531711338,0.776569667685776,1.05774954122685,-0.00711158998632587,1.68483154869036,0.193488461679234,0.575618129601494,7.6233691950645,-0.548120435310176,0.339443417030287,0.429354535468237,1.26524737482678,-1.50882207821799,-0.49439110424022,-1.88500626949697,0.165001955333172,1.52889678416746,-0.526500018971778,8.37804888300805,2034136
-0.00270695504409918,0.153303632369458,0.74027516941807,0.116695581909341,0.382595480254581,1.18750253123837,-1.05722496753876,-0.305525852926861,-0.960243818966521,-0.581224698981952,2.72506357182989,-0.0959989105775062,-0.991657941543133,0.816216625140228,0.270465677023983,-0.11829959995575,0.76311345063531,0.695206175267658,-0.52808358027814,2040495
0.302764231776339,-0.0731567912313076,1.45794947473401,-0.120153493237355,-0.0739639494716184,0.629777762778783,1.06792197974711,0.0845250719075711,-0.596305721506938,0.336011021348809,-0.14235567323761,-0.409770516560804,-1.59472612194967,1.38430441427699,1.17913428638084,-0.236697642300164,-0.0728932629842663,-1.51152796384758,2.17095009558271,2047354
0.788102502295654,0.454618051219092,-1.27197505505599,-0.105299639968165,-0.371007026383433,-0.382290420956501,0.525426165973494,0.0812252953502793,-0.410717331921294,-1.1386524393687,-0.532248088569683,0.0426366593073064,0.445539997316613,0.322091986560492,0.604877130367999,-0.185515305460106,-0.729977069638744,-0.145009727732923,-0.0239593429934298,2051378
-0.198209299264224,0.0714198307559272,-1.5331404159084,-0.11172877074668,1.51825194587029,-0.0839756140056737,0.656432795770883,0.0754046444819748,-0.457712899830017,-0.178365524800341,0.420173586612759,-1.3611728753509,-1.20501875216509,0.676503231415822,0.441189499554542,1.2250410740981,-0.639250717712871,0.444644653547454,0.296989423239719,2055667
-1.58528290215196,-0.57374190885243,-1.65708063234065,-0.13845080395853,1.05206018693434,1.87666972414915,0.50143963108224,0.0721672297269783,0.223881514868844,-0.198206212661996,1.00221529824172,0.487880089502634,-0.867930896491187,0.443583260324073,-1.72749973514404,0.840548736893911,0.544875753528565,0.423216937428175,0.474802486419862,2057358
0.510499569468789,0.539081283123891,0.592882855920275,1.56347847803312,-0.28658436507807,-1.16049108122999,0.414695864817005,0.0858054566472343,0.432212759281093,0.199798122576184,-1.32448076592261,-0.81670810705186,1.64519845410425,-0.475019987988023,0.541255679698505,-0.144462205469551,-0.26271786146071,-0.244478932907367,-0.209278094504917,2059713
-0.874997442682632,0.0647948177149462,0.852146235966729,-0.276244331684503,0.734996165307617,-0.127700729694071,-1.55653906649229,0.268794018835806,1.23615443576522,0.756797162150344,2.57399390376383,1.53232973385093,-1.76373702312982,1.97912624727715,-0.45621538420857,-0.146064232781331,0.0516454338439033,1.41861530435718,0.356405636782084,2069079
-0.234723487803068,0.520089656951165,-1.2160577285619,-0.122851151406157,0.207981987656011,1.24157129626974,-0.845882228847279,0.268876108732633,0.422674754751211,0.389615418299375,0.963875027357827,0.807817013832182,-0.918373403823833,0.23583559041905,-0.249595796714897,-0.182302323905174,1.87900401713101,0.486035414872962,0.280572986834948,2070958
0.637006286057911,1.21540810717446,-0.461472069543384,-0.0641439930380257,-0.414633885059571,-0.795174936031609,0.122914040164706,0.0921528023574046,-1.06428511156177,-1.80434801860624,-0.426948240296313,0.489599522101918,1.11422980095948,-0.512209637618687,0.945714100006531,-0.186096637674866,-0.576283852203389,-0.419228364299273,-0.247347990375013,2072215
0.0814454885282906,0.570864953549801,-1.04255052165518,-0.126084991381908,1.79496666617164,1.0783679849803,0.23141759315218,0.104840241870509,0.677582504776722,0.578436271995065,1.85795615448901,0.141987694422312,-1.48874842169344,0.495388959337545,-0.175168113099208,0.419790313904053,0.51558885298882,0.257723752345226,0.401818782337625,2075832
0.518945383196301,0.737617989760641,-1.4984642890973,-0.128123518709079,-0.333751524350245,-0.363353318510966,0.280991119687325,0.0874013546447917,0.0887301507873202,-0.22035626639075,-0.506869183721988,-0.182152634139448,0.063565257317292,-0.00174236033855233,0.375812403034737,-0.121749520571246,-0.105623224692308,-0.0391717174588131,-0.128222081975545,2075846
1.43976150825143,0.471198225516391,0.377968292088422,-0.121669561845714,-0.98718269158358,0.526738024836476,-0.40051279329273,0.0910701105932788,0.179388129044222,-0.0183281563834717,-0.955031446231222,1.74693453724133,1.46264095470724,-0.202659485435068,0.300558990259941,-0.237906512955492,0.295585089218068,-0.591049451234961,-0.564208462832982,2076301
0.93375773319947,1.51168731831603,-1.312698121231,-0.100865911872245,0.465018438016563,0.568341513989116,-0.0727276511662947,0.286066787910122,-1.16608191215045,-0.586549899854318,1.75059266348465,0.111225751947639,-0.732170270441314,-0.185351571942608,-0.206232734871949,-0.087306070748468,0.228503815360635,-0.247583590194427,0.0362965948101483,2078198
1.08052341945232,0.282082302169222,-0.699699645552303,-0.65954443380469,-0.997075226663911,-1.50195851263517,0.442986406101707,0.111248314432484,0.676040165459996,0.53224911440341,-0.981085079736827,1.38551815550261,2.087471263774,-0.521901484258813,-2.40397719066869,-0.237707461469939,-1.26331603440766,-0.265280068022963,-0.717601088080469,2078899
-1.47592074322733,-1.5128820344396,-0.254380742057798,-0.130639861073861,-0.632099859282069,-0.481942707431092,-1.03705897932186,0.116226776588949,-0.068282941399194,0.0283600232791487,0.346148808864272,-1.19296587298913,0.118229550052514,0.279995768112113,0.676267347853893,-0.231309461073332,-1.09656581863684,0.029822873225008,-0.268643680695584,2085349
-0.963367336552622,-0.865925462163489,1.26562010351162,0.434564407705745,-0.701236073613168,-0.903875562224801,0.58462275936578,0.142164907976562,0.659076201587986,0.746777203595548,0.600622976458944,0.500408178363894,-0.583685152910248,-0.256475750016784,-0.154492292685376,-0.238013573533896,-0.110137278414654,-1.05789878749657,-0.477801709070879,2086044
-0.277441920443354,-0.639969979047102,0.1663550042446,-0.141204089048497,1.68805601317447,1.21720218396343,1.80021246834691,0.135738794640343,-0.258789448269919,-0.447733325487556,0.977077071927076,-2.5832494897103,0.124374681956038,0.260686575556272,0.044010536752822,0.0401760266613158,-1.31221095515648,-0.290920785330228,-0.193468775956459,2091555
-1.2288434823846,-1.30091134352397,-0.719710756181271,-0.122723516738942,1.20130368767277,0.820902940975454,-0.303121897736611,0.0798908932129455,-0.209168027046393,-0.237056764138819,0.670430089514509,-0.15443482648964,-0.195827476828744,-0.543510569926082,0.490101421095163,-0.0466347581328966,-0.558067424218789,-0.119987756534847,0.182815585358259,2092954
0.811028516226543,0.341945804417394,-0.485775784622651,-0.122964879675927,-0.716951485098608,-1.24185624336725,0.590269107209349,0.102088737818103,0.501479690611701,-0.0462026425093224,-0.908037347536654,0.659906948821869,0.819657631822878,0.00366891436708921,0.654639523327784,-0.22638280581222,1.24032654019285,0.0568242025212737,-0.480636817901113,2096627
-1.61723324137741,-1.54680000823308,1.49850961302069,0.0966836156270976,-0.889609449317761,-1.44249116090306,-1.18216111326949,0.0942877001352567,2.13320742103975,2.75948272908881,-0.917831993948536,1.9105151593815,1.51184172501243,-0.916154354111257,-1.81265119060924,-0.237826722213951,-1.46598000162138,-1.70620747183027,-0.457698609314493,2100050
0.65107443659903,0.347760754540267,-0.769138983210069,-0.14059184293137,-0.369558319567849,1.5636095807313,-0.458469851704711,0.0932781013478997,1.28782489227937,1.41465069373333,-0.323770447649865,1.22244546098254,0.0108419717383339,-0.163694369360894,-0.801247832925491,-0.190338101779385,0.512924887180608,-0.143411231945881,-0.35378589364096,2108003
-0.579137527617302,-0.647003672373744,-1.02116252788296,-0.134082843544791,0.177842818441552,0.279941271492542,-0.0587552966907684,0.111277279037629,-1.16457837346504,-0.330193248819374,0.66339850606829,-0.871105065670542,-0.895434638009546,0.322145022490356,0.41283914152753,0.0568129143238668,0.618623724166321,0.41770524983879,-0.347549984796207,2109902
-1.00870233100653,-1.1419123702386,0.86648339569107,-0.158540154255576,0.350759400002579,0.396116612825763,0.221761599862908,-0.924990912199075,-1.02364563951741,-0.183742412152225,1.22385068745886,-0.410924702146545,-1.21704009637958,-0.589383936346251,-0.0960926874769684,-0.198127586937877,0.280100217258763,-0.885306988527786,-0.153093139334758,2110540
-0.282689237492029,0.898159705694384,-0.981601110297236,-0.125312510238786,-0.946691549101139,-1.45227330733111,-0.61379106115151,0.114397037918608,0.237027414704834,-0.281445207127137,-1.0719344115419,1.21070279609499,2.1514653095049,0.00296612121891832,-0.98966085455229,-0.237458830643135,-1.23129031373519,0.312675375132012,-0.499864613120003,2116787
0.596201423943628,0.13822047208558,0.407544696468809,-0.843334635499945,0.173936988473061,0.157078462519405,-0.532331737294469,-1.17996017993108,-0.745977897770831,-0.360561952149218,0.312878370661634,-0.182295585173031,-1.01171192360076,0.297289476084292,0.115387098570967,-0.21680842429296,-1.04258362846058,0.162635394627525,-0.379526747302586,2119177
-1.91942972262445,-1.55187043980609,1.48636944931781,-3.82299471164264,-0.41789294336171,-0.41835125960274,-0.760967432016815,-3.59145831761928,-0.45101932562978,0.113982610876714,2.32988887977792,-0.540113262293443,-1.2359586191654,-0.380014601213098,-1.73181481286389,-0.236135170885044,-0.85975209663611,-0.303343614513846,-0.61092656186299,2131601
0.175738352897081,0.106031187669125,0.472721573635308,-0.142509829130094,-0.902915035295854,-1.05925209600706,-1.97640617311224,0.0722965445602381,0.639641242222313,0.508842586455193,-0.753999875852856,1.28251540164901,1.59941867545669,-0.187097300702005,0.485292780439285,-0.23772346968527,-0.208636558521679,0.474898162217778,-0.285227292252265,2132424
0.392679323655687,0.511034793104355,-0.842211491839549,-0.127412301632436,-0.611007995862369,0.0163856411118485,0.307380466325751,0.124748100981921,0.384238472642435,0.0819992807835802,-0.868893471152834,1.33484762336043,1.31705863338482,-0.337788833785955,0.765313030657467,-0.165688579448681,0.666878616772202,-0.366861625028023,-0.480197036150965,2132982
0.759244580460027,0.573837795299104,-0.63650430818033,-0.133160448305893,-0.470828795343113,-0.191148124624492,0.0805787080380962,0.0777136977310567,-0.325770508402187,-0.910929632968731,-0.476442400331839,0.329838990641819,0.34170981972018,-0.0882601499780508,0.722850594189404,-0.200704383247509,0.0260093571091297,-0.08391310964733,-0.122251637877388,2133204
1.62063023517723,1.82316197968891,-0.633775004385891,-0.114172189978979,-0.959955681932657,-1.53605268586686,0.0237642374620438,0.0786107843280335,0.834233760146698,1.22339059854377,-1.08872425887627,1.39745836275863,3.90997427393302,-0.514291126445585,-4.29033215823994,-0.237935641126755,-0.272868691776522,-0.172978594466969,-0.261520764764351,2133380
0.461584670197623,1.5677657101161,-1.5820187808689,-0.00592438531773517,-0.915505079565007,-1.48408914113288,-0.470871472542261,0.106442629071741,0.357329917386835,-0.204340192221926,-0.649307441042444,0.591600484609533,3.22736967559535,-0.25360322388635,-2.68060744323227,-0.237615744416889,1.24237504664555,-0.816792354393539,0.907076567707746,2134220
1.66246866076595,2.15395465938949,-0.0720744738187349,0.859896675415539,-0.106812246601167,-0.433748281886582,0.601640573059485,-0.00167589063752962,-0.156553346640312,-0.239306371830241,0.126407561078068,-0.865551757384849,-0.676445855835678,0.426245609147499,-0.0416035341430947,-0.219284276782972,0.557946871183654,0.620351083502084,-0.133874752331841,2135748
1.03170229872514,-0.216163063505936,1.22085551610808,-0.0965654445181241,-0.905067219234171,-1.27919220859375,-0.945924813481567,0.128915698785178,0.496398916886352,0.255151763596143,-1.07620130792704,0.994308223929214,2.19947433817433,-0.422614720619608,0.680139833920893,-0.237936675750639,-1.52706048614905,0.246448463698781,-0.33689265868153,2137799
1.23099825543478,0.936222166486533,-0.585994483736987,-0.0755758110733689,1.04218439822531,0.285358644605056,0.688351728545581,0.202384011587652,-0.697696464721819,0.0819489867835556,1.24435182258157,0.665774837086672,-1.34125992149834,0.515220104147487,0.14416907627441,0.105597319222796,0.936538079919221,0.0330245856831867,-0.00670891017574345,2138375
0.404945351629495,-0.309558549851542,0.0493004123815192,0.529603697314256,-0.402243996236765,-0.141796831520091,-0.230187929032891,0.155967552767471,-1.11549426746909,-0.673342890125482,0.603914770343359,0.00022939108661571,-0.74114759627048,0.224649719547821,0.0971197395633123,-0.2208667848047,0.89837453196474,0.843984948314422,-0.430143578251248,2138678
0.711154850993972,-1.71187627432904,1.1978171426841,-0.248347527515037,-0.408328496257821,-0.395938511250502,-1.56434915396557,0.309860251922496,-1.17275640473607,-2.41217269777884,0.120838056680799,-0.738327463196583,-0.708727269329049,0.587748929433243,0.603868923081215,-0.235856512899848,0.520622090990866,2.40540862993503,-0.173359454594724,2139733
0.828222250128241,0.338523578532022,-0.0981201344360751,-0.11527776736619,-0.717818312375946,-1.28813857422206,0.12628721794218,0.0685509461001069,0.292213484424999,-0.262985831380466,0.260350186361936,0.422864086632777,0.228489001773528,-1.06847254596929,0.0517504095518591,-0.230640251976855,1.6464569572579,-0.711218325762638,-0.341238653864984,2141116
-1.16997529686111,-2.43244707845226,1.47239542951549,-0.1780665946185,-0.904274313855326,-1.43201664737209,0.10640583209259,0.131346790190562,-0.683829349150692,-1.64081798199017,-0.669166843610279,0.407835184329154,0.744743338495804,0.720244785990763,-1.64296816177958,-0.238060407841255,-0.495845812225682,0.197873491988044,-0.318031615967928,2144796
-1.21213826956798,-1.66087365449925,1.39833275409894,-0.13135400100562,-0.627125300700418,-0.734281575385409,-0.927911917148187,0.0682098429356157,1.20097316888295,0.83759219094548,-0.643024148763023,0.533407684377319,0.300585805899925,0.308120313291248,2.1000642200629,-0.237379101084124,-0.0176426864706357,0.0587390640339509,0.268450248176731,2145166
-1.94533783358834,-1.45270728113733,-0.774634965709649,-0.116056851211949,-0.637988871727751,-1.37535345974075,-0.723275758672916,0.0942264960596635,0.132699518386689,-0.449487751327685,-0.967992989805235,-1.02222561717542,1.73114079349607,0.130242186925497,0.79191460980432,-0.234048552721985,1.48304583549356,0.9193458617551,0.071930450045234,2145694
0.256617482807473,-0.935682879270665,1.21940562450991,0.116577139175855,-0.720337979329895,-1.01523557784504,-1.61956306012741,0.0841542125500741,0.0414811810370268,-0.276409052445696,-0.969760699888957,0.510861679383983,0.435821111382201,-0.328521334209164,0.593587060436352,-0.2355476199325,-1.32936980389904,0.378996748574675,-0.631684468223912,2146138
-0.150842105640216,0.476463923880031,-0.614588770817675,-0.0766169220574174,0.197791830680809,-0.754050134995887,0.324228086938993,0.0981912523657594,1.05388396926487,1.4021695601976,-0.981734745856863,0.403191659153744,0.599180757819515,-0.29197161867208,0.649033763168715,0.0222047836827892,0.496834719871338,-0.33205395926164,0.0822735878146934,2151024
-0.676020906485583,-0.348384838551272,-0.50793513926855,-0.131939250923425,-0.140993065504559,-0.164360018536889,-0.137189713214447,0.074302944175136,-0.316059179816073,-0.550487273887439,-0.760361667784483,-0.556850419851464,0.149295487293953,0.250957180431793,0.119355859761297,-0.10426748885165,0.556064054380053,-0.17177601019436,-0.271355949363973,215131
1.18746518944587,0.48542790691272,1.32688885042853,-0.121426876841751,-0.651742170686781,-0.84887202020071,-1.21293766379543,0.101789218062497,-3.16672388010982,-1.6762275992233,1.38532140389564,-1.05328099461981,-0.467753145137262,0.265602907874286,-0.774924208586591,-0.23698137386032,1.23142353671009,-2.44592435201062,-0.0675481279271483,2152442
1.54085505221775,0.850062014786956,0.376938772888523,-0.126693741208594,-0.150988416655841,0.0486275323280172,-3.11176518073725,0.0731127159326981,-0.000443832843409816,0.528217570360557,0.273726918569262,0.166515198811639,0.988083164184485,0.630277723116202,0.783597578210078,-0.231421671027905,-0.658444331890844,-0.171080001165208,0.523157224898064,2157529
-0.127979438218689,-0.727749079666295,1.14467926116771,-0.134279556581639,-0.637745211394154,-0.1583305302229,0.103548971337105,0.0749664847840822,-0.893243719888167,-1.49658729308822,-0.474781336794142,-0.499986455963187,0.39642153961115,0.150312157387004,0.450423962116438,-0.234931760381718,-0.446885191333116,-0.634613248807282,-0.464292842064286,2158101
-0.266789248160318,0.170673210039386,0.800973919547757,-0.151508411497876,-0.460506726276333,0.74255735779388,-1.40800273604145,-0.157549652730121,-0.111554710938942,0.179632200482678,1.51271404940197,0.528408784895778,-0.91532033563722,1.23577387919641,-0.964176714689876,-0.235745846045866,0.0915209856166885,0.554180911333085,-0.487571198787475,2158329
-0.314425412825082,0.159850965595553,0.559789407537282,-0.122013513913769,0.64633392029855,-0.105546483001918,-0.664798800269571,0.0761588636963014,-0.498524684666563,-2.14353985111384,-0.955907143474536,-2.93915919794485,1.06579433406901,-1.02018014192184,-0.717623483440807,-0.107622640205833,2.38994283962103,-0.287137174038948,0.411290747739797,2168082
-1.26339605153975,-1.14296012443341,-0.48507222591578,-0.123396443801738,0.148826705163889,1.74344147625694,0.917994822810808,0.121606631884875,1.79049366810655,1.41114386610692,0.329668739156172,-0.280632669035136,-0.654884355677205,0.369271724226646,-0.841720393509498,-0.0845326938251828,0.140674886948,0.73177449808153,0.384883521714722,2172217
0.643908338073263,1.63327776812404,-0.667176615615366,-0.13997973502319,0.563722841536684,-0.34178813298077,0.213987932870066,0.0694569032807738,0.684080382022844,-0.31772814024843,0.743862378404819,0.722631183730168,-0.8395854222033,-0.323925289419247,-0.177516982654303,-0.121754108153335,-0.281976561248766,-0.96945193796724,0.197830258394982,2176530
-1.17609751493327,-0.521657464953468,1.36465028310063,-0.812263559064967,0.200434903413063,1.37017719517965,1.06792197974711,0.142386933938887,2.67899154506017,1.19567515520806,-0.269482236554424,0.453958452990241,-1.71688723542397,-0.28691360380394,1.52252534763855,-0.235064194505029,-3.54339663578718,-1.03180041039747,1.04271083967273,2176784
0.613580800527581,-0.132764810793344,1.12807097483865,-0.0786302948889416,1.73578404083597,1.24703427345609,0.133311426873899,0.0579453180883688,1.30417809031813,0.948676196681378,1.39952268942108,-0.670972361183477,-0.95181405074233,1.84034502188044,-0.45647622219625,-0.166587818290307,-0.178665843844221,0.843355098153914,-0.0331417713172738,2181724
-0.404479952618977,-0.0868651303122379,0.802067634983191,-0.0278211218839307,0.0522014572602874,0.13757514104269,-0.220419043013757,-0.640506671297509,-1.14309630853241,-0.375252011447168,1.11185218115401,-0.514277190933163,-0.709038357546244,-0.769926812612429,-0.313967585612624,-0.157112567226501,1.35391805190129,-0.863861851681287,-0.33971684769974,2183291
-0.485987197468912,-0.856257366456982,0.339760898009908,-0.12683129770668,-0.436131285675409,-0.312229789255116,0.107852724874293,0.321433752609776,-0.817948691995405,-0.330371330800141,0.604629757827625,-2.27536708792387,0.377411182721372,-1.92714701208102,0.639137411971485,-0.212803203856111,0.454833740865146,-1.39389647586542,-0.607025474814598,2183356
1.12577796179179,0.430046711793469,-0.787061973726521,-0.123255004140484,0.373518728841312,1.14291239890574,-0.452998498580903,0.179031332233676,0.0491805280263622,0.671775499443905,0.96178845646363,-0.26623169433081,-1.21014656006402,0.92830268180144,0.272704083289719,-0.0986281904060776,1.17322533807748,0.597635652050076,0.343071729712416,2185290
0.389588823223062,0.927558975875454,1.13285820201797,1.42239640706282,0.684280899609017,0.55722066747109,0.890184607311679,0.330826352656212,0.00746262773231818,0.0569323554957431,0.71322587577212,-0.659447533063418,-0.652174170916063,0.476348136337988,-0.684408544656785,-0.229135266649412,0.504494691117816,0.570465080167223,-0.204954150256242,2186951
0.542405279254365,0.151820853091267,-1.27212427531171,-0.110174827701552,-0.607796032432788,-0.531064131069666,0.494396682335969,0.133105800578644,-0.333553471558906,-0.49761784804147,0.465627528233946,0.108211673388868,0.0677103963082592,-0.147397268818374,0.0534999098931465,-0.20443646726538,0.767749988830833,-0.0885274524746461,-0.460514636159514,2196212
-1.31588969450682,-1.35350026963594,0.760638492651022,-1.22517843329537,0.723169203315894,1.40539529478037,-1.4896274833925,0.366854248950716,-0.333011711153036,-0.220979641228764,2.17483497333666,0.79601772485653,-1.48725824251607,2.13731605915335,-1.06941383769902,-0.192210742547246,-0.237362775428673,2.42380828677396,-0.326977062144208,2199403
-3.09632341471798,-2.96958333153507,1.47604677659224,-0.114045773548442,-0.585098072676476,-1.28851800419087,1.4206112737544,0.0737954244556045,-0.376602314639774,-1.12896722486019,-2.15894388391655,-0.023007348830027,1.95409384715921,1.12854464967277,0.556397557896734,-0.237512630876441,-3.09423565549512,-0.577503261500175,0.16964138227333,2200416
1.08340670556585,-0.413388766583921,-0.38331474896493,-0.071215755625721,0.263680026502604,-0.162868689100343,-0.691331344364974,0.0924700184779193,-0.0703650971179048,-0.33814470739201,-0.501044222699628,0.263803937525578,-0.318211453899147,0.147127318495891,0.447136446827147,-0.0913684704525088,-0.112295675751305,-0.272055124038143,-0.264970230887194,2200813
-0.565318058793912,-0.188506419866587,-1.65479256188322,-0.139906838990199,-0.556020281833891,-1.13938687091873,0.0566181177514511,0.0623475554857133,0.645056172457748,0.2473834723201,-0.317997023277083,0.0472437757939709,-0.416461133252045,-0.035842942817668,0.533924173337667,-0.22619418560223,-1.18938287861605,0.292348090445952,0.0968185552559016,2205389
-0.969638558416546,-0.24541719093878,-0.833667655074741,-0.0543270881426654,-0.508397116666095,-0.752090032818601,0.355546368459582,0.087589857864375,0.496427196315589,0.55199972103002,-0.968199314599752,0.656128843134523,0.270361086123742,-0.0698758515695271,0.807240954554939,-0.218318467141054,1.22870457024195,0.216159271350562,-0.243695434093823,2212664
-1.44436487196656,-1.0676863355403,-0.852242166310042,-0.113100019718107,0.415700700872672,-0.582114457473167,0.86847663285984,0.076591447533196,0.0764568722482267,-0.640630929361423,-1.18033536145372,-0.400683021273561,0.955603532582581,0.473894412198964,0.498623835743975,0.105707938481528,-1.06296820354619,-0.409344118505028,-0.192896659976633,2217034
0.691709785097993,-0.71633635215037,1.16854803140221,-0.113646386127271,-0.16048761544647,1.15374628901989,-1.38675455620354,0.0788908414395292,-2.60203977271831,-1.07204380752038,1.51149178606095,-0.676449306108494,-1.33529190350581,2.36221582901096,0.991846134018003,-0.227150260198159,-0.375463710015767,1.84926445810916,0.0477049847822249,2218615
0.862790503302103,0.125613307763027,-0.349789124230214,-0.044072943881049,0.931839930911156,0.679625560815168,-1.16038860437951,0.128551601250684,1.22350336964126,1.53873146247213,0.869252898847859,-1.00378144104864,0.779929213653404,-1.01685378444778,-4.05242025389987,0.216045902393381,1.15656621350608,-1.06414094878537,1.78965630355331,2219842
0.792592428069282,1.39157940005862,0.431710934118887,-0.000779061462054689,1.92619477166632,1.31818309236905,0.214474960509577,0.49416717809716,1.54293300143966,0.558533181628854,2.99539641823161,0.396221543889889,-1.19190994613698,1.68429811199331,-0.843915373861906,0.416990592378839,0.0964873645963404,1.30860886424679,-0.00562447013560676,2224150
0.976348649085494,0.491883001873623,-0.382899158668439,-0.122935400389095,0.917869413373359,2.18186238179527,2.54545470208394,0.0774939215258649,0.794295256305426,0.508411090086064,-0.440689121871913,0.454042144903378,-0.530518927527152,0.660445299365336,-1.0961268653204,-0.0802822683033263,-0.282764555838438,0.203060967875413,1.06700368833389,2228399
0.723891944943586,1.45628313098918,-1.78842487482691,-0.148805422153638,0.388794618418872,0.116835319631634,0.133032435299203,0.0747643406271775,0.630465339928662,-0.299788577750484,-0.28937534207039,0.672585114963136,-0.447086978272107,0.483204468712169,0.196626575316924,0.278202454006032,-0.547031823096709,0.495227973574198,-0.00488811678290424,2228400
0.596696918154888,0.362547636536768,0.739760419864555,-0.0297615215248537,-0.98930189668374,-1.44486047456866,0.325757528996305,0.0896418949170418,0.254941799388378,-0.0473576654106419,-0.930525116077373,1.36911277968529,1.47823727425236,-0.16298646341791,-1.52179191907073,-0.238096594570618,-2.11079853939428,-0.383888391146553,-0.708924379211617,2234271
-1.5783978417463,-1.21092775176269,0.926866022588488,-0.0915450389110141,-0.920860391682294,-1.33448265162748,0.429868983726444,0.10110627622681,0.65602363895436,0.388746736175272,-0.757358507477905,1.05940338221176,1.07943997182102,-0.615532513032243,-0.645555234180054,-0.237849640259309,-0.165388856277371,-0.877952604677416,-0.671570387471804,2234422
0.373991172290205,0.0174495835981285,-0.55939794766403,-0.133958154707246,0.812861681974536,1.90108159443574,4.03847177175911,0.218263986599036,0.971520391818565,0.720475208526331,0.128477525297192,-0.780110888761449,0.0920298745479658,0.252052063827048,0.122707982066651,-0.0481034609154365,-1.7533948072584,-0.566293533993065,0.518593582342377,2237571
0.00883582998078685,-0.368146584566269,0.73557891107666,-0.159320869491758,-0.156602743294278,0.29545844090003,-0.358690991121701,0.216835876807317,0.852283183539446,0.467019565980173,0.661670656826275,1.27338856781065,-1.52892651570603,2.34240024617707,0.347364761534964,-0.214280570083453,0.588976020267152,1.37925917758493,-0.58579603854539,2244172
1.59046987461327,1.46046603575632,0.421543270368777,2.51703036398931,0.254919644726982,-0.631078861700171,1.44041131582798,0.0817853189245627,0.903028334630984,1.57874132258095,-2.49178395518281,0.455619900438899,2.36729019127602,-0.231466998639632,-0.0886532019981823,-0.0302984268315061,0.140675736049306,-0.152114503148229,-0.635605930887102,2247869
0.474021129580263,-0.60620266714862,0.907222769395556,-0.126877975143019,0.0846749145739804,1.80648748758577,-1.20219348775372,0.0861496934675479,1.38030299703692,2.13112606695434,0.292334063830359,1.17397336931437,-1.45647544232654,1.0601804119004,0.391085637260668,-0.225600272464563,-0.280755982210435,-1.15282065093579,0.0491503742163663,2250648
-0.150773615415505,0.714246806410511,-0.49365516742885,-0.087550418165844,-0.667800878163225,-0.725400621265947,0.50083175282051,0.0956945849176597,0.694764704833131,0.425797075576891,-1.34471208305411,-0.326355998259404,0.747519148099359,-0.0844243911922589,0.720508871857544,-0.226629428869105,-1.26905432870114,-0.561870686182527,-0.561785255848789,2250836
0.351942814041002,0.884916875407764,-0.175145010839249,-0.15964195749656,-0.54357912095008,-1.1101021751875,0.333714122203286,0.131591469587489,1.20123181685099,2.28569860412499,-1.50667296217671,0.308543752925093,0.977156312582524,-1.03605031664446,0.798732860966634,-0.216684041952906,1.56899465578015,-0.916197306783997,-0.514739323568232,2267382
0.481074868852358,0.949334846541333,0.391632776680694,-0.323354893659485,-0.449914898008228,-0.571470409236586,0.236684902426712,0.558398970860216,-1.43511056008568,-1.83555011422358,0.140589302180978,-1.14351197093511,-0.0307505571300228,1.04777393952473,-1.20625470633656,-0.230908988630637,-0.430303532579175,0.0517869083739148,-0.506694141799441,2269346
-0.00380793486415735,-1.01416526884891,0.981243733824746,-0.680399148655277,-0.906501381984248,-1.39092143950857,-0.250863483132772,0.119023924140987,1.0626718349664,1.29882714217354,-0.554042099254051,1.47328318066504,0.367087446831916,0.604599985642292,-1.40099465814419,-0.238051039403263,-1.40411470414434,0.878849453082024,-0.65381904956619,2271329
0.176927244099817,0.00679825767381911,-1.31371342708133,-0.0871572677091859,2.44243876532693,1.38978090742566,1.64071549288276,0.191389487764807,0.99467158168034,0.950073727942938,-0.143667906061091,-1.57703289675241,0.200295853058748,-0.40327480657657,-0.0397305791042159,1.93876560039045,0.154356002031308,-0.370324404592988,0.792380986402584,2274521
0.985009278007516,1.07009904270962,-2.48903973046366,-0.125905817038804,0.160644671937964,1.17939051355539,0.327977520270836,0.00846037556801495,0.0617204627623825,-0.179442795992078,-0.0777709655882909,0.154375887444338,-0.509216465996581,0.336651258580498,-0.436589391556917,0.569637423802505,0.422110626477663,0.0279202904437307,0.478010960427517,2276121
-2.65608044675613,-2.48146952487975,1.3883031918113,-0.224234913402813,1.11069575140527,1.21930416770364,-0.129924718791056,0.466154593410503,1.5634748813111,1.35128137728656,3.02975201597759,3.18871138797043,-2.01742752104636,4.68802815685101,-0.0383799923988211,-0.142113698832423,-0.354573869451982,3.95153425340281,-0.334008942924606,2278618
-0.668671858529148,0.120696561341397,-1.13256423752442,-0.107363524739381,-0.570035621709716,-1.00387958529609,0.0393165837555624,0.0284063101041964,0.20079422495822,0.0459891507019375,-0.817863664858719,-0.554053732940092,-0.325336278347029,0.171299002510087,1.15476682062208,-0.188783772130941,1.13242422272021,-0.354511969547865,-0.466585536290146,2285214
-0.917188119462901,0.0931677353198432,0.188285430853317,0.116043417459361,0.143452206616708,0.192947634430916,0.273554979084673,0.126525725874114,-0.201257342368702,-0.384014113684904,0.107387824512479,-0.545617159365871,-0.0839031133116304,-0.325254616070513,0.0461003253954563,-0.185425239966621,0.54184764219274,0.0419053222326808,-0.403936808348099,2286108
-0.765044059585851,-0.227004631007545,-0.223851374812632,-0.0751027524798589,1.7635620522235,1.33148282205814,-0.344360744462399,-1.51495712587862,-0.948793136073014,-0.306883475255326,1.44099059782441,0.383528447099096,-1.06678939854143,0.0437802355640387,-1.39629002737606,0.0934554611180975,1.26889933804833,0.131046075232525,-0.418869172066833,2293123
-0.671267788708524,0.113982417952226,-1.74326261354278,-0.115626450224636,-0.140289441869163,1.49304803809373,0.0350662672037913,0.134180333718723,-0.812037103676566,-0.725413770752076,-0.0737971901258563,0.35615174983841,0.0174912037529905,-0.0967485222310584,-0.481439934469529,0.217726999276008,-0.386358444249017,-0.149860912660852,0.0847241839033648,2294852
-2.2228782500932,-1.81464887504744,1.43835939596133,-0.12928028392365,-0.654420605607343,0.694346284031965,-0.182789503052602,-0.397386081379945,1.40379036018657,2.25275418297656,0.0984888949389621,0.333515198985836,2.27080290005525,-0.213862304550326,0.851474028995192,-0.237378348762128,2.39809825291426,1.47264908088994,0.0539662280691235,2294873
0.614854590865542,1.58873042549151,-0.768820744278515,-0.115873280931722,2.63430543412354,1.77574526742162,0.523501364630513,0.176210490521088,0.659156532217945,0.451758080242932,1.70051443614858,2.07817431223773,-1.6199045059918,0.276646723542705,-1.21259340345486,0.444761912717431,0.928361030682914,-0.221858816770133,1.16173560192196,2296332
-0.944097027597603,-0.858681236363903,0.205190997793625,-0.121054410249794,-0.358150690865327,-1.0178492712838,-1.43852734797775,0.0749930112347039,0.196570661704992,0.198987461739352,-0.993225672363806,0.772795907165769,0.728378937207198,-0.363782461486301,1.03158006750872,-0.224649502358282,-1.52067198751737,-0.501819184288471,0.0808926716956405,2305114
1.54090329665011,0.678982620645194,0.556540260173205,0.458645417395011,-0.452322111235137,-0.400225139454711,1.16967803444782,0.294655251330807,0.568138905692694,0.392160583976481,-0.302420286229936,0.156735041570257,-0.623032128474754,0.652056261411544,0.565229727052004,-0.186413816903665,-0.0453329696033286,0.302821715347391,-0.409753864055483,2305115
-0.469487291772843,0.218082939681389,1.42980969041723,-0.196670864484676,-0.317949102269607,-0.610812167247068,-0.818927239993837,0.0928347013399212,-1.08930390184678,-2.48517992497197,0.286317394803669,-0.0268505651950947,-0.420148832095911,1.61453383299653,1.04796589934964,-0.231742331945876,-0.331873217759662,1.87688557521204,-0.373801402399053,2306459
-1.02613018105618,-0.732855928121595,1.47550619385335,0.594038147474725,-0.794031186267798,-0.12105827643984,-0.88798547589935,-0.0371232368487859,0.526123225287663,1.54246873268661,-0.691009154784984,1.28407570840966,0.376071022901677,-1.15459250651038,0.775537946673705,-0.237457033614166,0.824387868736658,-0.520677104882107,-0.625289761778853,2306893
0.862886469815465,0.196712412949358,-1.07007414688402,-0.0899115457537406,-0.571902303880276,-0.721975552517773,-0.150758797574539,0.18110982145392,-0.114789051151553,-0.464110646528156,-0.330819248529391,0.382161096772666,0.505422059239145,-0.167403232455026,0.389370767193681,-0.146398563305707,0.182748983040369,0.00642954054809613,-0.301518692861901,2317120
-1.11177402168498,-1.25099291612695,-1.20840939576212,-0.105195488761046,-0.116291604299433,1.17806301372168,0.339014406363433,0.10562332222167,-0.112411383868583,-0.281986459971174,-0.265180112510895,-0.153848211208688,0.249761714670673,-0.264632908565025,-0.0833254363499138,0.406771269238124,0.790161208151406,-0.123424338517655,-0.152633302599929,2319068
1.27201770318929,0.631699847487318,-0.678540656222602,-0.100183390413045,-0.583456338521702,-0.961596790388693,0.438972239833463,0.0956306907493296,0.555462308078915,0.502176870788219,-0.860699100170287,0.761683679119408,0.482333488161163,-0.436221216618545,0.783075026416331,-0.185936914009643,0.620254469237338,-0.424869488335185,-0.635210336771041,2321962
-0.494208393595623,-0.0801224141365286,0.0374477385892895,-0.128214495413898,-0.536177154425591,-0.834033789224496,0.0553075819202876,-0.123494615666776,0.97556522112968,1.56301179425192,-0.927501688963286,-0.0419595761061572,1.16903481826297,-1.29318791237318,0.846260906914315,-0.19821970302491,-0.376679794263167,-1.24953658331345,-0.497251280297916,2331869
0.437938483147475,0.056741752418524,-0.285915295856473,-0.123933730541704,0.38265942305558,0.58379607874074,-0.257156986188688,0.0856856550075455,0.569920426018407,0.0278747745364977,-0.916372406086071,-0.310303062146833,0.158908935000608,0.836337663925432,-2.10048245282959,-0.167355361871282,-1.82963072350981,1.1488685972813,0.759672619188365,2336735
0.665981154450617,0.0377043424584366,-0.696762721926316,0.0204270541656529,-0.608567999933361,-0.173995871875497,0.239982853962966,0.0215791447972199,0.224196687365284,0.0287087877532167,-0.229046016363019,0.248221443158249,-0.382856158586994,-0.468258234864821,0.443037448064577,-0.203603667546914,1.09463099855029,-0.540084559656267,-0.506696969194846,2339674
0.805638481537991,1.21265909994569,-1.97464366173854,-0.116142685958519,1.79739209039192,0.557461414249007,-0.676093197091271,0.134618795243311,0.171772345589851,0.138929584270335,0.593951781710121,-0.860706031398068,-0.697012046208695,0.549529312504727,0.641043582603364,4.93537486691849,1.01002953734197,0.37889195824605,0.309611041900721,2340155
0.697918505887181,-0.142598647094511,0.988373091572029,1.93907341051806,0.321385567970543,0.716455876336858,0.844036548875171,1.24604981117213,-2.22435933288038,-0.530988931979862,0.81111547937983,-2.29276835522946,-0.524923913619617,0.626042122907517,-1.07389153866071,-0.210711004213254,0.827387943451511,0.45143665376869,-0.523722982419233,2340322
-0.267541603527099,-0.445483527244484,-0.337224702441387,-0.233289260116156,-0.592541440145693,-1.29978135869636,0.432155631633936,0.0769618627211734,0.192526412213796,-0.773455477906199,-1.63176920348975,0.121779522772287,1.72555677041757,0.33438731899994,0.636336483545684,-0.226707997936391,-1.67231249332846,-0.180607277197853,-0.54393583747314,2350037
-1.62843023196744,-2.00873917157198,0.4919735700851,-0.15747673576349,-0.585189116227033,-0.857795076604805,-0.768482175787963,0.0774710120590045,0.761125111354056,0.34642164722277,-0.779385634291722,1.17839070330056,-0.193670596592686,0.596926917835546,0.70621213512735,-0.232837295480464,-0.285243718097083,0.228761992814698,-0.154305363816603,2352038
-0.327008254349914,-1.0727941499547,-0.906116266380104,-0.124431883239762,-0.608469026401713,0.774884765617976,-1.66168976331319,0.109092045554352,0.227714623491834,-0.124729939748423,-0.486261327132568,2.03450827776097,0.358374774743175,0.529251401846033,-3.88348254067722,-0.232448013199975,-0.169560280944995,3.00780141931065,0.592544056376189,2359944
0.52893415509897,1.17868783041859,-0.65762663194814,-0.122119258207094,-0.41245514547674,0.186462800101758,0.200862065806589,0.116135557585285,-0.215134407899859,-0.793370663301328,-0.78789478513668,0.987995150159756,0.205761468037396,-0.186445486440886,0.688652308563519,-0.0951915425690875,-0.415208706874395,-0.298583278900011,-0.119173322354117,2381907
-0.582033799411317,-0.142104774913684,-0.0168105003874666,-0.308154796465048,0.165763284468734,0.945888244349146,0.84725624901964,0.138394963941204,-0.575994711992506,-0.191213625895223,0.333038426412821,-0.539998724283926,-1.03913963362344,0.332982090450174,-0.580136228904963,-0.193479316589831,0.607390444706932,0.170642723292047,-0.408369263923093,2393207
1.48211371560253,2.34221567091547,0.197566902032319,0.199882146810293,-0.521268550883661,-0.237834618870762,0.176529727344617,0.254292366100562,0.605817645157943,0.866804026363044,0.0053812153672753,0.529160654598044,-0.162391549937353,-0.941484004166908,0.268818170307418,-0.199089862262584,0.633143615882207,-0.85812713002317,-0.441918095274386,2395415
0.391610550112764,-0.0947126209329558,-0.282443690980195,-0.119835327174467,-0.26432147335899,1.09120576435205,0.183917646172304,0.128631860808336,-0.821840625891113,-1.2103405905951,-0.762325350721066,0.361719932252501,-0.0663596227424869,-0.0178743757424455,-0.18089465113446,-0.139672947394176,-0.210354316557113,-0.204696352938615,-0.352276135727105,2395943
-0.196373083295275,-0.725579993920798,-0.994218593297007,-0.122955224817263,-0.518028242830805,-0.273924483850647,0.822434271304041,0.0939846328203578,-0.105348535629047,-0.520570292279123,-0.883297709035349,-0.0411187218024051,-0.0144767858712066,0.367476432660393,0.639820444639906,-0.209757901330745,-0.101827898381056,-0.249185942478334,-0.265211226856886,2401405
-1.59034292545739,-0.62996038341641,-1.21400867109291,-0.133742803004324,-0.554867502939201,-0.568613295574537,0.543079943554518,0.120808102914938,0.44781145827469,0.112778042618161,-0.688337277507282,-0.151775437519809,0.0257419598092118,0.448081208021682,1.12719051812586,-0.183022858993391,0.0988398735910767,-0.00374321110649543,-0.464374113547835,2405144
0.00569517953620561,-0.628105766968696,0.671702877281659,1.17962606238312,-0.622002030733295,-0.74409878110592,0.14180703138367,-8.75299719463028,-0.307406345568791,-0.00128695518607815,0.659377660390028,-0.737553695916146,-0.138584248706223,0.0756846714387106,-0.629180897930943,-0.232619514790387,0.561014446089151,-0.65824431013581,-0.29592245150091,2414406
-0.048728334177061,-0.169891566786338,-0.0551363065766269,0.00520281296359222,-0.135066815909867,-0.584844751583042,1.35980926158401,0.0680887172167915,0.208654594893063,-0.400878831866942,0.335653668582028,0.632687180102633,-0.421001411142985,0.0235979624899433,0.172785745459972,-0.187916545272355,-0.15743995635652,0.59976643305968,-0.400724158791956,2419459
0.247656398073319,0.975617241015594,-0.758055170038087,-0.129634964038172,-0.689241014557245,-1.24516746474692,0.598925974030408,0.108842981327111,0.430221980104186,-0.247438068296945,-2.2243040461354,0.507048658485313,2.63433841238053,-0.0627316822628959,0.872225881571863,-0.227032930447496,-0.65654506071647,-0.368239812890671,-0.507888523157061,2425694
-0.0716196818557047,0.145606826841871,-0.474775587259085,-0.000363802395037609,-0.0507087518710341,0.13354537600092,0.377237938887155,0.330100460042048,-0.550444548979773,-0.542959624733541,-0.373019571463646,-0.348994227382752,-0.141000874892113,-0.325853781960559,0.102639915158156,0.279923794606435,0.718110001861722,-0.458826414217569,-0.388669397019425,2426863
0.601133397127539,1.27849553478489,1.44402051651754,-0.206376103513546,-0.30416362106515,-0.949954999962076,-1.71901630586996,0.0723252785336881,-2.4890181805364,-3.00874295598072,-0.530339111502177,-0.314023002718939,0.0973621212509597,-0.167393454048621,1.39950656750381,-0.235872084927715,-0.962023763674512,-1.38041682247607,1.45530136730094,2430773
0.403744438963613,0.320157821288022,0.856529957671754,-0.121408961994065,-0.806772681973056,-0.802566000771982,0.127129693006857,0.0793258787945166,0.116641065233246,-0.318134723790379,-1.16127590366294,0.544211015221988,0.581021077252385,-0.0127662018231556,0.91078552567002,-0.23708506330217,-0.49932504059357,0.242058839387103,-0.0971469056120083,2439458
-0.993320575304859,-0.412792626933663,1.0543776522955,-0.149628837181537,-0.411260858440804,-0.332840845522745,-0.536740565499875,-0.895403343498502,-0.18692144691371,-0.10009204819073,-0.624049087743656,-0.0452888507280293,-0.127930938875317,0.228281383912115,0.0445237550398303,-0.228392303045059,0.222512471429735,0.272311062558472,-0.451899783635046,2443354
0.947520160246129,0.308365232333617,-0.34364375236806,-0.108223470979733,-0.0979801391497693,0.498686403727617,-0.463756267626389,0.288799044872384,0.54115821196333,0.636430103997171,0.0300435059988185,0.202430181289124,-0.434832234381648,-0.958728641233772,-0.0169118750042297,-0.188328613796175,0.300683061789654,-0.928159716785782,-0.379378070706582,2445526
0.497474819764765,0.82104735868662,0.299376176156091,-0.133752895254652,1.66224375055793,0.811816071638204,-0.0539398714238847,0.129181694637071,-3.47833275451339,-1.56943921066032,0.341743917566721,-0.767776214164657,-0.916683334671892,0.558775272756433,-0.41104549792776,0.0788150564437235,0.944961771568201,1.81463453473711,-0.314235395137816,2448298
-1.04922563250274,-0.538612061823148,-0.251436520099719,-0.197599444716031,-0.698602281192025,-1.08745636812392,0.563418495431513,0.046540649415049,0.141026237200425,-0.169715199803019,-0.197142365461531,-0.27916947996946,0.955844372173214,-0.826298073426337,0.331718998835894,-0.231081528438537,0.387510953202442,0.770721348582962,-0.415613829607028,2453577
-1.0042606702468,-0.370413637529496,1.22216512185362,-0.173937040376865,-0.680346423188709,-0.961524917038831,-0.330368067025198,0.16953990554143,0.459944691900639,-0.0647966446455448,-0.0981279540653282,0.660416349335934,-0.0761393360290435,-0.957688135318041,0.0366632216597415,-0.237535040239835,0.449036287724404,-3.36911686321056,-0.414374022586813,2474709
0.976272264496466,1.22757954910264,1.19604670371968,-0.125325573423147,-0.575741007187664,-0.101533508622634,-2.41625991279041,0.113630954742724,0.0557172507798438,-0.915339014996209,-0.382160498293987,0.799968224881804,0.277483837019654,0.205211022731538,1.17895263911606,-0.232198845077816,0.24307605597607,0.426668369140293,-0.605829255781587,2480056
1.05047352623718,0.673895205279498,-0.862962173575853,-0.0596867417581048,-0.515568438069262,-1.06713222427052,0.20036791716742,0.167406142173367,0.524555135133991,0.0313827455390427,-0.723582137714964,0.226957608877316,0.999319997232505,-0.625513851182733,0.297370645488147,-0.207567741360096,0.451382255937342,-0.384567068103584,-0.161554407530007,2480330
1.10606858674729,0.852702250650153,-0.0440873865043445,-0.0496093501630919,-0.187248286677835,-0.314579133122446,-0.187281790107466,-0.0294829210523402,-0.0675835766606915,-0.108524020202723,0.661991445384025,0.564163747704255,-0.518937296606789,-0.47111886592161,0.200312245692755,-0.0432555584223297,0.308957350209509,-0.428817998113134,-0.0226066516824173,2487135
0.86384808486688,1.72898509722018,0.00450152014255812,-0.195751169735004,0.509450189623129,0.588148481287068,0.0108662623399819,-0.786553636039575,-0.195329796021138,-0.130911637302108,0.418891912868251,-0.542373270064245,-0.0579766621477908,-0.818167507373565,-0.691360369524686,0.047264858638388,1.69643961088924,-0.212318497355848,-0.479558610457972,2488660
0.457473961669387,1.29078680587881,-0.851658832210711,-0.105632755584865,-0.762022249189766,-1.241487672233,-0.375016675470722,0.11352519691482,-0.408480960703428,-1.62586474430546,-0.850431015283004,0.134060697220273,0.240062296771899,0.442684720174507,0.886286535140046,-0.236398158531378,0.00588020363561506,0.635991128704556,-0.253601345942338,2490180
-0.840181309680952,-1.63573139695041,-0.842591731301191,-0.140759695287102,-0.469222144553876,0.243135053601151,-0.346378098748623,0.180960763644486,0.0670864437685698,-0.000555866886318646,-0.2005822235671,-0.575846006808549,-0.0178918581047641,-0.375918447638441,0.570544831946033,-0.166869730924049,0.695842168200853,-0.0828801890730348,-0.357582735443889,2493534
-1.52926985863685,-1.14829203986268,1.48301693734743,-0.274928356680505,-0.357829802058146,-0.760353015427311,1.24257930548115,0.20747020456908,-0.0502754061435991,-0.268488978313918,2.25445449505481,-0.190334331704977,-1.36817241360736,-1.75321957058854,-0.547588779314163,-0.236748378832678,0.46146528510156,0.413729955138644,-0.259983575061688,2498991
0.214250694668852,-1.66644427758114,0.868736137555037,0.19514502469576,-0.224070787650491,0.385499121592074,-0.0878333021895515,0.284931010702601,0.989437421012235,0.838113505615061,-0.879531564358023,0.686093215941188,-0.293515643889679,0.419542273058905,0.0235422083034199,-0.220584213438219,-0.581798227771882,0.503791036735327,-0.652328459638965,2500377
0.0131662796200682,0.226685814118851,1.41141939681876,-0.11167849929466,-0.64068532636723,-0.793364017620294,1.7551078066898,0.0747046783433217,0.112656501701097,-0.695385724334137,-0.783679770268713,1.34242771307317,0.4922226040911,-0.216892701263442,1.28597417559141,-0.23678007949569,-0.825893695229145,-1.30239607871439,0.094859359272094,2504802
-3.56490109803309,-2.82786225545807,-0.978940403576634,-0.13768962548001,-0.430941277901151,-0.865636014409175,0.491984698622096,0.128810946312744,0.428888526162755,-0.0083588753876196,-0.628213991716674,-0.914943404986233,0.479542198474297,0.297953692226705,0.416882780021735,-0.222997732011126,0.189722459320491,0.188025506129847,0.0584875924775974,2510402
1.54439226209418,-0.0290918086197587,0.700483215112926,12.2714094696266,-0.200562875208369,0.0210045637706356,-0.299926225880197,-4.51725697228939,-0.226996775954749,-0.217817560160565,0.408654004547267,-0.942605932090024,-0.336421664109111,-0.230886584632601,-0.379104769007966,-0.2335398792076,-0.756343193810951,-0.399841987275223,-0.301636379153047,2520618
0.0973193611559645,0.087867840118878,-0.474003834714467,-0.0766220213392377,0.263942109327483,0.724995583170319,0.45753060388738,0.298477712139261,-1.33874656088596,-0.580767586335342,0.822812912403638,-0.665069005316111,-1.09800773456672,0.648590651082852,-0.572575537005949,-0.160555883264658,1.38810256260811,0.881306174568102,-0.38491703630124,2559453
1.74606729567088,2.16075522535239,0.895337802142243,-0.128943691193746,0.642831042347575,1.11087548258248,0.385795731211027,0.0727120595438363,0.125839094660572,1.85356609841791,1.06349119823431,0.578153491320309,-0.536428415809132,0.0846913886678464,2.02242063608182,-0.218864899054037,-0.990076517377517,-2.13086939203453,1.6580919785526,277752
0.93201283840556,0.136570745668241,-1.27710336375654,-0.12488584055755,0.573098758839771,2.00855933625592,0.997743310542885,0.0911868881395576,1.55518760988203,1.02432924027326,0.252015164612539,-0.727602132257892,-0.327540027228186,-0.120757088712794,-0.0365263035069972,0.143058186459796,-1.76946193788645,-0.189593180860149,1.02842623217605,308862
-1.62173293692513,-1.58426747718927,-1.94522279496169,-0.128542137620622,-0.223850109503601,0.322034815632958,0.282060200827327,0.139772378128076,-0.220093825770039,-0.321661239441996,-0.429556516211653,-1.1465872955852,0.00748812153578725,0.110795738933405,0.54678773110022,0.00657837164443349,-0.859158657700023,-0.443409020758708,-0.0108463805282418,58325
1.30483313900889,1.51509760497956,-0.877033817423473,-0.137606185435542,-0.670123021442231,-0.987572976589727,-0.170732194437327,0.255002589447228,0.413553426199891,0.172842100381871,-0.696904762146289,0.427101335399971,0.556818083520384,-0.696905519352861,0.395063704574701,-0.228783967462974,1.16533595333206,-0.837013541088242,-0.568068000933822,92173
0.480287095170157,-0.303376539592044,-1.69652059566592,-0.123091349077273,0.580992220259032,1.67499661167786,1.16376194011491,0.262677195194488,0.718830143226937,0.630763108462476,-0.0953352140053768,-1.15667957557886,0.0765165332083674,0.153614933399274,0.100049373006932,0.19266549947234,-2.54877228074914,0.227725481708838,0.885374532593688,923666
0.301654514283517,0.463397128242179,0.291403613280004,-0.125780386646772,-0.82962795417294,-0.87431473624816,0.0955016642168988,0.100248579959053,0.567404572343235,0.0308561454416053,-0.920352671514709,1.22146435009227,1.18241316036771,-0.323084972524894,0.773323153258084,-0.235413973021902,-0.707506904818646,-0.0893060215660082,-0.63343456770366,965005
1.64686895508772,0.440430964705138,0.518555541771484,-0.124230899048675,-0.447609782695554,-0.985970768594857,0.60202982068814,0.076674357273407,0.699853025677071,1.12098744405742,-0.0773218698408907,-2.29700008314737,0.705246595304117,0.675629375779987,1.0166041702121,-0.231624758282258,-0.314681039488134,0.0146820892202138,0.245274582219405,983079
