pgsalome/predictR/output_NEW/signficant_features_results/os/pcaFlattening15_mkm8d_ptv.csv
"mkm8d_ptv_original_shape_Flatness_250","mkm8d_ptv_log.sigma.2.0.mm.3D_glcm_Correlation_250","mkm8d_ptv_wavelet.LLH_glcm_Correlation_250","mkm8d_ptv_wavelet.HLL_glcm_MaximumProbability_250","mkm8d_ptv_wavelet.HHL_glcm_JointEnergy_250","mkm8d_ptv_wavelet.HHL_glszm_LargeAreaLowGrayLevelEmphasis_250","mkm8d_ptv_wavelet.HHH_glcm_Correlation_250","mkm8d_ptv_wavelet.HHH_glcm_JointEnergy_250","mkm8d_ptv_wavelet.LHH_glcm_Correlation_249","mkm8d_ptv_wavelet.HLL_glszm_LargeAreaHighGrayLevelEmphasis_249","mkm8d_ptv_wavelet.HHL_firstorder_Median_249","mkm8d_ptv_wavelet.HHL_glszm_SmallAreaEmphasis_249","mkm8d_ptv_wavelet.HHH_firstorder_Kurtosis_249","mkm8d_ptv_wavelet.HHH_glcm_ClusterShade_249","mkm8d_ptv_lbp.3D.m2_firstorder_90Percentile_249","mkm8d_ptv_wavelet.LHH_glcm_ClusterShade_248","mkm8d_ptv_wavelet.HLH_glcm_JointEnergy_248","mkm8d_ptv_wavelet.HHH_firstorder_Median_248","mkm8d_ptv_lbp.3D.m2_gldm_LargeDependenceEmphasis_248","sub"
1.35119706091473,-0.020853975826701,0.809874578810031,-0.525506331095881,-0.531572727579021,-0.190182051426079,-0.579654549429877,-0.629241088552041,-0.0926442976103341,-0.379436382851525,-0.129244057985855,0.182817696275312,-0.610774967312877,0.165795194727377,-1.0730972700355,-0.292115564546129,-0.415257413063691,-0.121614787612369,1.28937732478295,1085983
0.110236965876068,0.856627169568022,1.17905247847898,-1.02790766838521,-0.729646829342306,-0.201753382965959,0.131119347003809,0.296828565503597,0.444844891134103,-0.352544780962896,0.163966021223294,0.151842632670276,-0.609313398480625,0.145500193182631,0.274409331615984,-0.267091856543587,-0.291555107335888,-0.582319239838582,-0.351940099422862,1125173
-1.53027357938603,0.0415839358390085,-1.13259285874301,-0.734482597269322,-0.515872009529389,-0.207222449373136,0.682291651063182,-0.854584614800743,-0.633851500886795,-0.391897841252659,0.694084979428287,-0.634057403986746,-0.636791868805944,-0.166896199871585,1.67408126560452,0.0390843872539864,-0.88908519100387,-0.157809813530461,-0.124971411711582,1154608
0.884728474582034,-0.414488998403616,0.400759938367712,-0.200886657121571,0.411690529044314,-0.164611705424447,0.422081940704035,0.641948247701849,0.598462274731413,-0.02174563263516,-0.258393495763835,-0.134557437934147,1.41446598138297,-0.406235246721345,-0.528514327251226,-0.300107249818106,-0.0273296700400506,-0.0550268970641633,0.64252709419804,1181124
0.245789447239916,-3.08080416240219,0.409321498754162,-0.491802925325179,-0.561112103677274,-0.214117594553416,-0.52984336648434,-0.675825304703981,1.11070346900525,-0.327864039255612,-1.02751061349218,0.195527930691458,-0.0263446886146874,-0.11449747465714,-0.285090756400029,-0.195927023395059,-0.728409401923904,1.44970276985312,-0.790209373836757,1183075
0.0380830206982791,-1.53099789117359,0.469184162708789,0.37906540164785,0.0614631498352002,-0.171616016095706,-0.594215873784255,-0.416505518436503,-0.276287896150184,-0.387038541643819,-1.18889428402895,-0.349917700132701,-0.780204015939126,0.159131833417477,-0.152080477901751,-0.290870512808893,-0.883877086851293,-1.49660774076517,-0.341685533886073,1232870
0.194384973611451,-0.741072357787019,1.12588023584175,-0.279461653514363,-0.520380862404753,-0.168016435595192,-0.452524423080298,-0.254247634478003,0.293862002792468,-0.381135120388591,0.668840416579487,0.169023535493229,-0.717739127496661,0.109169992958706,-1.08311628240692,-0.278754891247547,0.19396207003312,-0.0688609601898595,0.428651160982515,1279943
-1.02730961234489,1.13078508403144,-0.163876796428635,-0.56907073675744,-0.644432999842181,-0.207823770094458,-0.758592352685465,-1.14731255817838,-0.0803394948777263,-0.379205967195565,0.0680236058341908,0.783582439601032,-0.146830538589958,0.689853583977924,0.71327070470033,-0.0453475231493109,-0.780317936728283,0.142692470689969,-0.160524086970613,1329352
-1.32400921503537,1.11401432664074,0.134413118846779,-0.301684035859434,-0.192184946351637,-0.155123448015106,0.742466834199023,1.13319621809299,-0.134360764018675,-0.257099687708397,0.646064193538173,0.0991103001940848,0.943785090101345,0.0905151960500596,1.08027393011896,-0.075284317976432,-0.0307601301193128,0.250628835698867,0.0865043014441916,1330263
-1.15899980052833,-0.0869424199319189,-2.1722085250791,-0.624304894917595,-0.738475598141916,-0.214273270017832,-1.71073490853578,-1.02499854285685,1.25057006944395,-0.393220052967915,-0.704487026130707,0.681715022895367,-0.437699595747025,-0.204587734327216,-0.215116357389035,0.0937111157604934,-0.977309414223079,-0.495545353757866,-0.164578130168639,1364384
1.10959173052513,0.267394937414917,0.104871742006147,-1.00684199009665,-0.579672031204874,-0.212505528392838,-1.32775776982172,-0.912428002598672,1.10566573662016,-0.379800968366057,2.15509631814355,0.619356506450853,0.086866099613722,0.707847650015632,2.15584226012109,-0.186400387096324,-0.960628539062438,-0.599616632359814,0.340793868065672,1386095
-1.33133499214597,0.343023741430195,0.799945555530848,-0.99112927676932,-0.863739352638026,-0.214366262084895,-0.418673264971931,-0.81974381784765,0.0985346144759677,-0.243012190914358,1.41862515869654,0.81869629415225,-0.225051615461074,0.399751198028428,0.72000559275471,-0.182215607233426,-0.161155268834203,-0.815338761696243,-0.449781165100985,1458656
1.48871148548033,0.307106692979624,-0.388427243438695,1.60757669134873,-0.154037467883655,-0.0749135892207045,0.395554460867091,0.795357571427787,-0.135085486804,2.59169967690543,-0.990178030901006,-0.368129111522591,-0.661163445510947,0.101874325957927,1.19730543733978,-0.234019122785298,2.1470499282234,0.135372383655586,-0.413148764026024,1485662
0.264573856819893,1.01810474913304,0.25471469345142,0.0903408231982517,-0.148813492959026,-0.133144177620331,-0.476693732102679,-0.177235070815684,-0.385077896378779,-0.358246028602882,-0.729174903859793,0.161342508326495,0.294675789439026,-0.0774265904788434,0.445771770629034,-0.0179794188538727,-0.389789001018795,-0.175229954504821,-0.049229938354165,1497807
0.101921375961268,0.654237250198235,1.40262856782762,0.136281922729616,-0.491805928195167,-0.204223323361476,0.873116017773978,0.856326961623852,1.51267614576248,0.589143034446434,-0.367161865844691,-0.0296538748005305,-0.425983548107033,0.102622803800992,-1.33083701238198,-0.247460519353587,1.48373910612452,0.284018898060762,-0.295451080523035,1501387
-0.3469936289353,0.652600858441722,0.913320749722752,-0.821861455971582,-0.82649699112245,-0.2134158494367,-0.542559045967357,-0.466127943994308,2.82381460283369,-0.400443060505562,3.1764218440191,-0.165562683799424,-0.787519477373342,0.197557681380533,-0.925641006310568,0.155616812435715,-0.340887309400795,-0.548519795245283,0.100575355350221,1518948
0.610174527789223,0.479418316258893,-0.621293641191358,-0.865724520439309,-0.540942973427836,-0.204876195070641,-0.860112042345455,-1.00256721120683,-0.910745797303665,-0.276525333576807,0.159788416498954,0.258418717656811,-0.497917861186276,0.398308102563319,-0.843450311704986,-0.199299723599103,-0.883301521883642,0.338424521950769,-0.0639104342714961,1526417
0.293776462970309,0.206887174373762,-0.267160390612255,-0.247803056802528,-0.796202481481252,-0.213667107830624,-0.338701380452344,-0.873419368298755,-0.765656786115535,0.057616367293038,0.118921890061462,0.782207599954879,-0.068488853652534,-0.294864218410291,0.466313652481053,0.213343265885075,-0.107683407212134,0.356139697895578,0.250542971213513,1565177
-0.597954027710163,1.13736212448464,-0.174469298571089,4.5935581824462,2.31784372655532,1.41140970759558,1.15579374109034,1.52919163599314,-0.902602016409965,3.65734663932609,0.345194106948474,-0.974221745414468,-0.00435879552521849,0.136421999781359,0.975560285441892,-0.00243647668248881,2.21819645754786,-0.31080172043156,0.883797499075021,1606693
0.18191369523251,0.288056544942516,1.77103125992673,0.888237227423619,0.351514349662866,0.446807715681135,1.08048676028582,2.02524288031878,1.89776793662156,-0.326741121060478,0.273317702683207,-1.56774022757391,-0.673015884302424,0.132988234631101,-2.41113671930233,-0.179626710711081,1.32249387698896,-0.521161737132107,0.152626429124017,1612262
0.772784262955741,0.952815989836849,-0.0871051190574946,-0.199134078054022,-0.433102934425771,-0.199679231054363,0.0120986707822176,-0.254263965033635,0.123425857805353,-0.325200678248077,0.872067530505699,0.274261728866683,0.258744492081099,-0.412987425867947,0.397212058168346,1.91560795402032,-0.0485673236242605,0.43216759009821,-0.210798267068451,1614566
-0.688028320820781,-1.18103327896272,0.440028388447794,0.580059730280426,1.82715443354288,0.272436567521808,0.30863779311368,1.81463637567709,0.331828259734643,-0.217071090522451,-0.36341954257743,-0.633298806523357,-0.262060425742792,0.117897080003413,0.103575331234634,-0.276681731040654,0.653963710282165,-0.305206122938822,-0.337375109939366,1644034
-0.930191951708168,0.450177890186355,1.03431115690014,-0.600780183244449,-0.754359628329016,-0.208242332620213,-0.702185535206114,-0.559587656840861,-1.27852892495554,-0.38273231121123,-0.939365464102204,0.191065575732455,-0.254548852780476,-0.191328524533793,1.10424927385566,-0.26032003179706,-0.235730111467719,0.04808180356364,-0.173816735048528,1668599
-0.188711684489909,-1.51823248866007,0.557100531225823,-1.2027524648412,-0.993687149102447,-0.215320444635295,-0.471454626352794,-0.981691898987828,0.0483740784943746,-0.380209812501433,1.46300453937228,1.58240996086669,-0.491773989904579,0.291440788189358,-1.83313781053356,-0.257783566724934,-0.866998057818308,0.409190453660665,0.588061912069942,1671370
1.90831193190425,-1.72041441793171,-0.146956706745758,-0.976448461245766,-0.807819158107872,-0.211600397682384,-0.57047181032692,-1.33893743540163,0.334105672964006,-0.394020382891428,-1.04593915594844,0.827874863838323,-0.687465384376016,-0.423448852800297,-0.810834081774951,-0.0195323229273794,-0.998995026251254,0.900400876222454,-0.794409441663281,1684230
1.93546847178044,-1.04834419076999,-0.604465969144465,0.419172464003174,-0.224024796294699,-0.139861401049858,1.51902303454813,1.49919948627719,1.51994710578158,-0.370573452390488,-1.20543316740298,-1.47778255522924,-0.687453527536012,0.112052238927901,0.64994329144,-0.134864487447935,0.329273694309289,0.312881442082126,-0.913111296556653,1692385
-0.738266564851998,1.21187307132185,1.16313947449492,0.174364223717477,-0.0283988277734592,-0.202821264742611,-0.0936308774604977,0.406579612007421,-0.0260973764333765,0.0988384689747772,0.239306154529997,0.167596557893704,6.02401514887241,-0.915726693121842,0.585589168603369,-0.057472182035608,0.187157566917401,-0.226444656620872,0.0367892873089956,1720713
1.39106339964668,0.632747943427457,-0.458604754315767,0.0108068916046971,1.2261731809777,0.248844439985849,-0.942347995042985,-0.0834368309719118,0.378695619292421,-0.303492992790116,0.0659310536491082,0.187121271990393,-0.266538536157314,0.164406291300517,-0.436311291774297,-0.251993616615537,-0.530447963181727,0.271344189108641,-0.0883130090616649,1738800
-1.09412979827287,0.0479469188445759,0.812171603253075,-0.671572510209248,-0.322545270931281,-0.111571365418314,-1.17209232647852,-1.17447815214068,-0.544287515179694,-0.301066853040042,-0.0820001146036687,0.657329571464302,-0.461332045712313,0.166447406668958,1.00940809028188,-0.264832064406904,-0.867995389966687,0.455843391197155,-0.158176944290011,1740845
-0.135972063249437,-1.12280717024834,0.108145320157797,-0.300935162143618,-0.682698756486874,-0.213045479436464,-0.630661731224574,-1.3356172171294,-0.00617118051647907,-0.372679607419418,-0.567223374234356,0.144641724352824,-0.526479655828017,1.12802102438774,0.140932913298117,-0.284234516722742,-0.948600043359511,1.28081182403687,-0.910667970617537,1742294
0.412092870113287,0.314329209876175,1.17013904206311,-0.82851481422288,-1.12441605200869,-0.215484135109688,-0.634035684236769,-1.27339066315576,-0.874157987433911,-0.33937059332936,0.628478178407313,2.12150261973511,-0.536627099233227,0.769398911068026,2.26572179603648,-0.106540825622063,-0.732761792668158,-2.15387016835167,-0.173669742603339,1767700
0.0912739448687933,0.513496643501272,-1.49106196249275,2.35152807140239,3.7676944946826,0.0577932600294192,1.11084423360483,1.51507615914413,0.0467882246691035,7.66050953513147,0.249680127702139,-0.0189736127714897,1.33425626452713,0.108381472886235,0.315782433084409,-0.191997147542325,1.71831169055947,-0.245370905285284,0.461709081185686,1768972
0.0159354260065862,1.14965071817679,0.365199346561532,0.385783690967762,-0.614600443475212,-0.196112841665941,-0.240515264298995,-0.311829501024032,-0.0585302591539012,1.0982728283584,-0.0547571729747574,0.00669541991965027,-0.187018584444445,0.0759795954184972,0.175975782726022,0.263648020111163,0.107982821123647,0.214050458829552,0.1361472924877,1889409
0.289934607820188,0.079368070891583,-0.241582648940329,0.556100470731599,2.48952662551764,0.25690845607342,1.016429344076,1.99518537801983,1.3900479909644,-0.332315494120545,-0.0765616633830501,-0.999284350935958,0.851634705150562,0.0453648100637502,-0.39917530317313,-0.111573376994802,0.331925002285757,0.029129127873233,-0.398366245583158,1915938
-0.546195694857945,0.242759517843787,-2.35005244507741,-0.718702234136705,0.0860783399535938,-0.0760169549231099,-1.52693386290368,0.043041903333929,-0.388689243129335,-0.385272306818082,-0.0565378103599421,-0.210001564985744,-0.241447005506186,0.104076295361091,0.54624872141468,-0.103261408139735,-0.758146227357772,-0.00191936082783872,-0.0826842211721551,1916742
1.5968457305988,-0.0959816679283058,-2.68381698930388,-0.0881719909982072,2.17858705094777,0.7961195294587,1.32418174979173,2.07351192594995,0.634535894333581,-0.395015982431467,0.211078771136715,-2.9612573357315,-0.0436319199245113,0.108981065444378,-0.300505930872835,-0.31022837890386,-0.286938590805285,0.520929703146287,-0.228745857581053,1919296
2.6312270554222,0.637460395611735,-1.60030612202927,-0.367332147655573,-0.675482750568475,-0.209384498004005,0.617387543069797,1.17270372580119,-1.49969586926659,-0.392082997424014,1.035982381842,-0.764458509115212,-0.0883303571378743,0.0786548651144861,1.8642944127299,0.758903193716507,1.99878810762531,-0.141502520130147,-0.476349351183468,1926770
-0.745055265703908,0.150071209414218,-0.65389509776291,1.27940625207536,0.419638422358606,-0.0799652877289838,1.90800674572723,0.395482042884825,-0.455722871174025,2.5003564008077,-0.0607195424061453,-0.225062023593045,1.77251164496902,0.196321471646908,0.459183611573697,1.192835970983,0.67185388894672,-0.184895091555409,0.573961611026231,1938156
0.25880078949263,1.99151147491778,-0.603362237118885,1.00146975288726,0.765953433419541,0.318891719351351,-0.404482653265958,-0.0917018342590447,-0.701074070175894,-0.134936942827564,0.56452720103503,-0.302551653836271,-0.224971375145085,0.0755076345925184,0.412981120534669,-0.281207156746988,-0.333284422587484,0.0336747108461946,-0.486860356430561,1938561
0.190540192024246,-0.954307372423117,-1.49412956482841,0.374262389444479,0.358868530781552,-0.0220718505685793,0.0771866988642914,0.0733280878091517,1.04954063776532,-0.380138193091466,-0.242535167498634,-0.282791292370435,-0.552688833294908,0.10744497182317,0.214925609104361,-0.536358379699333,-0.305556432785421,0.992443303040022,-0.743293583641902,1966316
-0.0258186162563614,0.748845975740142,1.0429243300774,1.20448731204506,-0.195777987113093,-0.166769009594511,0.235646292736522,0.428178350060737,-0.315668202794902,-0.0181502278307014,0.0778703891379886,-0.0919836757882255,-0.553512847477689,0.152372808284863,-0.185389335028666,-0.223821221823308,1.36763110512888,-0.274615850985234,-0.655188805645012,1967281
0.322737743006494,-1.01929251891975,-2.52685433965905,1.19088550074893,0.640399031044046,-0.190057777698857,5.04973499039747,2.30730362046876,-0.96687310849656,-0.381154711475432,-0.499698928875588,-3.55513831890068,2.83009710240091,0.0540410334288984,1.97451352712592,0.998375410062174,3.44193896443837,-0.320103371418822,-0.503287110277947,1973544
0.744020592765772,-2.5722036306086,0.458309524846475,-0.744441408023185,-0.414321142442792,-0.199210686068775,-0.756803327538444,-0.766289930015836,-1.0399181662536,-0.395951877093456,-0.91817161599702,0.131016313086791,-0.180006330312484,0.177576464256951,-1.13105730165988,-0.267431116404039,-0.605970842096538,0.83220955813952,-0.273049690268169,1975401
0.772545774280645,-2.29008122935273,-0.502311246353258,0.325245826751835,-0.139221511097816,-0.0770062095307654,-0.833708765169558,0.361018559756142,-0.180259202477652,-0.375398172359156,0.36990871160329,-1.2939181043711,-0.687741123220109,0.13116989007513,1.07139078859328,-0.439592761253671,0.2345381100321,-0.209467626802158,-0.597288404332829,1976407
-0.423968132246897,0.915339850913004,0.178649203169131,-0.165873912810291,-0.499011438141383,-0.205764371591546,-0.150529767068979,-0.548651725293863,-0.449673289150139,-0.387267231336435,0.481906044127966,0.602159447579987,-0.727794022683965,0.0782195432751804,-0.489092736347119,-0.121372774391933,-0.185182133001825,-0.404825969859401,-0.277517303648384,1978972
0.0885969692634228,0.771277212284523,-1.84561272631159,-0.711254537592894,0.146497688892854,-0.0282863261334697,0.17002338505693,0.121441172284187,-0.706297880458444,-0.397162241246632,-0.370600478622588,-0.542662545324855,-0.577419372890679,0.109489940676965,0.603051327234318,-0.257605535814951,-0.757633076570509,0.233211550302142,-0.650050012849838,1979045
-0.458630654699304,1.31820538468253,1.45078759519882,2.31751019513876,7.89303643156864,13.3409470506883,0.543967459689642,2.48404674446723,1.53725562296958,0.0524397052121442,0.142119125099507,-1.53989710565714,-0.202931325474427,0.136596532275422,0.74903437268372,-0.270561628102806,0.678377727317237,-0.377567825924569,-0.000977976860101438,1979422
1.13708351213632,-1.52339001902517,0.246375369782352,0.577010834237454,0.753922337163301,-0.180482853937439,-0.67795109219345,-0.459095387071449,1.94456568283025,-0.397551523014837,1.11769736510053,0.499019970312212,-0.556732504097612,0.445294296404459,0.939459840798645,-0.363504818650631,-0.630417902840925,0.037753179257302,-0.734133117531566,1980052
-2.36575099412226,0.443341837791335,0.0394672003825238,-0.536442700015132,-0.828446454932449,-0.21341336263954,0.779118789007263,0.385679350061392,0.108960861592637,-0.191113172980608,1.92519492700819,0.0143728643359149,-0.368832108459993,0.0911318428497993,0.865130560443287,0.570305343492099,1.24383425889708,-0.607373912468657,1.41282447646472,2001182
1.3713328971481,-2.06874964079509,1.34950205262034,-1.20307505877052,-1.14012993911114,-0.215497023976933,-0.493690540525207,-1.40633634327413,-1.18406856562252,-0.34918951747454,8.62592844858291,3.58943263355493,-0.122294596619239,-2.53973122522293,-0.532043442475065,-0.141026866195855,-0.915064870540586,-6.71008333944897,-0.58683230373327,2002465
0.837167771071246,-0.99303174967027,-2.48734289387202,0.680963774179566,0.299551614337603,-0.0324823866989289,4.09578604265579,2.46572205226194,-1.20436539346036,-0.368818967855129,-0.0591441134507144,-4.55141456030383,0.544572677503677,0.111376780581477,0.685137682207652,-0.231855490063589,2.9978173636522,-0.0283963594313169,-0.85367408595997,2004451
0.963881205686235,1.46367334488788,0.298450368255373,-0.0869323190989023,-0.0131098044016027,-0.128131696427354,-1.1843379382095,-0.605032144316427,-0.559889084556703,-0.392666544789842,0.512452592326604,-0.284218613118033,-0.0932319868353483,0.340844797005752,-1.26529793801635,-0.258169554221047,-0.666870270977133,1.09422581547481,-0.105230500160536,2006164
0.554009411081868,-1.50232131082602,0.358707418331578,0.0375614027480243,-0.116661560667147,-0.14187978346589,-0.284142062638694,-0.0906165642450966,-0.161487431995383,0.0281758587749591,-0.715473755600084,0.0420340928193447,0.0716641226953976,0.150408017639649,-0.0364801734184393,-0.322680217756457,-0.0842222438521406,0.10255620962799,-0.272005885925466,2007309
-0.735755149885467,-2.15075945904492,1.43653326618216,-0.547329079490717,1.07524546797957,0.420029434914137,1.42067037426713,2.80790183161375,2.83729738090535,-0.393638712299397,-0.0234952265141129,-2.66705151481484,-0.553102488291821,0.124086958888929,-1.08348095050602,-0.259400295381677,0.39077462141406,0.190331782680897,-0.360328268408915,2009915
-0.72105282476082,-2.14200669431275,0.559260009641343,0.146745672358081,-0.482740637565055,-0.180191762673739,-0.391747621355859,-0.434612155432981,-0.814684723219668,-0.284714454524257,-1.17221789037038,0.46604979355637,-0.102630837804893,0.194422011296706,0.0695304074066321,-0.30021137412429,0.1864475394915,0.504812326351302,-0.478599431341525,2010259
0.0194181416003223,-0.876541927133842,-1.06985916511096,0.35936740932638,0.224853600841429,-0.198800331887049,1.79347765143525,0.920510850471659,0.0754723008360562,0.466211312847243,0.776878766605635,0.72070842667187,0.26365587635924,0.0550388861240135,0.908637547899243,0.283717639914209,0.280055927439867,-0.393827609134663,0.368413107424122,2010554
0.573570743007731,0.0585545763746149,0.657292135313499,1.1273971216926,0.193771573351754,-0.177663029646756,-0.044986805466454,-0.87025594892332,0.878629082179266,0.82766418044381,-0.709121807251282,1.07186738851227,-0.459912815129544,-0.185096242302468,0.51382282118399,0.0189962271906545,-0.0647905044217858,-0.469485352259486,-0.0644512627643768,2026671
-0.787029204113422,-2.34869048513868,0.838199225622663,-0.864432432352011,-0.633604302662376,-0.209347670378427,-0.515078329656045,-0.679623701103733,-0.512206364928253,-0.393721121247693,-0.927972445095185,-0.0559016079779545,-0.440856967239661,0.343366827219496,1.29888073672304,-0.316453403787708,-0.530044372909497,0.0372681035259745,-0.38703796991418,2033049
-1.60536748825553,1.12589480646458,-0.512463708140078,0.607466598595747,-0.191457276782428,-0.0101818281286008,0.264722704607209,-0.0593623258201168,-0.806283294007058,-0.219087604364515,-0.163011389484376,-0.939882763379928,-0.56296980629525,0.0525885455259582,-0.790603802345407,-0.129681680057556,0.208081993958757,-0.535038240763091,-0.403914376864651,2034136
0.0381680520031966,-0.582124198392072,-0.382166794299876,-0.699898972579201,0.233408225298649,-0.131155923688562,2.14262574010311,0.95051333435814,1.99530424994183,-0.374340786962151,-0.378382896329643,-0.659405400337346,-0.399321896010978,0.0195152209645379,-0.864691877850706,-0.231523354726356,-0.543075174498411,0.302554742186803,-0.124046087411057,2040495
1.80360557797755,-2.03131103560765,-1.14233720425909,-0.510108741178379,-0.699892266201043,-0.213548429450765,1.51598837592698,-0.445474765221025,0.685213399111906,-0.374752573529776,-0.0349527726751536,-0.73014630880868,0.616367183034442,0.978114290018279,-1.48336352418186,12.3770938487301,-0.530587432934588,-2.22402616523277,-0.306330602093189,2047354
0.672066149730984,0.516392457410396,0.1226951137893,0.0158129990895526,-0.267289517327053,-0.171895286070084,-0.651221188821915,-0.302984416403939,0.271841131521665,-0.387368402948558,0.242841860038087,-0.44076271562529,-0.419391797276002,0.0834642519066021,-0.9610078476141,-0.28645521134609,-0.264719542211671,0.589041809988733,-0.544609106531019,2051378
-0.113096627744873,-0.121206776595978,-0.487322838113206,0.847628785897773,1.2153176519026,0.635952967025235,-0.580809700250036,-0.419115963962972,-0.110801981149787,-0.26400631085094,-0.50927567459645,0.706946103015115,-0.591979420781105,0.119041223712719,0.198460730421413,-0.278495834257306,-0.341665237353722,-0.29328222397883,-0.193663435163086,2055667
-0.851944136499294,0.102579696425128,1.18240769344124,0.892676272746662,0.669294049972333,0.126698387712807,0.272898210784892,1.63969491494486,1.93487579300983,0.0622069096461839,0.374550168163648,-0.623875231035817,0.0606406725600531,0.111738772927621,1.17223153298179,-0.25472736564571,1.66430105075297,-0.0406759433476177,-0.0323034948855946,2057358
0.491287279954209,-0.511346710724846,-0.785248342052252,0.263634738554637,-0.00880841558855728,0.0213472663343064,-1.1434376242645,-1.05826141886685,-0.804043421145985,-0.326896197345364,-0.395255086110793,0.692032247190613,-0.578089702125115,0.0320410190153144,1.02382976516233,-0.273393427440302,-0.867545629863341,-0.759775759775154,-0.529845364091469,2059713
-0.307010923136053,-1.23542655155247,-0.343121410641568,0.500749347149071,0.0569231122001557,-0.201693793863674,-0.48493737227451,-0.256384468375606,0.729811470400471,-0.230269203256567,-1.34488792387722,0.262305048991343,1.2919028751482,-1.11407919415486,-2.5668640452324,-0.214590048927474,0.173601619468387,1.43950976479186,0.22304025956766,2069079
0.61539234332064,1.00076109077694,0.426478020342981,1.29899329700718,0.182828714983974,-0.0812905745646942,0.37501840483257,0.856860919036422,-0.215916869277086,-0.00281131807370671,0.0234188079515121,-1.54880274079843,0.791988920075051,0.240356808571651,0.560328912571914,-0.187424536906899,1.96519775663809,0.105281734325191,-0.101838732600916,2070958
1.11858335752198,-2.49711750180776,0.763354104903578,0.000946033142570558,-0.411069001086228,-0.166734934230746,-0.602077771095307,-0.71289294966973,0.26091409844623,-0.37804729432754,-0.555588252566774,-0.0363546238638274,-0.674146117504921,0.0286452335728134,-0.0934876418478062,-0.248484453061515,-0.294616233008919,1.43019478777563,-0.653109880781955,2072215
0.407357725032208,0.953093566956228,0.014867752417146,2.23847572398026,2.03092768345104,0.5730153097121,0.337403064160629,1.21180863165272,-0.00314541777120522,1.60631579243605,-0.347448518292064,-0.776556800403829,-0.2562630234246,0.12972645476102,-0.156942576197051,-0.229829416115846,1.91421842674611,-0.0245072282329749,0.210889555343104,2075832
0.689397887473586,0.729405630865695,0.717169916462606,0.0368004282488643,-0.291939536390703,-0.102133712245807,-1.10210554905025,-0.398562360245883,1.45328609030904,-0.177637851324685,0.404855148491904,0.69695203819696,-0.315619619656803,0.0671840683962231,-0.209069979462803,-0.235779765887297,-0.559665092047534,0.381794228062358,-0.382132055462808,2075846
0.830367759821809,-1.93117629587553,0.767101777591493,-0.95366385399996,-1.04966513321778,-0.215326561322492,0.0648007467562081,0.484404897006738,2.46900827093298,-0.396788932649843,-1.56428820019375,0.535383736562477,-0.454209704379709,0.201814209346191,-0.0183596475429525,-0.148342357574066,1.09419037234878,-1.34279979047705,-0.695852664986473,2076301
1.33738378148429,0.92561738312738,-0.215439447912247,1.22914056181027,0.966020461837127,0.0158321646142558,1.0075444941607,0.708323218979965,-0.574450684542654,4.40451203934668,-0.0126485994887446,-0.503503351807952,0.50711608964209,0.105483801475284,0.312687498655285,0.346328536074502,1.18144090420628,-0.17191355285565,0.410840847150874,2078198
-0.574939638915414,0.743377085364069,-0.0569727682704169,-1.30027848959106,-1.11013489525458,-0.21545883209655,-0.653002262547645,-1.55418350798347,-2.26146662389645,-0.334151514782253,0.939964781245159,2.42598414163149,-0.432464452524811,-1.27947327724536,0.897086978988062,-0.103869872398223,-1.04334022925378,-1.05176726385771,-0.551603840418475,2078899
-1.39333638065901,-0.171329482609505,-0.117524495042615,-0.239552244138668,-0.607094579457954,-0.213639690534734,-0.165700558327184,-0.178622296083874,-0.670012036640148,0.0592208104187269,-0.00805740691370973,-0.518516706058985,-0.50978148049447,0.103800689779084,1.48435956667404,-0.101274313690297,0.153117014924672,0.810183080743381,-0.12238165675153,2085349
-0.320245546003623,-0.599823701126113,-1.0063091331648,-0.43595610414526,-0.505534437706919,-0.212387843819709,0.176443605338298,-0.696477586563576,0.190674332026185,-0.285581086942427,-0.51722016518646,0.816198814299496,0.744423119153446,-0.119215169529561,-0.564013669709177,-0.17401052581319,-0.51036548801043,0.417772333543136,-0.18935230473969,2086044
-0.933956121053147,0.4888273183311,-2.20517092303304,0.342452852790055,1.77597558758412,0.357401401164338,0.711001907840419,0.977165790355399,-1.51711118024006,-0.341466764764471,0.265232392401182,-0.9146691085993,-0.0775223366912359,0.0915524017875795,1.0496623026518,-0.236540936751119,-0.509218900612431,-0.03533061240349,-0.406608721952011,2091555
-1.11262817211462,-0.884436726937996,0.0321055202728683,1.03374980469917,1.04582848107232,0.198016294900272,0.521443536837458,1.10243920495165,-0.380252328616645,-0.317482626840355,-0.203854561320101,-1.00803633472912,-0.454005741510529,0.150507849005172,0.672512185907366,-0.283213514680679,0.601129869640056,-0.198563789835661,-0.532086351734752,2092954
0.277476255157401,1.77304824023487,0.767436612342147,-0.743283564222708,-0.367846233585829,-0.154315847741933,-0.917365693285049,-0.975855257222294,-0.707871098871962,-0.224357818069805,-0.231295664731681,0.427155689357356,-0.415668361545377,0.0619781276220669,-0.391353604965743,-0.191529051549664,-0.590121670061302,-0.260070366215441,2.28997690794057,2096627
-1.06148615610584,-1.62267881550962,0.22235241645729,-1.17054315911237,-0.98779358759105,-0.215413851004988,-0.869061080477435,-1.44532407699634,-1.26105265317037,-0.396241204519777,0.261103044626077,1.81397260316142,-0.491968201271359,1.19101126596486,0.532062668726814,0.0747377626921716,-1.02775803751151,3.43497483513909,-0.819561009508127,2100050
1.21519796489238,-0.0743089189179821,1.67984727385386,-0.502278846981204,-0.321786669178462,-0.169542105250637,0.920260468717003,1.59930842434212,1.51356224635954,-0.199341936076775,0.368767041525835,-0.165559434337888,-0.325728632628447,0.109237984539697,2.13203756725298,-0.249687048846972,1.28078544304897,-0.367451766265021,3.31490228994898,2108003
-0.86467761381537,0.516466314852864,1.23948607830213,-0.144875803350079,0.179211981459481,-0.078313883345591,-0.342435428985875,-0.0230647397367219,-0.62776604899243,-0.275127778064454,-0.392348746853781,-0.00884084291617157,-0.289317832739829,0.24621374169094,0.490217746000585,-0.257548157369696,-0.191913213982752,-0.645937991809162,0.309802698901822,2109902
-1.18073458850259,-0.255045427825147,-0.459675279896442,0.0343207499262239,0.496330685862724,-0.0527079648841818,0.761398515579293,0.587465353468952,0.296786015973074,-0.314954367371362,0.672916448919415,0.215616924216289,-0.156878269550982,0.0909735271235416,1.44980918737134,-0.105274723519597,-0.181101803133273,0.186592424460259,0.588081212334183,2110540
1.05434255805041,0.203300763664497,1.11736930616957,-0.874665127330943,-0.947184194265885,-0.214577648608946,-0.914637241804717,-1.41233102413774,-1.59431986766546,-0.354754866700438,-0.96719312643959,0.430826561265001,-0.735286697015402,1.24783079725178,0.168702100069449,-0.260495870385018,-0.743899807493026,-0.296981169568152,-0.798544098451831,2116787
0.05880241186513,0.307360831552787,-1.57492009055275,-0.367820938168507,0.050523819414759,-0.197358975303977,0.0196623947905592,0.0533068645803872,-0.216099036704349,-0.217190368744935,0.234905347259241,0.132533619274613,-0.0939218483476283,0.194382767805022,0.100392690214387,0.615802776888393,-0.185737041514971,-0.616628880969361,-0.109138552652436,2119177
-1.51561653004149,-1.0554299098726,-1.23332759321335,-0.120173337178675,-0.0632029168251234,-0.199444124876623,1.95605795243743,-0.139665831873674,0.564284951810108,0.00127581602766877,-0.221603806997366,0.487370137090373,0.0396656830172882,-0.569353060348857,1.22042874810385,0.865670526202364,-0.601297830401665,0.318087180803596,0.487214613534545,2131601
1.07177196058022,-0.286595608242284,1.02159961535337,-0.500281878609409,-0.974494567111527,-0.215379141646806,-0.720969746552203,-1.02891242684139,-0.323627619386311,-0.395171857539897,-1.82810460041726,0.317730240739282,-0.379949988731691,0.728872070167034,1.24998896453455,-0.278397821394936,-0.510905941522962,0.135249262735809,-0.691136682796322,2132424
0.484670084367994,1.18434749611816,1.55997330116554,-0.592214986808431,-0.336551128739302,-0.0471189739621985,-0.463539125257771,0.203870519368512,-0.413622386742585,-0.275089675372885,0.77716521280964,-1.09230866308181,-0.297491760569101,0.111968962080158,0.39294654910165,-0.249183092338575,0.684371796226282,-0.274875056733398,0.434545808934645,2132982
0.520582485377566,0.435673721793985,-0.129881600801858,0.157913713489933,-0.222747775510809,-0.0954956015595012,-0.13104599724533,-0.0357911601124335,0.107902185874561,0.378924208448085,-0.600314378612298,-0.732109548502979,-0.431517816410196,0.0519424000802044,0.229515941562658,-0.133206260030069,0.071101281700313,0.312779717302022,-0.0561353394819546,2133204
1.69038091850313,0.429434101209775,-0.190096699554072,-0.177480896065861,-0.915773535877402,-0.21392088170653,-0.882455901839499,-1.47694853639129,-1.92463789196249,-0.37246779410289,0.756885956579596,0.885356642171622,-0.655193397579479,1.45161889801956,0.24958362218408,0.000249941402524132,-0.819033342024204,-3.9066843087149,-0.394705366398306,2133380
0.321568679334588,0.528091440302368,0.990462131722493,2.09070022689042,-0.937081595071391,-0.214811630096095,0.0861774553330273,-1.44232583224025,-2.09898516911682,0.232619196130085,-0.465149570550213,0.220076151566977,-0.671439566004274,0.258416440414254,0.546882886422294,-0.250645476576772,0.400446485589753,0.0846050139838581,0.0772811061941661,2134220
1.95283575640818,-0.254755796299557,0.465684122747005,1.12063090038511,-0.111265356192568,-0.192834268987309,-0.437294533902957,-0.568884245774948,-0.111083801685203,4.84755301816711,0.341692816761416,0.989189400328929,1.07083534968409,-0.378112948815475,0.255303249225989,-0.129564028197085,-0.130496184176313,-0.581183444180497,0.0300325070964037,2135748
0.153715998396412,0.649293227233561,1.14673120948888,-0.644202109777682,-0.999146391937551,-0.215487930525332,-0.788958174257384,-1.29393518362618,0.0299190045670726,-0.242943194516132,-0.698398974715239,1.41906177609501,-0.0968436125410305,0.981191798519849,1.11537017415547,-0.131372005658754,-0.784955286467672,0.79144271104237,-0.507224678683001,2137799
0.746964923416172,0.91278524805958,-0.150309877638885,0.958669500771902,1.45840979467052,0.246138487093898,-0.356266311209675,0.653760995683722,-0.505586465548938,1.10957311265689,-0.155517380975871,0.0817763475196436,0.525688239595337,0.079644035556826,-0.284487638190972,-0.266173135475063,0.462266279291702,0.133297165033311,0.0750972016145987,2138375
-0.600340881406731,0.0374612245491603,0.584300282642136,-0.288914786663718,-0.373501753283048,-0.191565708913355,-0.25867252479278,-0.210846100977919,-0.535865334449593,-0.0535973510112668,-0.987003617055603,0.680422255106614,0.748103682820353,0.0158645738064083,-0.0673032843038738,-0.159122548461648,-0.0171961321788482,-0.313319274237297,-0.240350158330994,2138678
-1.41653466405885,0.745960676771743,0.918898601168455,-0.742973887017817,-0.654238298828732,-0.21334379329385,-0.0270254438541891,-0.511727292570323,0.692086009636057,-0.303346559401834,0.608177140487797,1.4351507359743,0.694593095888212,0.267006491485766,-0.398106776481267,-0.24197671873277,-0.362120270306984,-0.606734056152468,0.703447835900469,2139733
0.515658206151434,1.38286940142301,0.941369259076438,-0.191794144179222,-0.690190334786104,-0.207364894538781,-0.670040752299517,-1.20812714195009,-0.930983933842952,-0.3778537519947,0.944133892243101,0.170163349926191,-0.806503296743315,0.26413626804294,0.0346293732976929,-0.217887310742493,-0.474709609779093,-2.01411430868021,-0.888317829282903,2141116
-2.10026604741102,-0.638211461296086,0.497841370550468,-1.00534787176347,-1.10225595739934,-0.215499794232474,-0.691310067125409,-1.52768125575985,-0.951110048375511,-0.32947867479411,-2.33675423694924,3.10159013837184,-0.00712865729807545,-12.7292672594509,-1.78716319398622,-0.178471004554214,-0.993683082244362,4.83726508260996,-0.70967078979951,2144796
-0.0187351130863735,-0.885591263123484,0.652080592484819,-0.554880160604201,-0.89626171447806,-0.214656896942347,-0.68679582869962,-0.941464111931825,0.852893453988445,-0.39429954304811,-2.03578106797933,0.693611065119839,-0.656455782612159,-0.13036370884858,-0.623843731480286,-0.197103063507126,-0.252814845118207,1.07408257083646,0.219641649668751,2145166
-1.40268762375496,0.450601906020966,0.189082883512218,0.554305161529123,-0.593291644995887,-0.20045554137419,-0.703703511166492,-1.27775648253648,-0.654119055522071,-0.352781497563572,0.804114246338616,0.367320231507709,-0.666589292732,0.113632911478515,0.839967672712916,-0.202830699985965,-0.566683481951959,-1.2689613400021,-0.657262053145378,2145694
-0.644654846043283,-1.00819525920708,0.712923634849333,-1.20781965167017,-0.783458634007812,-0.213458558131943,-0.0679182057683853,-0.966721909645672,-0.814224025202331,-0.38281419367857,-0.645716831778402,0.513399511211829,-0.289866165065325,0.517295025230789,-0.761728480593426,-0.252514459431869,-0.897256368764708,0.43322965805257,-0.202368647162873,2146138
0.47829054209541,1.12073960996308,0.786620065805951,0.578999216234647,0.549375144749289,0.102851097844719,-0.920858538250883,-0.465890111532909,-0.744873829608985,-0.12835284856616,0.347785008082047,-0.162370136890599,0.101951138344488,0.240301908612922,-0.45173267899261,-0.223300928523026,-0.719279717638661,-0.261959599824783,0.543438846020155,2151024
0.040989585680241,0.488767669240195,0.598376012912638,-0.530306613483574,-0.0339921249011146,-0.0387104641751301,-1.0037108443035,-0.171087881022723,0.864602889224889,-0.383296970584713,-0.524881179230879,-1.14644777959179,-0.684003771898825,0.105442190778278,-0.303359860235971,-0.241424693444255,-0.549745945810338,0.945264401211283,-0.0175410985429976,215131
1.50157128550633,-1.02684205111919,0.691141085165216,-0.32153891918582,-0.546267400731344,-0.212384638505113,-0.799048206309882,-0.593908180543582,-0.257388297717911,-0.392590519767255,-0.886158043958374,0.733895409828047,0.0200595306047981,-0.462684270623517,-0.252607911603568,-0.356517254065489,-0.438542755223625,-0.877690340744929,-0.26037420680183,2152442
1.07992437436865,0.344933782020195,1.53393802342545,0.372346493838995,-0.291333881333123,-0.184250829024351,-0.215046288977103,0.143971917550825,2.40928979163621,-0.336312928189627,-0.321794998246366,-0.821951818967767,-0.833719031966528,0.113459113691023,-1.06458730287887,-0.197849831835669,0.876810444118942,0.314945879864199,0.346728553044714,2157529
0.276692044401108,-1.36631297727964,-0.754585342033407,-0.792286348770618,-0.631656776651475,-0.208744385060342,-1.48936129925269,-0.342886042282564,-0.829591765343097,-0.375219055091557,0.0924154237193197,0.521496973309207,-0.568654548006378,0.115871374565612,0.464787453880849,-0.228657748415136,-0.614407371479584,-1.08549345667689,-0.451738046287743,2158101
-0.0809586466765516,-0.155724864665811,-1.02846309465338,-0.36162732885817,-0.26914841804898,-0.198818003206171,0.877885612570106,0.951427213485986,-0.180562578538734,-0.387401426006917,0.361317332519228,-0.199816949887517,-0.469878307515903,0.109104250472639,-0.536337237426805,1.68958897644199,1.06374551543517,0.36238058350979,0.0789576294255592,2158329
0.730546047884964,-0.827865596128158,-0.271238022618739,1.87424160757905,1.01472644149737,0.248100855509453,-1.18857429605518,0.131307260803718,-0.663959540805921,-0.394623961052631,0.472576748969472,0.865083978633218,-0.729213517070438,0.102940797772395,0.993131189755184,-0.281994889771037,-0.26732971929981,0.405774106794264,0.189709114431012,2168082
-0.614386350214139,0.798006672085889,-1.51542201373088,1.04878991250726,0.662195091889041,0.192237662362381,1.09698329786751,2.22187844025757,0.240631861929901,-0.364049080712477,0.263635106256489,-1.7034930253577,-0.680802121935386,0.147992652643034,0.158853700301789,-0.315651263065207,2.59343609482856,-0.602028478061571,-0.328665256985474,2172217
1.84471433971048,0.665630230457461,0.704678849537284,0.497759282082091,0.420476130653686,-0.0720333232286577,1.01259092946026,-0.110864095598064,-0.146283807430709,0.0685116879574992,-0.152200524192964,-0.387990283109558,-0.537252055967007,0.103742171101558,-3.28429154542693,-0.229590537251035,0.0348485717377111,0.908535547816151,0.964939095812883,2176530
0.641832617827391,-0.166917325227294,-1.65067328567995,0.229757224642273,-0.195301737945142,-0.211411198147613,1.97730637592991,1.51984404707181,-1.22035050020159,-0.382982262828301,-0.849358942884727,-1.66336908591704,0.251353146401536,0.0526064727454656,0.513101435572478,0.831544058776577,0.604231163048146,0.398581196427603,-0.204296685137934,2176784
-0.249843916903344,-0.971739744358666,-1.03938952923726,-0.0307311264301451,0.846005246295946,-0.210707955744378,0.459375262952178,0.463550840144624,0.705126773588461,0.0225955362164265,-1.21921117444911,1.58246166279885,1.22067558073876,-0.0447687674098238,1.26619549907883,-0.207917854027631,-0.253044695452043,-0.264140221335312,-0.207493154918389,2181724
-0.782619350438521,0.655441432651545,0.418829847153451,-0.188542831086054,0.116370785726943,-0.171716758914065,0.109249474244155,0.0950728881729515,-0.446465605139189,-0.341904015838829,0.292144733032122,-0.35870455955065,1.49569383282574,-0.144431111303452,0.412719271422977,0.0419959957818947,-0.339587258165075,-0.146806941820762,0.443972865062806,2183291
-1.60472842305683,1.46087991740821,0.609043245083721,-0.904951216023526,-0.267681517609795,-0.193462508523955,-0.342589871476261,-0.506879241004516,0.174304261436558,-0.267444122179361,0.361031307855718,0.668814087684868,0.182753644764702,0.14102922169306,1.02237707031972,-0.0470745243557489,-0.587337180123983,-0.525527532523308,0.802158984907708,2183356
0.918680190283863,0.74771354029985,0.680438995460922,0.907450420261111,0.595934939070738,-0.034441533065988,0.172889561719069,1.13119455416378,-1.17559632566142,-0.167806936997968,-0.0855451820857426,-0.690341379309658,0.570681934448253,0.0591663124612958,0.937762151537107,-0.275234125802332,1.58935760684913,0.0967929917973269,0.0485939642563708,2185290
0.691504497275789,-1.14847562088234,-0.620744108253191,-0.107987209534917,0.912780658548879,-0.200236386892772,-0.283410775498526,0.395503352248679,-0.24007409475137,0.414619763808508,0.17221288847304,0.515948360359809,3.31847423000324,-0.353550079808571,-0.127144493494468,-0.0916389280461364,0.104036860882506,0.175211623258326,-0.12586520487836,2186951
-0.293459910172023,0.221895393348769,-0.252360058823449,-0.524637498354196,-0.530528197645087,-0.171048569762651,0.307627459399447,-0.402283406128203,0.0370280720343513,-0.277815807329892,-0.00582324228881542,-0.0390086422364808,-0.626923709674896,0.0647708841779078,-0.746896016385526,-0.0366909154888842,-0.515224284624049,1.20708991423758,-0.386672444846695,2196212
-1.24242347396718,-1.02477709986527,-0.92749321475636,0.246775445169569,1.21222336725011,-0.157754043274019,1.15547381221544,0.868135053490739,0.38086201065093,0.101168990097237,-0.573526700718271,0.950183659075959,1.81114343909002,-0.998185584354905,-1.36574368564884,0.322436780970006,0.367996648910499,-0.213906022150843,0.129151624747339,2199403
-2.1837047462756,-0.822224485116246,0.326058493442945,-0.975811801779767,-0.854785367979699,-0.214858703624672,-1.13029444869281,-1.37104515620865,-0.992950373557619,-0.397716154549954,0.700643797202226,1.06380223659085,-0.183579312690375,-0.908458680828499,0.767849247907605,-0.304791074606829,-1.04147838483448,-0.865566799661575,-0.649060889314091,2200416
-0.533233217373553,0.113888030027253,0.613876424783357,-0.388851513794559,0.356397895244747,0.0929274485559084,-0.85956072927718,-0.046106495968947,1.22733802063781,-0.394949025482212,0.0533548522633246,-0.367297540708857,-0.496444089970391,0.172637231610457,-0.762484919459564,-0.247379066998947,-0.757462920863284,0.015952333879523,-0.425678008989772,2200813
0.21959782846069,1.35970296672312,0.0762708766823397,0.237043678658602,-0.460187574435422,-0.191010223739037,-0.561848301911353,-0.896138391288646,-0.83577989247648,-0.229712794301911,0.390634133843499,0.589712565577569,-0.397139494301997,0.214616994472272,0.65129963036349,-0.115843503185815,-0.425703329996156,-1.2177202755244,0.00830811709584821,2205389
-0.624876326586561,1.073278871381,0.41675039233994,-0.334143358633347,-0.445361736111901,-0.197573313950047,-0.18598436081439,-0.760156956206029,0.11488228468704,-0.252959574183169,0.466216621476733,0.377942595545249,-0.439241170699036,-0.102336914452273,-1.13797804099792,-0.228677741016639,-0.825522284027009,0.624797076951011,0.0640941793692678,2212664
-0.846806600256718,0.893125733709303,0.16062176713187,-0.126612750557551,0.537027907977757,0.154886039194504,-0.979170779681536,-0.590199179985544,0.3092319515621,-0.355879453803361,0.380569162437683,0.411476792585743,-0.454520171004283,0.16081584728626,0.297158106027288,-0.18664495971614,-0.824031551353358,0.38100546785731,-0.645718045997474,2217034
0.866441598778399,0.0479389456303703,-1.41090590617625,-0.464479488718493,-0.652876692239968,-0.212927429477863,0.222852860648698,0.0960322377315685,-1.23190846710587,-0.383401622624503,-2.13837924287298,0.142599909684873,0.370409018911698,-0.056500438261946,-1.14667074983466,2.27165853224134,0.113742328541603,0.826630669914465,-0.227650593930929,2218615
-0.358789597661121,-1.03405675055221,-0.420824100751564,4.83326924329273,2.41149970123838,2.34634510526692,2.24732904415879,1.22191318127049,0.731879117094264,0.315232171153448,0.857019050740041,-0.704005267936534,-0.477424676464489,0.124942824792687,0.655098589764396,0.208010756467676,0.616005165720419,-0.278294600605195,10.9335127641374,2219842
0.674504813537736,-0.0635624553605594,-0.668131564775976,0.424346576668341,1.47260741014298,0.183413999668928,0.855139997064535,1.11727582610067,0.928988969474277,1.5744928682782,0.0626904516542995,-0.72272811892644,2.13260200005882,0.0208594427126174,0.0204912192969724,0.356111381515714,0.236462910820895,0.180526060163256,0.646583972859835,2224150
1.19389675936482,1.40800693242332,1.45990857025838,1.93104102186715,1.10717365848888,0.0370759716698696,1.36020011324358,2.35454416128612,2.38070231343366,-0.00198523038060299,0.0911225653119971,-0.0946111349041026,-0.53840412086343,0.141725679334948,-0.933687716053195,-0.232934824812218,1.14125192404877,-0.157046326739428,-0.234416401872223,2228399
1.23137604595975,0.899386561576875,0.944575048663339,0.267176123161356,0.510362869113847,-0.036534264956823,-0.330730762033341,-0.25516531882202,0.541876339452473,5.45265257254706e-06,0.891735074852274,0.366106384990802,0.387320814663196,0.058965139525337,-1.2624504331739,-0.139002069211706,-0.392072970140128,-0.962623331110185,-0.403687177936028,2228400
0.233619732961061,-1.69707115116311,0.520082506143959,-1.36622104104058,-1.11252893020919,-0.215488485602101,-0.724836638095505,-1.51908373369186,-2.07018757919899,-0.312797385622321,-0.0499586076426499,2.68647951189176,-0.290965481665782,1.16584255751426,-0.00906925077457547,-0.217093528838352,-1.03009826949965,-1.24179610580337,1.22013876279792,2234271
-1.23844717125864,-1.20807985807497,0.744819108900846,-1.28866285587595,-1.03265572593477,-0.214964483205699,-0.624580011021756,-1.36904228734199,-0.656050820370745,-0.331642548086422,-0.681861601337013,2.13783477463915,-0.471984009578912,0.430412991290914,0.0177845637929274,-0.216721236756848,-0.943850664714487,0.994326701338544,-0.28006908896215,2234422
0.108205886421691,1.72415017975534,-3.11570756959012,1.27589386312687,0.656873784161293,-0.153923179576443,2.50084447834347,1.87308376397956,-1.02829152396574,-0.11740030056504,0.589970724705945,-1.79193278867347,7.70334172422752,0.0597590565065281,1.52458829310103,-1.35947413277333,1.45039525347087,-0.234436394138375,-0.511597374222419,2237571
-0.585981174921885,0.237390501999058,-0.297540538499686,-1.12782566331772,-0.358112296948132,-0.20529574834244,0.0850257390197944,0.243073135439742,-0.262694597147028,-0.370339276205907,0.192468198686293,-0.106915646499585,-0.458028129298892,0.0708406338229925,-0.755655805030953,0.771737619619888,-0.28987462390198,0.28219497027038,0.305840720917883,2244172
0.982842271317598,0.0755052728638929,-1.04574449790823,-1.17407316305903,0.17175602075881,-0.153681298971781,-1.51430964941134,-0.910112906603787,0.18985458780446,-0.34744181097659,0.38095540048938,1.02971544696276,0.413317425040141,0.0596815013089167,-0.0364418999144427,-0.269751798555917,-1.10137090595867,0.568996358538092,1.35598024282658,2247869
0.203410157567045,0.832187091539501,-0.877231685076616,-0.336760935890121,-0.217176239048186,-0.198856291010018,0.940459350298495,1.09125714997019,1.35064567004965,-0.32759975827066,0.164115007475948,0.579749312708481,-0.363841080795178,0.113672305903599,-1.62682152542787,-0.150452317299564,0.182791871855219,-0.438131027055171,-0.589106439016617,2250648
0.526710930042365,-0.0883803583836075,-1.16716004458656,-0.929985300819347,-0.612160444759794,-0.175256439717203,-1.80893098806648,-0.685755050966403,-1.11901199832386,-0.393814828143797,0.221789171373973,0.352220679072554,-0.586403365365668,0.0916821171816361,0.911139032895108,-0.326503074722643,-0.720423375492151,0.408657950509484,-0.566376668606598,2250836
0.223845640956281,1.79958087393178,1.24603626075223,-0.574204163418168,-0.268497319085738,-0.163856042802441,-0.98853352969156,-0.935081978237042,-1.41350647266381,-0.387530125459035,-0.224563650439031,0.547827170916279,-0.150790108348154,-0.127147935299338,0.659869806301478,-0.191005765732335,-0.460805603528409,-0.196922950095394,1.47144698425455,2267382
0.557207595079951,-0.849640142966135,-1.1728167167529,-0.5722837908988,-0.487532024553322,-0.210741076090369,-0.100951150845738,-0.726617755493607,-0.853160702764422,0.0235224052392386,0.0776448964312688,1.75254732687526,0.671821920991258,-1.75580309185127,0.532854361431286,1.70173478236865,-0.614946994105792,-0.0656690865566915,-0.472997399760594,2269346
-1.25476311208352,-0.377884492143967,0.08190305960915,-1.25561894546429,-1.01632868124434,-0.215485934616639,-0.452165322653941,-1.42297168734416,-1.20134628438563,-0.334799669624264,2.83972821431148,1.22007706969425,0.164639523047942,-0.864711560257293,-0.98009331875566,0.0589114535765119,-1.00409771662157,-0.148795292943672,-0.870456044221123,2271329
0.548900455264264,0.903842687327129,-1.87950635868583,2.45212819775187,2.4705722787882,0.496693875354611,1.89364562636665,1.3541516483958,-0.826483045586154,0.166861238859013,0.301332000501957,-0.775690715815449,0.993753836604073,0.0650378897408707,1.30895428043133,0.190186674677271,-0.0861439607352176,0.0332970917428333,0.0328137172684854,2274521
1.17540688403034,1.06480701749828,0.376299934481244,1.38059055314847,0.0761735952593602,-0.0894461372566424,-0.213301236782787,0.682762005294278,0.322013196367191,1.12317416793104,-0.190881432370658,-0.74227868774342,0.100227725447444,0.161808194300709,0.304339348750866,-0.12365162527385,1.45550104630771,-0.34533812132694,-0.0995510447910098,2276121
-2.9009483472288,-0.360519959012008,-1.46873219075542,-0.790705588785533,-0.187529446999848,-0.193081012927079,0.930335675972538,0.268891907022617,-0.463692145186173,-0.236749775862008,-1.11376610379993,0.580763949830965,-0.356478933784077,0.124636707967238,-0.148698212869939,-0.127220298194729,-0.657731698226765,-0.0569073570146843,0.209705226012716,2278618
0.0496068455947861,0.687318850628558,0.58033112786242,-0.766970568335666,-0.587318870496129,-0.202963509781303,-0.538938076240422,-0.995058486087379,-0.625839475307318,-0.25584711535256,0.78259172248011,0.890924869329141,0.025345628967739,-0.470866014152569,-0.0782331546066608,-0.219560453581706,-0.72217090110451,-0.0463634573320617,-0.260731639072111,2285214
0.408939968793722,-0.912320669256618,-0.260640606060803,-0.55619999441694,0.334749955641408,0.298374309677594,-0.619626076895233,0.217935640876439,1.12185912803118,-0.386308552379064,-0.0349822679265236,-0.958578302079834,-0.383712889703894,0.172481815765628,-0.0798413983777711,-0.312162577503194,-0.489418923909276,0.010621425671712,-0.24515982236024,2286108
-0.755650463637388,0.907918805234314,0.492936015069289,-0.626333166478287,1.36542879449335,-0.0412135166883645,-0.197947136471995,1.06501210174643,1.51754520253263,0.316175069400957,0.0681530879743776,-0.0190125159399187,1.04561614585602,0.0577914135061633,0.97338781202049,-0.209582915949033,-0.270790304423064,-0.31288751814127,1.70021460116358,2293123
-0.0887307649054317,0.324864969407163,-0.700236097217954,0.930777273573809,-0.00822042366893284,-0.176843061183319,1.51152957592016,1.67126335731599,0.691657671296497,5.67872519607757,-0.716314420597323,-0.928991692248621,0.091691711735026,0.127969568340926,-0.784619068069504,0.0274625941093249,2.83521287307848,0.141218785704316,0.0842799288940574,2294852
-1.36245195165928,0.746521597193687,1.28477006262479,-0.390126561546839,-0.714852005994146,-0.212514350441269,0.470356860404651,0.85088204059682,2.09287614122032,-0.364761857549639,-1.70504749237619,0.0412651945620546,-0.0553768341197362,0.117069303601098,1.71728245402149,-0.147247592558334,0.86866139762636,-0.276406101582853,0.338732443591707,2294873
0.652331536188608,1.08706256721221,-0.223310560481398,2.62934569028026,2.19257992463535,0.243002800921475,1.57712482483337,1.87458235164338,0.745978240105352,1.8677133964643,0.429605892379626,-1.02786653787392,0.790018146160496,0.137860860409741,-1.14897655784751,-0.138886533620918,2.5363939214123,-0.264891075299198,0.838466308639797,2296332
0.113192080213659,-0.694805065740761,1.32588390219375,0.00471953648971064,-0.0729049974392347,-0.135236179840016,-0.696050449775262,-0.650665897280295,0.567322586486709,-0.372661106392669,0.0690754689112067,0.183836242361803,-0.63782566682234,0.148293525431454,-1.188085024811,-0.173849686504048,-0.595492463284136,-0.552970771689636,-0.568189725645794,2305114
0.822865605191221,-0.435849026660038,-0.547815836081548,-0.559472035325128,-0.595960871950872,-0.200643796056261,-0.192631655376377,-0.711234136135847,-0.104283654379186,-0.272126700436732,0.271658921959399,0.483565215119962,-0.0713548714866263,-0.0490584535283297,-0.597762116036697,-0.240486423320603,-0.570037267608634,-0.205203690692906,-0.257005752813734,2305115
0.8190467760372,-0.343601358126694,-0.00938444456396581,-0.864984603117668,-0.32111940047236,-0.181324338504364,-0.0875593393941065,-0.648231858662242,0.453679539331385,-0.396045675348205,-0.151018700810423,-0.773402892880535,-0.678960671270006,0.198695255404176,-2.10336700619122,-0.0578890259616002,-0.745506913309323,-0.498067408202267,-0.439118214498345,2306459
-0.916986969811728,-1.19520320217017,0.993337156784888,-0.920817944432395,-0.745774173450287,-0.207356555204955,-0.385680146697393,-0.105164220032706,-0.187740155992911,-0.379065429041813,-1.02219849858716,0.115287334377484,-0.604203967316215,0.0736847266472427,-1.29414496588104,-0.263505911138449,-0.533729687080182,-0.0441341823656296,2.8579100127472,2306893
-0.199879408874692,-1.01063512743146,0.0555422044747151,-0.0801366169230011,-0.383289220255418,-0.12302636106553,-0.479298228270844,-0.488777175414424,-0.116104850130311,0.6957449411207,-0.469511948427759,-0.182406940484256,-0.330879104311824,0.011594507281497,-0.228117753996956,-0.270379836846029,-0.220928912963629,-0.172147130829169,-0.201748332277519,2317120
-1.75715045593719,0.0066656038114671,-0.441115978335396,0.266947893392044,0.139388281642494,0.398381061439823,0.195511750298439,1.36691248206707,-0.0173491888307257,-0.237008890491059,0.348654463665948,-1.5385461710417,-0.266175855038199,0.1225319124889,0.434714669133795,-0.254881473301661,0.660858228380905,-0.184132610941641,-0.422620129569162,2319068
-0.381381227665643,-0.441318657030407,0.926684173112067,-1.12741357137131,-0.559788969832478,-0.183860998224393,-0.700312284790697,-0.958359436593452,-0.81450987279729,-0.24590049086306,0.266896797859359,0.594718918895817,-0.201951285633784,0.276059252011437,-1.21691244361325,-0.269005275571585,-0.890116350431183,-0.395831728012341,0.938867276610502,2321962
0.6436248747551,0.211959462660077,0.174796415756716,-0.428924993620533,-0.373471112211263,-0.182977081111627,-0.547437884104444,-0.797361248773234,-0.497883830847162,0.0622420546473111,0.418199887408693,-0.163271438110036,-0.223813744520792,0.0613556530768845,0.173792591295391,-0.134306778289478,-0.431632655550889,0.0271765335485371,0.574550876184787,2331869
-0.153524356534021,0.979505242512684,-3.33325573335199,2.18175164513757,0.604673496114405,-0.112562090708424,0.0986461604243834,0.697386670348039,-2.00215906193699,-0.304732423149397,0.4153619383783,-0.209166314423585,-0.039619205690074,0.139659545745198,1.04967249013456,0.182598712427454,0.875384264778715,0.105702311248629,-0.863220736755749,2336735
-0.559509017407,0.140856578407761,0.558067068770962,-0.571453614772451,-0.47590087005116,-0.131364705952149,0.0237097179445924,-0.0981990089706651,-0.173061912468206,-0.267201782414966,0.14181891276709,-0.346128735897251,-0.346325519333664,0.0449799002072925,-0.320734517488321,-0.116770291383918,-0.164014962088102,0.0572182448998943,0.268700803200002,2339674
0.978588116693382,1.13856800134129,-0.0170539902423756,1.13930809739071,2.0413195243092,1.04842215535254,-0.0109833033340766,0.847057286257956,-1.29186852017963,1.95536581328963,0.0782452707629104,-0.241111071956137,-0.123757565597348,0.114984139392778,0.389396520741709,-0.268622534257912,0.00340072218956838,-0.516142759395753,-0.01549524546906,2340155
-0.548827985760801,-0.747396999526944,0.300909752085882,-0.727072243808516,0.212184019171196,-0.185225017324211,0.160046831278951,0.322824097636137,0.144659017067288,-0.0729467084767747,0.241231990595028,0.869491255941937,1.50024127472202,0.359516098696463,0.469946089463984,-0.0500177863617471,-0.367748583727434,-0.217386247047387,0.893890470155967,2340322
-0.33727070176803,0.960108510549032,-0.530623424109421,-0.831324254292417,-0.536325731331149,-0.196574659183458,-1.38340833525594,-1.28795677198973,-1.68427951422248,-0.396819214012876,0.515399047138808,0.767798168190718,-0.591989303567936,-0.146026315274812,0.270682316756883,-0.262884862121399,-0.983262194455311,0.369217250220171,-0.250027032713101,2350037
-1.14048630957919,0.854008340580379,1.01164182818493,-0.560468054491115,-0.489090241818431,-0.201804603654158,-0.27875087295699,-0.675946416385514,-0.254377704667893,-0.307394370209288,0.0649038538368898,0.13137755331193,-0.517781974853208,0.0680451923309498,-1.42874589977454,-0.221353569560348,-0.548136624628519,0.330625277266244,-0.475445595510588,2352038
-0.984180201845262,0.186452918601681,1.40032018274789,0.933376686183077,-0.655320379734117,-0.209537986215453,1.46261782770029,0.605590957486879,-1.06484273979024,-0.308290932867234,0.722603968177904,0.09383749255952,0.172747259736965,0.238977339870921,0.169111169715323,2.86428975726665,5.43100602956494,0.912800870329037,-0.274662838900578,2359944
0.959484879737334,0.392111878944322,0.95010695295001,0.273167967039335,-0.121577347718525,0.053740236235876,0.0776190886442914,0.952458319534252,1.31083651829186,-0.282094149098449,-0.24087905443408,-0.87187580294419,-0.698249116781049,0.113894528016885,-1.41776597361896,-0.227682330541237,1.65946329271348,0.078231695783668,0.0796106461670607,2381907
-0.419638299121874,-1.78299839251325,0.193270576721193,-0.285434918702202,0.588410399776987,-0.172218837286531,0.254265419741523,0.996228993025889,-0.0783982879302309,0.404929399532189,0.158475726813407,-0.0159748293980644,3.13655787129557,0.0280475878192952,-0.228125514567334,-0.229956786935421,0.2123445080789,-0.00624916145602243,0.393710246036383,2393207
1.13545518181069,0.607810586769479,0.333318228461786,-0.251230655512982,-0.289023225012498,-0.115103170902154,0.0571819777093817,-0.0744524415682274,0.466195673908779,-0.184531074479595,0.200391222169291,0.00619953092287731,0.188878044777281,-0.239825843064033,-0.232263260743826,-0.195401085743297,-0.332808739800952,-0.00533326596843537,1.25034405672579,2395415
-0.13151912681101,0.996795788631995,1.64075766944904,-0.381439910867676,-0.100435307488351,-0.115550110619838,0.29978987635233,1.44184596658097,1.83380120065809,-0.359348518340058,-0.913043821246463,-1.0184831656349,-0.535265560965718,0.128234584608277,-0.506734350624678,-0.24909535270691,0.717275531644545,0.298832889898624,-0.234351848277076,2395943
-0.521995437700778,0.722437855601229,0.516436233357068,-0.387766840228581,-0.184260044544495,-0.0739674161120136,-0.540618912489015,0.0366699295227159,0.866603868936543,-0.339124924013656,-0.500840435370164,-0.261948646556523,0.36932146608834,0.124932304562099,-1.08753110948741,-0.251622047544897,-0.183957968703035,-0.0660610973574821,-0.334356620320623,2401405
-0.816395053934812,0.246280382248457,0.362903081865093,-0.728316251400794,-0.426849779345028,-0.173856251305856,-0.626052689404704,-0.511862085591599,-0.310306251999122,-0.336214667530647,0.348913176280354,-0.37417286955318,-0.604704291312651,0.121707346586958,-0.014762804420323,-0.224662412500228,-0.456255323307873,-0.00742321771590032,-0.122929941476973,2405144
-0.311263254974969,-0.165554483253789,-0.611879924753457,0.247838440807923,-0.482738634518981,-0.194785436970562,0.978504796538835,-0.607867827081892,-0.0792741954570376,0.0421758477197805,0.359292610603987,0.513105207006377,0.145457637366576,-0.111832062728531,0.567935799196754,1.12163744749608,-0.244507360063217,0.496477557397228,-0.0322582909681464,2414406
-0.289042722886134,-1.69661631403243,0.157948188899692,-0.945281422434015,0.0659911538630117,-0.108529824486501,-0.538245788060627,-0.327956090142737,1.33152802733878,-0.388089389283449,-0.226841328109675,-0.0478309672972091,0.160573734167461,0.321042002248974,-2.53483756031457,-0.24324687735203,-0.849184611669004,-0.201037133919532,-0.0585094032471764,2419459
0.685165713555595,0.150275647880716,0.291888073471626,-0.747408083606088,-0.52753780336417,-0.150477798695623,-2.43525147617169,-1.17912624178987,-1.30211776981971,-0.394361452176335,0.534317155401297,0.376215727259742,-0.617089532033848,0.0850730576489509,1.23458443606877,-0.280547884450913,-0.945000921564435,0.662180188706057,-0.537133946222764,2425694
-0.382784362963095,-0.674894102741388,0.0411506915032891,0.205223018018793,0.166015196054234,0.821092654758222,-0.317365397129318,0.274366757679978,-0.625096894504479,0.572040254010268,-0.0297017119338024,-0.874246490990397,-0.616479588460328,0.103470546085111,-0.573100724474174,-0.287116002667228,0.207747835770482,0.0841084331716238,-0.280891835496646,2426863
-0.880474833506633,1.14318545356978,-1.5190325070209,-0.718446982248341,-0.788771707731862,-0.207263699503439,-0.651638623945928,-1.07819244511482,-0.951977872160179,-0.396092678889533,-2.15785114209656,-0.115769178918653,-0.662470025907571,-0.391181854428602,-0.790264253703974,-0.0849651471687364,-0.734709714377496,4.95199474265733,-0.75608934153591,2430773
0.271632226872227,-0.413643323860893,0.773518812000727,-0.82298711289777,-0.742124963151701,-0.214025212703791,-0.668953071533037,-0.450699348233867,0.485466030961921,-0.355280185287884,-0.568250574046575,-0.610625217296685,-0.446229807918244,0.0651777898843966,-1.9240832228588,-0.139162523134853,-0.466300918257942,0.664957300034016,-0.0994807337777501,2439458
-0.565927950569999,-0.0846744323589591,-0.0160155117298733,-0.846365822980461,-0.392185294172325,-0.189270645688768,-0.730896876199439,-0.308254471308751,1.16089441298949,-0.362278776461262,-0.602822833974976,-0.366197862460128,-0.368825291684291,0.0740513217761468,-0.896083457851648,-0.252162651071279,-0.647942278194722,0.423797871356993,-0.147025033785467,2443354
-0.0515529037177154,0.24446778828989,0.117931183050096,-0.102833468839998,0.127198114047591,-0.137915948010756,0.124444923270615,0.450625959732786,-0.0101314473130496,-0.175052193366532,0.490142580489753,-0.419816906571758,0.62348094649066,0.0517311428942898,-0.19033905000947,-0.25739224761026,-0.0906711444377836,-0.165851016688086,0.577474215808939,2445526
0.551134978742859,0.923854747988281,-0.144458065179738,-0.430658229787608,0.305470909004947,-0.0320456103376384,0.314465605831367,0.0387973682333187,1.52204510238771,-0.293864880089643,-0.120002481000271,-0.314953461240483,-0.518042845509817,0.162481995326569,-0.678298814825669,-0.160118258477939,-0.429935268469861,-0.0558343012942062,-0.300397735136761,2448298
-1.4274265324818,0.017036306136659,-0.359352533670364,-0.602798103005663,-0.720997038012677,-0.209717017796716,-0.871532985588008,-1.08643673105229,0.476125336505862,-0.356325136774468,0.84327840350676,0.838800130079383,-0.395179791554911,0.217037024552393,0.536323556892892,-0.43179998623224,-0.78985460018325,-0.320852122498091,0.8233116626833,2453577
-0.458828463675166,0.532348358058196,0.735051024186586,-0.609420892704418,-0.481629348380517,-0.211279359139598,-0.601793189536723,-0.742179781673091,0.887888877034922,-0.368028610225691,-0.657527163292433,-0.289791756775642,-0.387258465003593,-0.0844292315550442,-1.85021470377808,-0.263971186002875,-0.55747792629718,1.11207358954632,-0.299965729916714,2474709
1.0266413871339,-1.2608126707507,1.57082732977248,-1.01341189780713,-0.50142649413968,-0.208502382037509,-0.423525907628763,-0.00499845834331347,1.19501149502402,-0.39549674179811,-1.8358586302032,0.603720664065492,-0.36046225933131,0.0715405355181385,-1.54137840382751,-0.185491275517328,-0.456624970780705,0.559755792081112,-0.307709151213874,2480056
0.437515614237596,0.475868448904295,-0.541787094378747,0.234742382362062,-0.285277467904538,-0.13561168627904,-0.246046906403075,-0.919746847249755,-1.16750542149505,-0.201910841107778,0.212398532635945,0.597664995085036,-0.105695342571813,-0.382803759314696,-0.124812165057944,0.0721216474051933,-0.364801140698733,-0.380596931632533,0.0632520601137391,2480330
0.168546267221323,0.746811492099317,0.333278474930751,0.706787096295976,-0.0459788859438107,-0.113409477936531,0.264466284444314,-0.176280275990936,0.126137976311678,0.330221379321643,-0.0352633788120215,-0.19883815347247,-0.13836857835622,0.0842993631068791,-1.14696958161395,-0.279822422188334,-0.0198972415183701,0.18656244089509,0.85862465759708,2487135
1.36288834258867,0.307490669144591,0.652162322920304,-0.637224837759857,0.773093918600979,0.249304124393962,-0.168581681121544,0.625928722190413,3.17788342130077,-0.350927765257709,0.265403537842259,-0.646820535018253,-0.223658853371456,0.118492841090962,0.442218306871274,-0.152498124168524,-0.535110357997456,-0.349950055094735,-0.355800744585533,2488660
1.49985578882194,1.80108647438151,-0.274433879870905,-0.261881404457257,-0.669615134851365,-0.206122556418586,-0.884888895803614,-1.12138972125456,-0.133749224290722,-0.386620716523726,0.125614040464888,0.0375897032270661,-0.813142887363819,0.111120170927608,-0.537202669626005,-0.129046350014359,-0.446796374036148,1.95490577113824,-0.519697360380533,2490180
-2.11249554740224,0.930051886749623,0.414901479152383,-0.436007530724779,-0.433859274248298,-0.194548591067537,0.448021085827459,0.247683496012674,-0.413111877016651,-0.281081440707882,-0.232085694536296,0.124459146013597,-0.529786368252286,0.109271084474676,0.0439714447071534,-0.275322018042124,-0.314255955877012,0.295247525944369,-0.420723530576833,2493534
-0.931858711785431,1.30664874004448,0.168168151253018,-0.696997390307956,-0.564757624012797,-0.209981702199431,0.467863586757328,-0.821695614283634,-0.055144574108987,-0.377555700228204,0.778011276041879,0.724415642317158,-0.551543764575072,-0.389026488965827,-1.87127832926151,0.323460871546861,-0.742543799766788,2.1288768309526,-0.365730006100598,2498991
-1.3961397477433,-0.412735102296763,-0.884371339109495,-1.14317017436914,-0.172249565622639,-0.197273573611071,0.181857278935625,0.481779954109431,0.876353531957209,-0.310087011933004,0.853949040521181,0.25410914341774,0.153508244104621,0.146513283624478,-0.604043007391419,-0.222697844154055,-0.593373314742037,-0.100609737920769,-0.317021596569175,2500377
0.45821780168406,-0.998368730807136,1.129912178923,-0.0757614020061635,-0.737682294307025,-0.212897478761166,-0.506698297162148,-0.565914336262947,0.817983332057847,-0.369555921978231,-0.937300393840753,0.0404854929956903,-0.680437292480151,0.0999903786627915,-2.43235234969154,-0.267636963976893,-0.241350561741622,-1.26779700926025,-0.505685817068274,2504802
-3.6757611564199,-0.134808835447501,0.208714773032322,-0.03306226830042,-0.487574806145717,-0.199747618605167,-1.03318400441668,-0.844713349825109,0.0681720633525223,-0.314841811900451,-0.559937342481246,0.115740024401924,-0.621053575853235,0.121451825068432,0.800391181471081,-0.191456918144461,-0.60654317087534,0.418019816938183,-0.17214123746417,2510402
-0.287781406722885,-0.404936875300772,-1.04967087134874,-0.245398744020527,-0.0453018041637118,-0.18709748039056,0.479881077363706,-0.0560115898130363,0.0169940355847266,0.118350648506386,0.524566873412668,-0.144972031591184,0.71641918144438,-0.257361264066578,0.65913601711122,0.189555108790863,-0.485125050376084,-0.318688422354309,0.0888566145495415,2520618
-0.072469634832302,0.35652953115648,0.955445815844008,-0.394671651991243,0.143097384261043,-0.170810202695881,0.065482589658015,0.27408276147735,0.556446197110411,-0.0343850211037023,-0.307761399243825,0.338434194931082,1.02248316732575,0.0123914214270703,-0.516061518716559,-0.215617351755045,-0.0195105027429572,0.342187221414685,0.306101896464655,2559453
2.31375419741417,-1.19907919888201,-0.607768713383284,1.72126916950199,0.0884028615986818,-0.198018910283503,1.98559636114214,0.379332605296568,0.315175995323153,-0.284352769770941,-2.42785691445398,-0.386519748960249,-0.369679422099447,0.313207394991734,0.941466129909476,-0.0543035660206614,0.424771263453929,-0.70140038635009,-0.975789082924142,277752
0.4356159504554,-0.812839188668285,-2.48707793889717,3.00549663475663,1.13706831336722,0.706843995405642,2.2758439479619,2.4595998627736,-0.822952325603569,-0.178292399837328,-0.160787064998804,-2.93592254375831,1.48878021501804,0.131733477110343,1.73128827384293,-0.345611879089742,3.94252221131717,-0.185279725447309,-0.408983344743484,308862
-1.91605007076,-0.0234664524020707,-1.6052679895793,0.266606632867378,0.0892669821464218,0.0713793382180603,0.0288448581701437,0.321939577220339,-0.618497266881314,-0.098496384449245,0.183586000702044,-0.413091311346215,0.199516439597768,0.0152733811249331,1.20998841143098,0.109466778709889,-0.0958134545674805,-0.239018546093769,-0.216287504568174,58325
0.670859566997329,-0.914117108588053,0.350400655392652,-0.940404394983437,-0.520767306458805,-0.158662426884772,-0.763790039815445,-0.720519700440617,-0.210289535469813,-0.388960212151747,-0.43293219941123,0.353124146863256,-0.263553302952187,-0.103001130522107,0.199964673682923,-0.153459591784672,-0.691845216827538,0.144965344946816,-0.204020842054916,92173
-0.422482192461279,1.61065821295277,-1.50161323332063,2.11441090959913,0.982315301572241,-0.100298298053964,2.48108204167862,1.81284434513504,-0.643818291596699,0.353079985504705,0.466415940922851,-1.64268958859176,1.58102186284271,0.0842816171972555,1.47114949114684,1.35256380199015,1.61954516345538,-0.164169102153574,-0.47053950989939,923666
-0.724928106612483,0.37428671310387,0.263078573319655,-1.04047575861536,-0.870006772053314,-0.211445968290796,-0.597976443343053,-0.928764145832211,-0.999951177935666,-0.395445473286223,0.532232329361411,0.834301965213686,-0.441836810564012,-0.0746585220336645,0.216819460843675,-0.254044169452589,-0.547401464916413,0.128679447686174,-0.639902041018314,965005
1.0615261085566,-0.187731347480358,-1.31949559696007,0.291371812113217,-0.343537302811861,-0.204969373567003,-1.02044622446655,-1.00140214976177,-0.784843389640698,-0.373959995255064,-0.855565126305256,-0.127338982911976,-0.643638027163222,0.30703446696276,1.34404985566058,-0.394982921748593,-0.56481729797489,0.117916982505209,-0.519398675483758,983079
