pgsalome/predictR/output_NEW/signficant_features_results/os/pcaFlattening15_mkm5d_gtv.csv
"mkm5d_gtv_original_shape_Elongation_250","mkm5d_gtv_original_shape_Flatness_250","mkm5d_gtv_wavelet.LHH_glcm_InverseVariance_250","mkm5d_gtv_wavelet.HLH_glcm_ClusterShade_250","mkm5d_gtv_wavelet.HHL_glcm_JointEnergy_250","mkm5d_gtv_wavelet.HHH_glcm_JointEnergy_250","mkm5d_gtv_wavelet.LLL_glcm_Imc2_250","mkm5d_gtv_lbp.3D.m1_firstorder_Skewness_250","mkm5d_gtv_lbp.3D.m1_glcm_ClusterShade_250","mkm5d_gtv_lbp.3D.m2_glcm_ClusterProminence_250","mkm5d_gtv_wavelet.LHL_firstorder_Median_249","mkm5d_gtv_wavelet.LHH_firstorder_90Percentile_249","mkm5d_gtv_wavelet.HLH_glcm_JointEnergy_249","mkm5d_gtv_wavelet.HHH_glszm_SizeZoneNonUniformityNormalized_249","mkm5d_gtv_wavelet.HLL_glcm_Imc2_248","mkm5d_gtv_wavelet.HLL_glcm_InverseVariance_248","mkm5d_gtv_wavelet.HHL_firstorder_Mean_248","mkm5d_gtv_wavelet.HHL_gldm_LargeDependenceLowGrayLevelEmphasis_248","mkm5d_gtv_lbp.3D.m2_firstorder_Skewness_248","sub"
0.69847015605371,1.10620067850787,0.8116938617916,-0.118614902093377,-0.811582142413828,-0.818497985285913,0.304824867670816,-0.0484933768291448,-0.587698748765837,0.400219569549133,-0.685868246977917,-0.0285585854106286,-0.659491382400679,0.438026347061755,1.11443782631184,-1.47779401068991,0.440083000104057,-0.322629029978779,0.64452377975046,1085983
0.962137579248856,0.796438141055738,0.569459379796445,-0.0932520387906947,-0.747422774573753,0.0162111122915089,-1.41013980623369,0.15730448254498,-0.281847995192019,0.648193994675347,-0.29153925707446,-0.862289066916246,-0.464747900247767,-0.931545505554975,-0.73950098206228,-0.985819165116856,0.411613260904939,-0.344866586113247,0.585161012186047,1125173
-0.8858295034978,-1.6700560069843,-2.8359863148279,1.78381675127747,-0.67932169775503,-1.11721561626865,0.494562144640957,-1.41825382227941,-0.230297788681781,0.345399910055874,0.466067997455104,2.72395626308848,-0.849674096114664,-0.956037383179486,1.38545271433921,-1.37840498113643,-3.14105772986934,-0.342891819249707,-2.6151635158623,1154608
0.623014364482949,0.822227092376877,0.27149276625529,-0.145875628065602,-0.0741407086325322,0.164620817926696,0.474198600637239,-1.74965220002864,-0.860020542668025,-0.646099056292759,0.230278752028412,-0.539776160412448,-0.387805940237854,0.633815279636621,0.113921158887636,-0.454626589156616,0.245767465260016,-0.0728433550213319,-1.43386898234554,1181124
1.17941388477205,-0.241603380840388,0.68422919958733,-0.259866462001111,-0.501316646568409,-0.635892166191975,0.452415237182756,0.488793499727096,0.66936845184488,0.239249192804433,-0.658944231442039,0.26373957694827,-0.726307763052379,-0.0791509102504508,1.25883821196661,-0.939964771372287,1.51433333302683,-0.0815984227612612,-0.0798880472951953,1183075
-0.643321885140262,-0.347241854915511,0.380363252803701,1.94456731877516,0.157489468246527,-0.390073203147928,0.41489414244825,-0.298231187969104,-0.957088950620748,-0.232611786526141,-0.295738427917233,-0.40105940244539,-0.829174451602084,-0.869229876702008,1.22216243525313,-0.604478739114411,1.19219244760736,0.391697000942511,0.221174634910267,1232870
0.753640874637782,0.738301545200129,0.321386165441379,-0.113390259381144,-0.717388423921012,-0.751509048230905,0.217621508257256,0.116928087159126,-0.107068765840091,0.229650629700661,-1.00959648860477,-0.0234975767478587,-0.353925272636894,-0.270250961400609,-0.981484519458953,-0.269981856545427,0.317018219859579,-0.326802654720752,0.874809944438112,1279943
-1.48853422497875,-1.60397004644515,0.635924649485009,-0.191805737649353,-0.601029702026957,-1.07411249721424,0.47152193971327,0.17723224221427,0.376102579914294,0.396216074104962,0.447108343064149,0.0454847521224638,-0.597954419429921,0.251638307621856,0.4593144241639,-0.146987790290956,-0.163193476102651,-0.322077868496979,-1.05502318127743,1329352
-0.447657071602672,-1.37603671622577,0.539742890109757,-0.125305238635236,-0.257428011893153,1.57138682691391,0.421550505953126,-0.0337066161101372,0.030943090571258,-1.26658366872368,-0.46823703714389,-0.267844828933634,0.145303356802147,0.683556730635638,-0.836748447276864,0.222057921222226,-0.097416193939708,-0.236908428764786,-1.00673432802306,1330263
0.655066831636685,-0.578075999521888,-0.381367433131284,-0.0776041527795406,2.84312428280101,-0.0465377194547202,0.382926722312057,-0.0662244833206016,1.56483305395595,-2.344124218229,-0.254880085432903,-1.67071847453774,0.735145437184285,-2.21883335653621,1.40441646212012,-1.32116840760835,1.23972386392716,-0.206497434057713,-0.654797076424061,1364384
0.363635750342831,-0.943475186393943,1.00845637960554,-0.0341741473540387,-0.373226789694306,-0.768069422878097,0.492091822958919,1.49335567602512,2.61619898433971,0.295465158671005,-0.191622294335121,0.254323748201477,-0.66561358871398,0.934142122086207,1.39506508297577,-1.28661307882868,0.760955511581204,-0.257432351898941,-0.480866850349004,1386095
-0.362001457343579,-0.982195069017342,0.423134684080141,-0.167789308410354,-0.836296123208069,-0.788121245085309,0.272516960880118,0.66689034755722,0.535410831486699,0.672145742429591,0.148877029884188,-0.173931479465773,-0.197003935704038,0.196265151272119,-0.0919960934985546,-1.07738933983934,0.0372370346241215,-0.373335612169321,0.373456817497033,1458656
0.146635415210695,0.532727165187558,0.589362702133817,-0.123465729300837,-0.282806552344282,0.863580955548459,-0.264253443215874,-0.196228214170091,-0.40211329084763,-0.00597769732860013,-0.119869743266853,-0.922577775610857,2.55278940031755,-2.2499714472648,-1.76928251065745,1.63977319382809,0.261791216261413,0.236463520500214,-0.208059494181149,1485662
-0.378308628064865,-0.213830036761333,0.280386752537488,-0.114055088882526,0.0819273376591189,0.199230331191857,0.461089620288692,-1.52383728148007,-0.392017181205123,-1.06232761827017,1.41072508117221,0.293083906251945,-0.405475507450039,-0.368877596582276,-0.877766481018753,0.494835104945638,0.492525915910187,0.00294985336496007,-1.62725110564267,1497807
1.46732281128987,1.70581052643604,0.521974919603688,-0.122153019157911,-0.465037423728788,0.702977881240764,0.200863613252363,0.0392703044710868,-0.0224015718491982,-0.00372671367190758,-0.330480381721739,-1.12504777902572,1.85255571493088,-1.15082002906382,-0.843647237390776,0.873037910192409,0.0563875455633533,-0.204555283114011,0.573036720520725,1501387
-2.11439199153579,-1.33821568673436,-1.36843616459946,-0.181370768507278,-0.516771342141358,-0.178341587572912,0.451062717198473,-0.442080360043694,-2.93929238013799,0.0182728079627345,1.58470154134864,0.940447812954715,-0.257924115111152,-0.497739018792808,1.39977800448282,-1.17086010587675,-3.36797875405744,-0.312192033670844,0.664081027211086,1518948
1.18685892917443,-0.349201686809449,-0.225342340851868,-0.268038855393729,-0.604933617390027,-0.928953395584326,0.491791221311709,0.359389214862439,0.268028622108896,-1.16288307643349,1.27125518341204,0.431592503910042,-0.806479832442509,0.419706113970654,1.09415644694507,-1.02784644776399,-0.0267425570340706,-0.320584120299185,-0.376752273505295,1526417
0.353180363437608,1.23937153475419,-1.60604570637088,0.113877837004901,-0.821790793895896,-0.973198365011308,0.271210798634741,0.579999807046417,0.351968277398135,0.549811392363269,-3.38775923921892,2.13303872825028,-0.46488349887996,0.259029161093805,-0.0744047887142901,-0.292921651823943,0.497223921846156,-0.375040376076275,0.528748568327307,1565177
0.44411516853019,-0.0479086016323747,-0.0449763765369541,-0.12124547521293,1.70492045796818,1.38816782091436,-0.110115882858686,-0.0785941584617143,0.27243722758495,-0.823446526838978,-0.386328257009617,-0.750124507243774,1.51962876101289,-0.210270932432618,-1.77930220517888,2.18081001882632,0.307742668961158,0.227382250587921,-0.679589019682937,1606693
-0.520238955852486,0.403256439431639,0.126874390234403,-0.125892429698827,-0.0056943002028603,1.57740665169121,-0.152261409047123,0.718160801496699,0.51409073693815,-0.636390846116458,-0.377816739516197,-1.39701553251198,1.09844787439833,-0.544967449879317,-1.05868602694995,0.856961441212484,0.0947708682112934,0.0918014930608283,1.3271586495944,1612262
-0.310872187356838,0.430438044809545,-0.342001150059232,-0.164272171705298,-0.242069251990096,0.26912069765176,0.46494852804783,-1.39025493589452,-1.26440447326818,-0.451983773502097,2.05022288440284,0.542467923701784,0.463264796466665,-0.564136735550761,0.365489521139911,0.491221377789452,-0.222348040970017,-0.262470124918346,0.15347233061904,1614566
-0.32339521099519,-0.715574095612324,-0.107705739475696,-0.125342799172347,2.21195766893977,1.90474104005391,-2.07358261685478,0.595021412881738,0.433130849927202,-0.0252269275421096,-0.207832964628101,-1.53649496873769,0.561317902785022,2.42039849616316,-0.968705366295564,0.700038316530041,-0.0106767639803692,1.52497711756743,-0.765188771874882,1644034
-1.01341278083625,-0.840884954206186,0.513540200922147,-0.111966417021683,-0.793584487248251,-0.663385241376273,-0.239834099122636,-0.0289392679577308,-0.68872832931334,1.09062498700338,-0.639822397100986,-0.125023011953143,-0.501612043975669,-0.248466676539163,0.423679800912686,-0.845717311405365,0.239993503018783,-0.33659574986868,0.577817987127578,1668599
-1.33231230633857,-1.05973398640578,-0.814684640901746,0.378334506082497,-0.720313103227369,-1.07842023644406,0.493224861536099,-0.905779443195947,-1.61306217459165,-0.0794377483897229,0.528451431743268,0.729559979365444,-0.806733538403623,-0.81651096732873,1.41309306636464,-2.0239528618381,3.76380959739741,-0.36599153627001,1.04906937466025,1671370
0.79617137603312,0.439891853901493,-0.896781534443733,0.160064870399125,-0.641534334074087,-1.1760701595105,0.473473814175441,0.166583274118499,0.15802871911147,0.339388309807031,-0.134433745751895,1.53614787037219,-0.849011145481232,1.02632895070143,1.29767176144781,-1.38954312039562,0.115966617706601,-0.329885720665923,0.491249387054933,1684230
1.21009201148683,2.13895556958249,0.460611012217069,-0.12582639879621,-0.107146890762817,1.521056134308,-0.0764661475046343,-0.469609741254034,-0.198814165081966,-0.0502913578910236,0.488771546873862,0.310191408513369,0.381846976719475,-0.267279093226027,0.085382894008672,0.372217183891758,0.308841234620229,0.160573600786548,0.479095987776509,1692385
-0.328802924185343,-0.59684527512536,-0.187674728462163,-0.024984063810167,-0.0851812184938324,0.191986521154283,0.335975853696749,-0.0649099137921087,-0.0133976980104187,-0.165771847340055,-0.461012785040903,-0.846441012063079,-0.18659303606558,0.408785117104891,-0.507395140817796,0.11584264156929,-0.130396233859585,-0.335265944845286,-0.812542880042192,1720713
1.13386657406349,2.27236949683126,0.152883756398545,-0.0869449856994134,0.547760818596851,-0.177414106216367,-0.293084054964151,0.15305874678843,0.111134324696667,-0.0285689921595026,-0.942849649029986,-0.642790074852496,-0.584749806771975,0.267760106924837,-1.32761056502178,0.251069983304802,-0.336564641307728,-0.0859769695365067,-0.392023500855373,1738800
-1.2927661108235,-1.04667599375971,0.78412177510352,-0.13287314117506,-0.367477071413657,-1.08605148011327,-0.911395456073255,0.500392316750506,0.352164879441143,1.1293714339319,-0.682808712750777,-0.694131560917207,-0.803075611830008,0.743640287811347,-1.42199746308634,-0.644636188071242,0.0768734058303845,-0.293054925938329,-0.021011117458218,1740845
-0.364968697797447,-0.38251068760625,-0.090696310024045,-0.107430816016354,-0.66525661645235,-1.15461574626674,0.457653028399428,0.401458413882695,1.59539065198699,-0.00144660900408333,-0.298842499995838,0.475324209067492,-0.725455554737842,0.381406818126751,1.2759961852831,-0.69031639234144,0.853024889856383,-0.229850386387312,0.0664347217639073,1742294
-0.278366282503119,0.308141245948789,-0.0161697361892745,-0.0560757105240221,-0.996198656892215,-1.11213970443898,0.449168667103618,1.24367427240424,2.04426283335449,2.78464657268777,-0.0167761937521207,0.513981816403246,-0.733145080020963,0.96618030296595,0.834761753528514,-0.981356945458796,-1.03391379583936,-0.386169238813451,0.523908577341176,1767700
0.346343764089411,0.146638646983544,-0.866775126157884,-0.125666966028025,2.88303731865451,1.32916102707694,0.258293556769644,-0.460937173645567,-0.0865068166150514,-0.860074513065073,0.378459453175735,-0.363205184920752,1.18381341358552,0.609958484333414,0.319699217848305,1.31603993312659,0.226064344126639,-0.0616525137080578,0.01285359801036,1768972
0.344240716889966,0.00696185386081,0.219164739570468,-0.107139826162977,-0.726314120223273,-0.442889358978392,0.434729132492771,-0.358029194109297,-0.556602490196598,-0.44455993703963,0.19939667389018,-0.00720759205278455,0.0186169995788407,0.222266463285566,-0.0859492118013954,0.290359241746274,-0.711235977866082,-0.325190078100401,0.0117099682883866,1889409
-0.577509722958234,0.442788700561938,-1.65510896823466,-0.124300435632954,3.36191560908302,2.59613309879019,-0.712672449489119,-0.0691839404679024,-1.02509497032439,-0.198238707962947,1.60102808508911,-0.953246485932939,1.0361420128907,1.15627677040265,0.193956091669233,0.740770194191963,-0.879978248606916,3.82222724153262,-0.576991187083102,1915938
-1.03786059356782,-0.985615695821922,0.577773867993067,0.0257581574017188,-0.0252763681804052,0.191163770340017,-0.0679252762084454,-0.591878818190131,-1.23515254624562,0.329444379566126,-0.491979776299076,-0.358589093842689,-0.67699192623484,0.112499250497341,-1.09036823630375,-0.511647856899843,0.325912810325179,0.0482950727073916,-1.66798994767189,1916742
1.8427269248102,1.24703259868161,1.46188181322176,-0.115869759841994,3.91625064390097,2.49162741478506,0.491580207451414,-4.17941533157521,-1.66417486655652,-1.05007169501161,0.0753514507097836,0.294703177484542,-0.0668981881221015,0.870310326592976,1.20547247550711,0.0329059119366171,-0.235092078046752,8.01405249839206,-2.4202643040398,1919296
0.771152517679206,1.73857332311571,0.481605550174007,-0.122278001088695,-0.403145213001762,1.05740050488054,0.421959509881993,-0.394938492890662,-0.29198241239399,0.403952328907669,0.240585236048185,0.0203235046012987,1.72155266139487,-3.38750029799704,0.829036811882424,0.0782623849077222,0.0845678684165941,-0.084244429423847,-0.152962932793281,1926770
-0.834611120491842,-0.761800223154846,-0.396482429077143,-0.17234715804507,0.286914746093294,0.455059106225931,0.378360794557863,0.248940106732644,0.169166214680684,-0.431732515511681,0.0793470658848529,-0.061793994433993,0.709126745239027,0.65628364632098,-0.236978992820003,1.24373259061989,0.193028395124733,-0.275958854959081,-0.0712338242610007,1938156
0.416692437082743,1.2562956144084,1.12548399159191,-0.122346362107712,0.450261769477469,-0.25457067158399,-0.421791299795936,-0.00785241259137597,-0.16435222679721,-0.29455868553093,-0.264372954197401,-0.548101576856637,-0.372777947897137,0.0257570226825398,-1.14598097207018,1.20456663128832,0.141235147596902,0.507871092647503,-1.23368677486206,1938561
-0.382074986644887,-0.361338733660135,0.620480398093192,-0.119552600314316,0.337584133368521,-0.0393070937594993,0.43716274754911,-1.44035459966632,0.0935398736447767,-0.709208596252011,0.202492063499546,-0.231069442651421,0.135062079167923,-1.74914229870363,-0.42581071817056,1.41457186853712,0.524486120074755,0.497682412840301,-2.82864522154834,1966316
-0.547924233463134,-0.335140774967176,0.779066105148706,-0.123447562691149,-0.1520540351379,0.733091759197821,-0.039916027510359,-0.422947726723433,0.195056691568437,-0.554316628235862,0.264144848349605,-0.686694599589806,1.7322717929808,-1.3638025156701,-0.857977334793198,1.68712871470194,0.465837856231609,0.288823871995962,-0.528196163447325,1967281
-1.15730347984324,-0.280617972851056,-1.11759493917411,-0.125563316157261,0.526449188856252,2.33964744088244,0.490125077076611,2.22355888556359,1.7196219810473,-0.982520010972828,-1.62804150134692,1.13145725470204,3.4679710301533,-2.27532055531343,1.07925876323682,1.35170902907199,-1.63319305614746,0.822176569017468,0.0258475096366757,1973544
-0.21703094704056,0.427454114694408,0.213396861482272,-0.0968993635040236,-0.602570243093493,-0.742263402765649,0.193021215892076,-0.243422339385427,-0.800576030555574,0.748767750232209,0.542335378931941,0.398018526718248,-0.564126196897562,1.0646069747595,1.05729304803979,-0.870036900635298,-0.056589644431205,-0.261891844147093,1.02536233898119,1975401
1.03252010456709,0.509930861525611,0.66343496962689,-0.120531756667282,-0.479095951255099,0.168689412873394,0.0637223216854176,0.814358373324049,0.757980677857386,0.850887237390928,-0.468162584076911,-0.869816571077782,0.0918564262052557,-1.52825804433669,-1.41360143634715,0.54345483072144,-0.0981762371397643,-0.175446606756101,-0.550573721824537,1976407
0.0351420845702384,-0.064073624996048,-0.0738258754349199,-0.122153139046652,-0.522639907386197,-0.646991768759076,0.453493264603471,0.563317192069924,0.807238468358305,-1.23705690725285,-0.128447897818421,1.10676472711654,-0.230923254997695,-0.631507208005611,0.673373208875896,0.671027488167369,-0.333718529520679,-0.226663754251398,0.778781451483648,1978972
-0.577341057944758,-0.345372093150059,0.153448985298682,-0.130942803049608,-0.108896328629864,-0.127823417560736,0.458437589276001,-0.970338929755213,-1.68041012773716,-0.287775929203739,-0.437296352338297,0.144647295367346,-0.754904404223905,-1.70084574374911,1.05250236047468,-0.847870156762744,-1.16765657404729,0.256002287308377,-1.6093066060822,1979045
0.0236697483678978,-0.378005160806538,-1.41908554173363,-0.129986628208242,7.01855889218119,2.27384664342213,-0.0397626585351078,-0.0230299657880426,-0.245643122490979,-1.2304277311028,0.515859778988425,-1.67020138162343,0.250198525978323,3.16510277691752,-1.85652862811231,1.96091665875364,0.0539310588109335,9.55143628719529,-0.856417434399498,1979422
0.343070831821898,1.05766164775072,0.942114607589542,-0.145530698456005,1.6926907549979,-0.242060719652819,0.474947477652903,-3.60882485750795,-1.42761632227957,-1.5526826969193,6.7947960025057,-2.51798390753575,-0.490529066899804,-2.04771461024043,1.37627533274895,-0.252162095880313,0.804137394982293,0.974442338398283,-2.78683314525195,1980052
-2.19121090030807,-1.43450092633157,0.766511908709452,-0.132264759905264,-0.814897334279049,-0.0129514523481134,-0.0554705004481552,1.08572854417963,1.04205784280223,1.16084274091792,-0.789483655770279,-0.749092483971855,1.0097792134767,-1.32151066762726,-0.881153866823556,-0.331812155098164,0.151724883198756,-0.336791722972807,1.22104659766926,2001182
-1.22181136349908,-0.453477607326258,-1.05592631560236,-0.223298745184707,-0.531432092664868,-1.0155368990082,0.484173331344505,2.26942588165995,4.21923036808437,0.96105930990935,0.827892645225108,0.860492571837245,-0.584370735096112,-0.639476817256431,1.41399629488292,-1.97674534791452,-4.8166665807795,-0.320830466630327,2.17238820524641,2002465
0.372198135177628,0.442172552647169,0.0108228736234975,-0.123865307058073,0.0956299574800458,2.27545010984368,0.341763863958803,-0.810615521743335,0.11309018455666,0.241403585719428,-0.578010165670774,0.0772854185993938,2.78185795696659,-0.880504635507067,-0.0326097446956951,1.26247575425188,0.477100813465821,0.32386659973749,0.358800445579077,2004451
0.647199389606937,0.772404288106745,0.474028845032079,-0.0788279783484138,-0.167291054570297,-0.716065478818895,0.459324243038522,0.421395783433711,0.850061995975662,-0.524669410178427,-0.119546651793232,-0.259739111176547,-0.643890511564731,0.0941966315614774,0.0926702552587831,0.178265425869259,0.580511877515442,-0.104645302508441,-1.18466206808375,2006164
0.514079988310174,0.746043146170833,0.363465122436818,-0.120642333713968,-0.318966078203657,-0.0290753696934415,0.267266320793038,-0.313800981985187,-0.245814276483976,-0.508626551388138,0.416790160932185,-0.199678822532539,-0.21118531303332,0.401888424997388,-1.18418891291174,-0.004591389771682,0.273483452850375,-0.282003184040846,-0.369213571159396,2007309
0.885186056919769,0.486699643587093,-1.89424370472763,-0.116168317518606,0.877392996227562,2.4463455390692,0.0864743451615075,0.452504416194756,0.679094746864529,-0.697287430920882,-0.400627408452556,-1.27150292600016,0.111389674102018,1.39987781512941,0.164426857625446,-0.2224668441854,0.364320900897802,0.92163667999153,0.704043786663905,2009915
-0.450471195547387,-0.234061239857471,0.31917800858559,-0.153599206046924,-0.60001646668653,-0.599523909043372,-2.40700303829901,-0.440059890967492,-1.01434274582966,0.622493252875172,-0.0508114017066722,0.0410469439253796,-0.102885842709852,-0.203030395944042,-1.2691176841241,0.121323619872584,-0.680687767271888,-0.329177802199518,0.189547641541952,2010259
0.585254796088233,0.43034206122469,-0.711449380160901,0.1263661878117,0.248945651233757,1.10441697157254,0.216364723748008,-1.6639254713289,-0.641140052214995,-0.461447707008822,-0.340384184966537,0.274365043162668,0.393041271301745,-0.108050223197779,1.10436976069614,0.0472645565696889,-0.0188792084556093,-0.298123816177744,-1.14651213607765,2010554
0.678192645633134,0.478817889294204,0.693817777742257,-0.266588349613493,0.144229800507987,-0.833664345131751,0.41461853733413,-1.61954189283797,-0.681675681523583,-0.998316084635148,1.10047394337607,-0.173583478566505,0.0035882373323771,0.334451488760914,0.265203448884175,1.49144163086557,-0.488505119929876,-0.297539934428114,-0.747669441744936,2026671
-1.58854706210476,-1.03515676602848,0.741869911708498,-0.056490959054246,-0.75516742396727,-0.711382594027823,-0.748450360116403,-0.787924088892784,-1.67783410482441,0.837074218119227,-0.876372233979042,0.0457480291723804,-0.539364385907278,0.192954744664809,0.902835668970442,-1.11253066001907,1.01718053286087,-0.264508152877081,0.495345442203454,2033049
1.0466531711338,0.776569667685776,-1.86908906865485,-0.00200276549986806,2.01188161281559,0.204410601422578,0.475247195430118,-0.548432374659602,0.329052781043391,-1.46192495135853,-0.617977458583769,0.70286794048055,0.73822965424898,0.523575032196245,0.989637148806307,-0.159162879003764,0.36404644034673,-0.294925267457584,1.39566141805995,2034136
-0.00270695504409918,0.153303632369458,0.393495484438154,0.107389115513601,0.332436676934722,1.28170688160558,0.488500916577712,-0.921481075334478,-0.671602440901235,-0.900634530759303,0.68392551424197,0.398915361742218,-0.464403109655923,-0.732265602303568,0.813499200646294,-0.578464266486973,-1.94326302734402,0.081595188810752,0.0291893417580008,2040495
0.302764231776339,-0.0731567912313076,1.17609440934571,-0.123323534556821,0.275592432574754,0.149952097729149,0.478855949707726,-0.785079647199379,0.347701942026875,-1.70415763703447,-1.01770037667306,0.129312492044887,1.23158610872785,-0.0159493133130374,1.35422135288169,0.676882042768293,2.42139616134519,-0.180120215879248,0.00216770914965834,2047354
0.788102502295654,0.454618051219092,0.722550316255477,-0.103312469524147,-0.381956343666708,-0.424287255167306,-0.249594817529357,-0.348110535163494,-1.04601648645486,0.373080802590039,-0.176349241394092,-0.642814346705895,-0.412122201898321,0.269169343972185,-1.18821155721977,0.324436888074379,0.504708297221028,-0.1819601085881,0.0521285828676023,2051378
-0.198209299264224,0.0714198307559272,0.654007191039014,-0.109708934979122,1.45024211367903,-0.158880092176936,0.327990716492829,-0.300867575255629,0.023880565670738,-1.30462308749698,0.440767675127491,-0.414247114201566,-0.278677497060222,0.999885607583253,-1.58451725499365,1.49363423078781,0.0158111576548083,0.765205869555653,-1.00821740936527,2055667
-1.58528290215196,-0.57374190885243,-1.04140462545668,-0.140216757487698,0.951059444064646,1.99159816658474,-0.721743446135581,0.347298262014951,-0.0951140073765379,-0.841578629435602,0.437920647014739,-1.16215533828405,2.22464502358528,0.877613718133094,-1.72560766547987,1.38562850608623,0.0286509936032936,0.31488378925254,0.484761773369796,2057358
0.510499569468789,0.539081283123891,0.501109376400412,1.76523160882741,-0.307315057975395,-1.08405631547812,-0.6712781681204,0.39745022731869,0.187455546102943,1.69131393611711,-0.258369187505396,-0.332151639098903,-0.819994294364747,0.629636279418484,0.594509438759838,-0.0412954446278041,0.765756868894854,-0.268274634690267,-1.00387448624747,2059713
-0.874997442682632,0.0647948177149462,0.221495744270124,-0.282412818172864,0.735966933503589,-0.191804383482905,0.491285290796926,1.2416543562758,0.755051342766069,-1.77380681209111,1.42060523094114,-0.904904779001798,0.259495054605035,-1.54804787105673,0.863786390668367,1.18517930368111,1.00174776931832,0.493007326076217,1.76831142449048,2069079
-0.234723487803068,0.520089656951165,0.114809322806335,-0.12247580145492,0.173025289597409,1.16546128676183,0.108271338511227,0.542214483659895,0.51066464077307,-0.935296308804061,0.514239194318529,-1.05057685992983,1.9140356793869,-1.10407920453098,-1.23501097309622,1.29526959875608,0.459871733590552,-0.112500003414363,0.915702406803808,2070958
0.637006286057911,1.21540810717446,0.708011593497409,-0.0554607211159209,-0.424758045394204,-0.779451799925935,-0.092316808938092,-0.954189935374507,-1.83889324465493,1.17856359255437,-0.404148953661134,0.0462772580133856,-0.472773677441634,0.453976827517128,-0.445227124106316,-0.00521518381548248,0.191623842605186,-0.0449475557627914,0.471925504776743,2072215
0.0814454885282906,0.570864953549801,0.217833186808449,-0.124927240797384,1.80087281720829,1.12366840873457,0.223864996426613,0.646237574305359,0.596578967637466,-1.41656986128841,0.218609656293075,-0.790336039608922,1.62474226324497,-0.51339827248609,-1.08866797837663,1.74978510543465,-0.098043520328161,0.333433123413218,0.313317061402349,2075832
0.518945383196301,0.737617989760641,0.774126085301437,-0.129546078390832,-0.35083254192445,-0.427081493252261,-0.064757048608798,0.0956505622937563,-0.195673571007423,-0.0137597384187085,-0.141644322072573,-0.632477524900506,-0.482562611324176,0.355980891469014,-1.51012424136033,0.215038887213626,0.131689389656972,-0.265775366617873,-0.184181534963226,2075846
1.43976150825143,0.471198225516391,0.473500311266822,-0.121630672307885,-0.96365537883292,0.352009907863013,0.207941251743106,0.145776475974067,-0.163556629580488,1.41799024660857,-0.536627534246641,-0.461025875965532,1.30456705945044,-0.858230449539273,0.482743022973355,-1.09203543694337,0.435744056912526,-0.361390540724395,1.6322146545141,2076301
0.93375773319947,1.51168731831603,-0.0748185678831056,-0.0962555123928905,0.400774801157523,0.508274556636841,-0.172213761870716,-1.18815874565919,-0.599721922943804,-0.657729556855294,-0.265766133206931,0.0590002761730005,0.767345327581397,0.414230693818667,-1.3998418257476,1.20283067520708,0.0539024682347034,-0.33993431493634,0.186861068760233,2078198
1.08052341945232,0.282082302169222,-2.73332891994376,-0.702859285609114,-0.980887127076511,-1.35712428837074,-1.46730513975057,0.623801175005627,0.461316043753853,2.22429979898087,-0.30527274385999,2.68270549418666,-0.903637591450961,0.674091297869794,-0.638896128611455,-1.62434777477473,0.000149184728855635,-0.375953513922696,1.27534770018462,2078899
-1.47592074322733,-1.5128820344396,0.532665394564245,-0.127161651092428,-0.624403055276159,-0.505151378847903,0.0170660324766904,0.0296374866215573,0.180677526095604,0.198192013711709,0.0342389941463393,-0.283917832364822,0.0482476706007423,0.00232101106284676,-0.176706176587472,0.135264680405494,-0.776380865086394,-0.300965760508082,-1.17088805056145,2085349
-0.963367336552622,-0.865925462163489,-0.251722659037413,0.42886137336219,-0.686867295276734,-0.855562556784984,0.458476258207663,0.520226320477928,0.721086282265384,-0.538567289771035,-0.974692730018592,0.494885814808743,-0.607544645081741,0.463661814684074,1.21558437836356,-0.656377773262741,1.06237175887289,-0.38661192179941,0.445505356182558,2086044
-0.277441920443354,-0.639969979047102,-0.228206232206017,-0.139772002836386,1.6858210233542,1.199517012926,0.458211510882605,-0.224182408167656,-0.303293529247838,0.259339460476765,-0.283402657892646,0.763432446290139,-0.595746777155191,0.894238931630548,0.230261919531704,0.232880576271271,-0.130408991116354,0.219663078541691,-2.6811325590339,2091555
-1.2288434823846,-1.30091134352397,0.406822404443877,-0.121624053854365,1.09431022009103,0.865274831384928,0.235776319370811,-0.342329585302685,-0.29451465174767,-0.107133442014801,-0.0769916190444459,0.0387441055952286,0.436970387478158,-0.240580112024943,-0.669373282462924,1.13344948882664,-0.233885408335819,0.292263804093728,-0.16237317917824,2092954
0.811028516226543,0.341945804417394,0.471648048521985,-0.120398110240722,-0.711960021930454,-1.14927116287837,-0.784750029925271,0.422768248939294,-0.149026984073993,0.810942462170682,-0.0255341969000361,-0.122652109996573,-0.733224842161097,0.222574107039026,-0.450673755695591,-0.506448097625836,0.894144068319617,-0.337592745250433,0.592766468481812,2096627
-1.61723324137741,-1.54680000823308,-2.54555675274534,0.170616074154128,-0.846795828568533,-1.3029227185817,0.471669600428282,1.91318209427336,2.69930235062907,1.74559683736951,-1.4008323935049,2.23334607494404,-0.875646833524712,-0.744767082293039,1.40119868269903,-1.84763382943764,-0.676920388528995,-0.340545774314841,1.801158867004,2100050
0.65107443659903,0.347760754540267,-0.414306918521497,-0.13872186449831,-0.386103934862388,1.5285657047889,-0.433299440944415,1.29028899192945,1.47514938793904,0.00744421803125195,-0.182210676332139,-1.2616986337802,0.627198997397986,-0.396726817032055,-0.846247909458854,-0.372629782632981,0.35740167024152,-0.245397608591903,1.22334453263121,2108003
-0.579137527617302,-0.647003672373744,0.503665628598116,-0.134167026079173,0.110911214558725,0.171461263630677,0.376333714039583,-1.07560048274051,-0.220391735863763,-0.906546117825989,0.422634963403439,-0.457421676463866,-0.189413367313308,0.200041610569553,-0.964635057896115,0.00684642290798341,-0.00779699669179386,-0.106408299172923,-0.581936623355791,2109902
-1.00870233100653,-1.1419123702386,0.105058442541719,-0.163803491754062,0.360332500064202,0.255947406493219,0.399521240740078,-1.23405716085098,-0.342975194890122,-1.21994035576058,-0.87045750725964,-0.426570913013943,-0.198265384788149,0.725969338519576,0.81813378894945,0.430351420356677,-0.244407033943351,-0.228792981020027,-0.438416372923716,2110540
-0.282689237492029,0.898159705694384,-1.51495077965222,-0.123231546045608,-0.932288909148719,-1.31772116667665,0.00159349003641824,0.230324411993274,-0.302559979554508,2.18151181671477,0.297490175168114,1.50557415604374,-0.764938793185216,-0.781034729648165,-0.956987890695502,-0.891597712785995,0.028540419333512,-0.342877696960372,1.11050215390953,2116787
0.596201423943628,0.13822047208558,0.211800238466336,-0.900832776478981,0.110411131279153,0.114047353889161,0.491350309122447,-0.743609813722279,-0.346903405683459,-1.05313876757564,0.0930497531292982,-0.0381395367427414,-0.315061141167715,0.0105531522975975,0.470501113499394,-0.120002943596626,-0.328121274302693,-0.295805486668228,0.0279545934596939,2119177
-1.91942972262445,-1.55187043980609,-1.55840660962426,-4.13708647633237,-0.398321266060807,-0.392104159915894,0.492287008500419,-0.652987918760713,-0.00864449806649615,-1.1205304249168,-0.434963510415648,1.99499069825821,-0.734192831860001,-0.510700093868958,1.3922098512305,-0.93754025684148,0.609354558837204,-0.363820194000905,-0.33775246432929,2131601
0.175738352897081,0.106031187669125,0.257684139748093,-0.151675363834481,-0.875982113673856,-0.999438102208012,0.301130240425891,0.633134992898295,0.481835345800015,1.6567478812427,0.491948330166049,0.507560331943603,-0.435890964779429,-1.96477887023887,0.602274082639285,-0.523311599370069,0.410029325690038,-0.339489262258695,1.21241588489791,2132424
0.392679323655687,0.511034793104355,0.836052361510644,-0.127717033025746,-0.624890758327493,-0.087750262626352,-0.633010937082053,0.369130179357787,0.0640778445034446,1.37131367736528,-0.436993287712447,-0.970542073717188,0.285888728218144,0.411026232574864,-0.927591777553303,-0.572230107015711,0.282951191056779,-0.272703313224508,1.21742662734063,2132982
0.759244580460027,0.573837795299104,0.736838672283301,-0.129682755211107,-0.487460527653506,-0.284546839297286,-1.89475966100598,-0.300520403804599,-0.935529642953611,0.347572879685743,-0.107187353348918,-0.537244845122305,0.0187966770271147,0.299867994942936,-0.60548891371317,0.482869901345705,0.111538762445578,-0.303468412267924,0.34179855609978,2133204
1.62063023517723,1.82316197968891,-4.34694081543377,-0.140900323499982,-0.941856990971621,-1.38194647037944,0.141191927083874,0.759534429766609,1.09723985254561,3.89328540684415,-0.236937494773948,3.99846946399583,-0.796163055576638,-0.00718026546219165,-0.530995052666734,-0.113657963437032,0.613430221985593,-0.369083739571279,1.32626273817274,2133380
0.461584670197623,1.5677657101161,-3.09010764506535,0.0161158654420421,-0.904870107854339,-1.34344765476743,0.298269419120939,0.33073916453947,-0.110481793345032,2.80737739768187,-0.790364586959896,2.60515108936312,0.165407941631111,-0.0165366516514604,-1.66458459413791,1.94769146682703,-0.370314085476361,-0.367696209347475,0.537411204170987,2134220
1.66246866076595,2.15395465938949,0.0530946667721702,0.881901773605325,-0.126359224028496,-0.439299970866341,0.474108404222169,-0.267069796226928,-0.346814473638209,-0.655889409011617,0.533941396346176,0.0426324963463973,-0.0838951137012641,0.367116511314976,-0.126174628244972,0.598926189509605,-0.342983972902496,-0.355321378583545,-0.843281953363507,2135748
1.03170229872514,-0.216163063505936,0.0519534598770258,-0.0878903172008421,-0.867043192400963,-1.17182456129144,0.487441335093701,0.419716679518407,-0.00794638017501065,2.12398112852966,0.223324487201903,0.637648332208362,-0.760152028130216,0.27527769426162,1.21068089520251,-0.869347662778752,-2.01850840954546,-0.364731315205844,0.92383357808432,2137799
1.23099825543478,0.936222166486533,0.344714549308085,-0.0696519928721223,0.962294222251072,0.233634220878701,0.330082032296046,-0.577648266144891,0.222965152160201,-1.3320163229593,-0.020776453869581,-0.543801332874394,-0.107844452423238,0.477681119064544,-0.63944193931911,0.940236366598418,0.0413060236397886,-0.151090534503554,0.929387171794059,2138375
0.404945351629495,-0.309558549851542,0.238356920459379,0.572090881252306,-0.428866138317385,-0.198360268392316,0.231352261171744,-1.00218827468579,-0.569112158413399,-0.758256913765298,0.80039544379818,-0.180338210166936,-0.00877592884446195,0.212765694574679,0.0386960113048434,-0.198268231448894,0.0241230914232386,-0.365619995322221,0.17696468778114,2138678
0.711154850993972,-1.71187627432904,0.0346872632141547,-0.242193808910328,-0.374783092528333,-0.49665385489551,0.495686540991491,-1.33450913308172,-2.47194125950115,-0.701873062282138,2.2597129305059,0.358790488145563,-0.470388906795628,-2.44251042600071,1.19912326715274,-0.317028032585795,-2.04908445189699,-0.285333270216181,-0.638753501745471,2139733
0.828222250128241,0.338523578532022,-0.580916024239808,-0.114223024661746,-0.707818865248168,-1.17960834080637,-1.07669723690937,0.218558601916964,-0.436106714953498,0.332230540699705,-0.671781661944292,0.850130197717258,-0.565167159704835,-0.72936335230077,-0.00202547279954454,-0.0259575170712626,-0.284126621245308,-0.269922988425342,0.403657896469178,2141116
-1.16997529686111,-2.43244707845226,-2.10402795495126,-0.165059888969594,-0.85176708187674,-1.28443959181193,0.486208362953346,-0.567750259111657,-1.64261279328979,0.747930317654872,0.607765323743387,1.66333716257404,-0.787612926762725,0.0381380800741679,1.38502966742865,-1.54858164096224,-5.04445862203389,-0.372733676756564,0.427728834986678,2144796
-1.21213826956798,-1.66087365449925,1.60117958281745,-0.121992744836313,-0.551182770114998,-0.705115579982131,0.485151471168961,1.35765391433884,1.16787323800823,0.129187398322459,-0.0475356454112306,-0.282346023560675,-0.239046437180819,-0.826605364663118,1.33099120470903,-0.693954447341846,-0.376858385878898,-0.297143727563557,0.442565219774643,2145166
-1.94533783358834,-1.45270728113733,0.534210889541347,-0.116127854888402,-0.630334957100216,-1.25409579879864,0.327081222958734,0.0507260682947836,-0.513256439144948,1.68068840607602,0.95352240117638,0.0717414626542994,-0.559467158997592,-0.840983119758335,-0.726446196574056,0.359760577527531,-0.28143039159638,-0.293084061115708,-1.17305451022838,2145694
0.256617482807473,-0.935682879270665,0.152265080871149,0.170789191777787,-0.709599930106398,-0.977015697617692,0.278861902819547,0.0196998880819922,-0.289677051523278,0.445331822356161,0.350091467971798,0.576261172760285,-0.82742946114283,-1.52254770305317,1.21234111477292,-1.46056940537242,0.391556887126526,-0.30951104366222,0.427567680648588,2146138
-0.150842105640216,0.476463923880031,0.592564675691681,-0.0708532611069567,0.134335739163576,-0.754203211275077,-0.259245321078267,0.958863824781052,1.2843559485535,0.469744795198689,-0.384236023102822,-0.624730834236349,-0.776872703708645,0.142183968593141,-0.667194219348289,0.702679074765248,0.531430268674417,-0.19780547555593,0.325690906786341,2151024
-0.676020906485583,-0.348384838551272,0.454507560942389,-0.129977083271838,-0.166615431717666,-0.233872393841973,0.257722260138699,-0.21841246137271,-0.454970060745964,0.116435466374983,-0.231537427671469,-0.989462253761684,-0.67847006623869,-0.329513126441891,-0.36753329214109,-0.329393779405433,0.135423085941005,0.0768403249748949,-0.485073094874446,215131
1.18746518944587,0.48542790691272,-1.02339860431091,-0.118929770353722,-0.605240961882425,-0.768394825824765,0.494480222312907,-3.48965331045739,-1.9408888726066,-0.560418418318458,-2.04747404667224,0.784020270545871,-0.217964729635973,0.218989280829208,1.28223945519082,-0.652764554512516,-2.25074345794061,-0.312453412398581,-1.03457108544279,2152442
1.54085505221775,0.850062014786956,0.994078753963463,-0.127402186998876,-0.131956329721508,-0.0735415345026193,-8.77641551877349,-0.0474813303932204,0.189867305069358,1.19862763604344,-0.0826987882996225,-0.466522810529919,0.751258156051049,-2.5646381683865,0.464008662830566,0.586787198738182,0.515772916509764,-0.20093247091522,0.169508823028882,2157529
-0.127979438218689,-0.727749079666295,0.241881531480422,-0.133502318310893,-0.61717241385947,-0.240001731319658,0.455087023516473,-0.757033460864949,-1.42539544856311,0.443711360968973,-0.751356512614116,-0.135365382423728,-0.451164749466993,-0.36109619675072,1.16141184582123,-0.909410097172824,-0.0453864282299544,-0.288682904102014,-0.613982451346331,2158101
-0.266789248160318,0.170673210039386,-1.16086815333684,-0.156425667048059,-0.468255186965348,0.662670013669026,0.486414050718982,-0.0682923254874732,0.136127968560903,-0.90197155282401,0.493548048325512,1.75809254332654,0.370211333661817,-0.279274777521912,0.866429819997045,-0.319524041224131,0.152914532695566,-0.332909628370137,0.591988689279957,2158329
-0.314425412825082,0.159850965595553,-0.214478558218535,-0.120717589975671,0.64639840577651,-0.243188175635792,0.26877338026174,-0.355962614556053,-1.74276233064547,0.888953532808231,-0.229247006578464,-0.895588285589374,-0.296306922350813,-1.22001532236182,0.595591038258574,0.682535656048084,-0.496214647910327,0.56813937789663,-3.09848297651581,2168082
-1.26339605153975,-1.14296012443341,-0.0660327811396707,-0.123315115218713,0.102060052448002,1.61228828917277,0.444955067847418,2.03164341114683,1.56424331284808,-0.624418277212947,0.816067265043477,-0.920833417546439,2.42743921538801,2.11655914961538,-0.404364954456134,1.02029124018732,0.0259997649151049,0.313240183662058,-0.120213831718916,2172217
0.643908338073263,1.63327776812404,-0.409628201499375,-0.138937968076549,0.52923094543709,-0.365023702007356,0.346817750229644,0.675049563306374,-0.289513420860387,-0.854236569490008,-0.886820460202392,0.62068469687635,0.0525050715755062,0.56634939567283,-0.615516727994121,1.18413225977316,0.439830693594254,-0.0299566496919094,0.704379939694588,2176530
-1.17609751493327,-0.521657464953468,1.07790908207831,-0.857866277497653,0.234797812837991,1.53739512603334,0.489072901262846,2.58902117838375,1.05802907725182,-1.7897507299404,-0.678775598598482,0.10196445866026,0.281327717338193,1.63840201451152,1.31292818356921,0.261048692922116,-2.34132612138943,-0.214578269755775,-0.0192197015451145,2176784
0.613580800527581,-0.132764810793344,-0.394141572948895,-0.0766248573962139,1.60030181622164,1.17015765146171,0.470665910083471,1.59172757520612,1.09762230437488,-0.77264787654187,0.832095960785707,-0.233008373908743,-0.133953393588238,-0.129126233420012,1.12111399891388,0.588008299395342,-0.428891343773303,0.205506910596706,-0.605078385028987,2181724
-0.404479952618977,-0.0868651303122379,-0.391554015515558,-0.0279834833288945,0.0111990537221398,0.0602181972750101,0.464151784288567,-0.910931675939233,-0.271749203540863,-0.699362349136313,-0.955825063352141,0.495739626336416,-0.398212491754949,0.302882266380839,0.764361018393178,0.0977959696019056,0.0777829401739095,-0.251155117813042,-0.256651026120629,2183291
-0.485987197468912,-0.856257366456982,0.628572735177427,-0.1261227545929,-0.454739632297436,-0.385318883881167,0.481185628503388,-0.950430622804066,-0.456501248848598,0.607708427052702,-1.35161172550371,-0.321819882228922,-0.602757071888497,0.536997290362436,0.39405436354282,-1.009475762565,0.0528400692915117,-0.31849073110128,-2.31475835742758,2183356
1.12577796179179,0.430046711793469,0.581864931242087,-0.124141782482364,0.341611759733691,1.10265692991092,0.472019921818439,0.230150240768943,0.828629299034853,-1.23264632394527,0.526434240453833,-0.81592715218203,1.11398532984494,0.496803134678301,-0.69717224739566,1.1476118445328,0.5711131047615,0.209407792491374,-0.05783456140218,2185290
0.389588823223062,0.927558975875454,-0.43490039737803,1.27005931721102,0.613492577735171,0.555971681424686,0.481916094440584,-0.255694687877598,-0.173325675247539,-0.513481225787455,0.511346681500672,-0.152955703921354,0.227748201396535,1.26943700109875,1.0826719823559,0.32660447001788,0.0782212756272841,-0.365938814787387,-0.830540777289876,2186951
0.542405279254365,0.151820853091267,-0.386971452067942,-0.106044862889663,-0.617556325326172,-0.578499878744605,-0.917774265224318,-0.310558930988069,-0.50608118483669,0.12679502918492,-0.164241823883512,1.06424661462907,-0.590146801563269,0.52388948431395,-1.30904661020208,-0.407504639928014,-0.705897589067545,-0.320376672560545,0.11011183344764,2196212
-1.31588969450682,-1.35350026963594,-0.373450754859392,-1.29010144447758,0.64113350826078,1.44516047740746,0.474399556406182,0.0444767131441864,-0.0633616911710948,-1.5432213695978,2.42816684002203,-0.836974562416874,0.185816510158978,-0.957412140502217,0.807072085761169,0.236110464223689,-0.91414966719573,-0.0909271699585112,1.22712524390401,2199403
-3.09632341471798,-2.96958333153507,0.595915490584157,-0.164875151567155,-0.497920691539921,-1.16872028982701,0.439263444093332,-0.37470083352072,-0.927077323546531,1.70816296738566,-0.722735690690222,-0.0108434047187253,-0.789905397994269,1.68917857275579,1.3868935692438,-1.55761995787143,-0.751960329893585,-0.289630243522369,-0.178267450808288,2200416
1.08340670556585,-0.413388766583921,0.876500573334718,-0.0724414960613115,0.222028394257081,-0.185271852102988,0.408450543006904,-0.0563139522256405,-0.275742723298662,-0.365107391082445,-0.319419719844135,-0.594045918966424,-0.761354884143991,0.011050869390782,-0.250395307449964,-0.166855907651769,-0.0781769356227198,0.0748159619348978,0.350297500553032,2200813
-0.565318058793912,-0.188506419866587,0.0501435561623047,-0.142709733400138,-0.563326102572403,-1.06389758985148,0.31739961186873,0.614419840646932,0.270983211756281,-0.493856011970315,0.252076287568642,0.479313073340764,-0.475087612189986,-0.336298059340666,-1.63057265825191,0.765712301297138,0.589944138296878,-0.29922400209435,0.0234774144722551,2205389
-0.969638558416546,-0.24541719093878,0.789629800021367,-0.0571915260569663,-0.514318347728259,-0.759238633182388,-0.115567273578922,0.5147541073676,0.641068344871994,0.218420122993779,0.167923937731442,-0.475769120441274,-0.731618887029182,-0.408364515293808,-0.802520206336942,-0.147800951002367,0.523140565692473,-0.208110274182798,0.599065412484071,2212664
-1.44436487196656,-1.0676863355403,0.596803922352175,-0.109736940761529,0.392345670917479,-0.604611652672983,-6.09037846810536,0.0676532884153728,-0.724593464026391,1.09164149842387,-0.459390351326633,-0.859505956044939,-0.760681355996193,0.419661070277577,-0.818950512197711,-0.0336985600215745,0.0370378173407531,0.0367894921281343,-0.46541681387448,2217034
0.691709785097993,-0.71633635215037,0.877466625260137,-0.11138118580404,-0.182090397755513,1.11913944621019,0.492322757180507,-2.63731252436375,-1.11909710875774,-1.26727312008374,1.73275693624238,0.44539505045207,0.384926758369833,-0.442230968236581,1.17533154101122,0.2232275150429,0.818309856844152,0.00700713022967668,-0.560442831290758,2218615
0.862790503302103,0.125613307763027,-4.2487144485587,-0.0458682740555433,0.85126306245855,0.510958375744867,0.17885318842558,0.997391734220032,1.34070155703827,0.826414656332964,-1.14380881180288,5.37528457177971,0.190939504707303,-1.65854812930473,-0.441442704467498,3.0889241894433,-0.276043008177303,0.294340935670602,-0.885436083485237,2219842
0.792592428069282,1.39157940005862,-0.629333680411296,-0.0114272104574632,1.8413963978919,1.32560044146211,0.440547844665169,1.3593705628331,0.509497281161855,-1.12019761276326,1.31906979162114,0.388991047625845,0.337570105424045,-0.527206574973105,0.433713811449051,1.13334442571604,0.224658398384032,0.539325007769171,0.327717220810416,2224150
0.976348649085494,0.491883001873623,-0.589986267481603,-0.122395200551558,0.838462111196203,2.50273823749651,-2.28975849350929,0.71166361420892,0.5523232622522,-0.607854315503625,0.22590189427402,-1.50449655636956,1.25225270507078,1.63840201451152,-0.179900477844491,1.69041728988227,-0.178771961330536,0.522728441146234,0.207356000674084,2228399
0.723891944943586,1.45628313098918,0.430076163246846,-0.15194462122621,0.276362148375926,0.00709399781920346,-4.95259912511054,0.578673672644743,-0.336289745626048,-0.409804663590792,0.486089950170882,-0.664641301718855,-0.366404530226778,0.228123172059153,-1.80492283295811,0.489200887978343,0.399067132958445,-0.0394870137160882,0.700152946537987,2228400
0.596696918154888,0.362547636536768,-2.02508316253898,-0.0421799492920306,-0.970267340427454,-1.30639760077459,-0.149218662966579,0.271349561422947,-0.0488015674002046,1.59434965734809,-0.297286390699362,1.96664100275944,-0.880955799477171,0.479004425483009,0.820832876120048,-1.71965302830827,0.624109035153845,-0.384169077746339,1.310282721041,2234271
-1.5783978417463,-1.21092775176269,-1.04043340934578,-0.0743277329133989,-0.901787930039642,-1.21985842293723,0.1959883415688,0.65879862032193,0.46480442808008,1.25969899203341,-0.936759575735323,1.39455151166878,-0.832477643518068,0.510641294101631,0.984429872728373,-1.65821852832355,0.105381540080036,-0.372000984557803,1.02793099860117,2234422
0.373991172290205,0.0174495835981285,0.0781136226848462,-0.13561744696052,0.816281280919736,2.19376254749969,0.401122358040367,1.0035755318729,0.772789440783959,0.0891693518708729,-0.54127889916376,-0.228748734773863,2.22392107563872,2.76359201093724,-0.544442458826139,2.15184015306472,-0.237618307058393,0.108334632803844,-0.939218854315921,2237571
0.00883582998078685,-0.368146584566269,0.55014859685235,-0.164584957256143,-0.186447392604377,0.223154089820772,0.478720183423428,1.0782344204746,0.603359678175071,-1.50572274912568,1.37972980936094,-0.256505534055337,-0.245244356789141,-0.724196166668459,0.795230238736389,-0.839596136478296,-0.975778503277916,-0.247607846387548,1.34368148772533,2244172
1.59046987461327,1.46046603575632,0.281364852734788,2.92193290452516,0.213869086379598,-0.627977012582031,0.0258140144840526,0.830753679046347,1.47651271459639,2.41450557237815,-0.131293067954216,-0.804377961258479,-0.935304263904593,1.41470540563889,0.501637476911721,-1.57004845583578,0.551724059208366,0.0225070999011985,0.347135919801909,2247869
0.474021129580263,-0.60620266714862,0.920791113893581,-0.129570107685179,0.0978765457872208,1.3974195052073,0.476840439846257,1.62195922865478,2.19077308254086,-1.51273244447852,-0.923847198640963,-0.453221450728633,0.872331260348693,0.614983144620053,0.961723476098114,0.142773425224275,0.559875104610611,-0.100695944181135,1.27765966746467,2250648
-0.150773615415505,0.714246806410511,0.674533030496136,-0.0805058845105488,-0.669087359723459,-0.746859155784904,0.0118134231152963,0.671096640581583,0.391935779496086,0.785115663687086,-0.610420805024071,-0.266634650826858,-0.712303787704687,1.08860297010268,-0.442737127059325,-1.09271722020453,0.102324607562021,-0.33173392771857,-0.502008455901011,2250836
0.351942814041002,0.884916875407764,0.769382554330017,-0.164568502719303,-0.555448169152244,-1.04440842487972,0.110612905023847,1.16238247029631,2.21260242478615,0.868478315824894,-0.90088354138089,-0.51681252576555,-0.632192912235524,0.499783497086743,-0.124073001090874,-0.570042194090456,0.759988491445159,-0.337360562253635,0.307829278404557,2267382
0.481074868852358,0.949334846541333,-1.31216211345139,-0.318213849837667,-0.471257196483693,-0.535157544703942,0.490115577589244,-1.61207809347629,-1.96259498567332,0.0348547926689668,-0.0283789382719184,1.23761354897121,-0.471855978664743,0.320825613495224,0.43290707962997,-0.387613783707384,-0.476299189722502,-0.341996034717302,-1.07169969363173,2269346
-0.00380793486415735,-1.01416526884891,-2.03900224859569,-0.686712558150023,-0.887794773951728,-1.26833783545771,0.443422612439463,0.944627243195906,1.15430629735681,0.387829790433549,0.816001378322176,1.94598024912474,-0.894840281884933,-0.164529251410344,1.0279945929322,-1.69530092611126,-1.33664773703246,-0.379449402853716,1.39222438087129,2271329
0.176927244099817,0.00679825767381911,-0.290771151003883,-0.080712196418246,2.37755449668884,1.36362934086698,0.204108428740512,0.892739686436416,0.877472976127711,0.252212204720288,-0.443957521299934,0.934287855581347,-0.212841024596883,0.927112898597942,-1.36371576420817,1.85482658640347,0.437789169934346,1.32922943678942,-1.68257527219425,2274521
0.985009278007516,1.07009904270962,-0.128191798018558,-0.125983495263238,0.072902042696816,1.20279200665759,-0.702460732474186,0.187635074459223,-0.0306349896857357,-0.559055095389075,-0.00696243092905589,-1.12342286665017,2.36315141103667,0.189456702065512,-2.61225862490102,1.43740618978502,0.352160570749856,0.00155247789819136,0.189508699370117,2276121
-2.65608044675613,-2.48146952487975,0.411186318409144,-0.21818583626794,1.04509318868996,1.23093921317942,0.495836051859788,2.51901961090376,1.64843077326873,-1.97514024051244,4.12201983074446,-0.0518972102334065,-0.519106604231862,-0.889053536689196,1.33491913680255,-0.555064637804155,1.57674212345614,0.489007035107949,3.81425877720195,2278618
-0.668671858529148,0.120696561341397,0.955088831612875,-0.110987033004883,-0.573095371287631,-0.960202400829796,0.359985536592958,0.220747541722517,0.128331217920003,-0.415057117080378,-0.370630191839811,-0.128374007366326,-0.691080610223385,0.525840839989333,-1.14184906384696,-0.625873196903743,0.257221083812179,-0.255117295773105,-0.469630097678057,2285214
-0.917188119462901,0.0931677353198432,0.649667946101361,0.17261531321267,0.099977013571195,0.0586276494439247,0.41546543104787,-0.104133781872088,-0.264806630959919,-0.0599389777529733,-0.0797028004574238,-0.377585361737115,-0.628969907462434,0.636634889651357,0.2284604483115,-0.50068844129825,0.0496366376923657,0.0477122055328525,-0.431681685346265,2286108
-0.765044059585851,-0.227004631007545,-0.862001398038316,-0.0688703699540853,1.54847872700517,1.35719933263031,-0.252290701182339,-0.701579660186785,-0.165931577775508,-1.04753069513325,0.0675152899748525,-0.726935810200084,-0.296480208785295,-0.32019165739042,-0.226823147282718,-0.0610673003325142,0.108861751432939,-0.267542036167447,0.561474487871021,2293123
-0.671267788708524,0.113982417952226,-0.0960611238221068,-0.114465852126201,-0.18897729013123,1.51955938707441,-0.87190944538619,-0.76427391216026,-0.695833245285072,0.0167524070779939,-0.235710068747124,-1.06198032725523,2.72640137732333,-0.621323819537661,-1.90540498611646,0.826105091792761,0.504401730329035,-0.11731069370982,0.330136016796328,2294852
-2.2228782500932,-1.81464887504744,0.996776478053791,-0.124526709315361,-0.59407667770363,0.577223051491065,0.450114879148812,1.49936221074766,2.60495403980313,2.43141955194705,1.6154857183934,-0.0408040626796491,0.0814813142033421,-2.90023021324157,1.36788057775985,-0.772421363943707,-0.700281851156318,-0.288704714017332,0.480775031896013,2294873
0.614854590865542,1.58873042549151,-0.685941159195876,-0.113445634532425,2.53755805582742,1.95319548545184,0.323536193268237,0.904696788265632,0.556020154888777,-1.57943535277224,-0.10531930044056,-0.796562267963028,2.88055806258953,0.287350231187644,-0.836289804588011,2.32940904060089,-0.193342691288925,0.13648804037936,2.24419134008032,2296332
-0.944097027597603,-0.858681236363903,1.02185396940471,-0.133152271488487,-0.373469019395611,-0.978981862369744,0.100900992756042,0.118995679730555,0.0208553991278683,0.593781304067003,-0.414607139712881,-0.333123679877309,-0.687984821105868,-1.06636110151876,0.35593251148544,0.0739279367622132,-0.475873337242005,-0.164533278164874,0.672029886855256,2305114
1.54090329665011,0.678982620645194,0.729400875865663,0.50424623624394,-0.470078098715133,-0.468177940351617,0.172936493895376,0.551844060386292,0.469566269564354,-0.604875230078404,0.208153497937334,-0.495999880977918,-0.465711776977787,0.75877064090675,0.48654244148059,-0.379981066639083,0.489198184846208,-0.295905555536411,0.17378068715013,2305115
-0.469487291772843,0.218082939681389,0.881338305925073,-0.214969366812988,-0.282159666210228,-0.63592679088826,0.474918576461231,-1.2151976482162,-2.79514348220914,-0.359952701000884,1.8474304164637,0.100409438125173,-0.568186713218467,0.954514752018116,1.35722834705548,-1.32817660108576,-1.3386690292273,-0.2176784804186,-0.162103516045544,2306459
-1.02613018105618,-0.732855928121595,0.882860009600224,0.640701675129033,-0.77859834615709,-0.199674561280747,0.332523908064187,0.4958633517287,1.4829589539372,0.416332533653006,-0.503127745228468,-0.349209203373555,-0.708328591579352,-1.91711679818199,1.38567758978027,-1.43895449614607,-0.818291434961265,-0.354746447365942,1.197907061833,2306893
0.862886469815465,0.196712412949358,0.286192815187341,-0.0845919931635326,-0.587152936861431,-0.727123375167773,-0.90933361687314,-0.0876009729324941,-0.428214649126607,0.508225819333576,-0.0717152146005459,0.00859886203875375,-0.438209775866162,0.0599355931197726,-1.14376131681903,-0.0279472824313592,-0.110152898041582,-0.34716634908967,0.366572261268346,2317120
-1.11177402168498,-1.25099291612695,0.13337278450311,-0.101159152024663,-0.155132295019365,1.10379281352956,-1.33443525312861,-0.0955716980353966,-0.251520392466663,0.223947837900719,-0.215244756280125,-0.967226020667398,0.316114909064888,-0.549637225897679,-1.32107507761532,0.335537069757293,0.493580707866972,-0.152819007317143,-0.167008746368406,2319068
1.27201770318929,0.631699847487318,0.749809608716505,-0.103470393230391,-0.593401210665716,-0.925585878811827,-0.856246470286789,0.491145822199822,0.410057554492045,0.506370866519094,-0.444350188651023,-0.481392521890111,-0.820416733534477,0.0946193241798504,-0.647242491657847,-1.14838991542976,0.0599035948043289,-0.284633294419442,0.672241704848717,2321962
-0.494208393595623,-0.0801224141365286,0.650827223210714,-0.130937706193895,-0.560125522000172,-0.812039499994308,-0.0809597043065352,0.901446939080428,1.56460282083922,1.25874176019859,-1.32242101381135,-0.00959494082209029,-0.633057278688067,-0.0650077403504696,0.135102111332666,-0.573171256254947,0.32288301796844,-0.183663603100201,-0.140962752100849,2331869
0.437938483147475,0.056741752418524,-2.37020381616332,-0.122094406346546,0.352197680845457,0.473852282968442,0.459349420558424,0.523532128714164,0.0906952893146547,-0.0317855696723338,1.23653259544428,2.21482326469173,0.785320357001001,0.284910875137716,-0.197425626964815,1.88387854919413,-1.51233110336073,0.167142427103866,-0.498165679098621,2336735
0.665981154450617,0.0377043424584366,0.475062651179866,0.0308094800451285,-0.621514342037926,-0.262062546131128,0.0251798925353551,0.193930573595859,0.0303285772469522,-0.399799409426389,-0.594870207842598,-0.304235137851186,-0.311724388335166,0.340483971796222,-0.760994647875184,-0.46360314701984,0.885314034535795,-0.359432453933844,0.252709638989689,2339674
0.805638481537991,1.21265909994569,0.520294141147262,-0.114150144684506,1.68490527894418,0.453631285158447,-0.0372028784036894,0.195245689443275,0.182803427558189,-0.688108096334356,0.351096454853581,-0.1760138792868,-0.222209019261278,-0.801282900170629,-2.03419241944088,1.41778165276481,0.0714886566237324,1.57313095449557,-0.659232414982957,2340155
0.697918505887181,-0.142598647094511,-0.509813812863683,1.79856000520089,0.254451180358164,0.70180043938826,0.466437552843396,-2.14667323098902,-0.496432007852877,-0.433690842696995,0.315727398095963,-0.707724282550713,-0.378002066627942,0.496774953836336,0.923069274731553,-0.564899673203411,0.517980370119908,-0.363246945595337,-2.05244615297808,2340322
-0.267541603527099,-0.445483527244484,0.490362257679891,-0.228545521325015,-0.590061646741548,-1.19452417111053,-0.293057971755057,0.228365110856363,-0.663971378013911,1.73231898863348,-0.316152378040486,-0.0382503677732119,-0.878948829514689,0.808904944678541,-0.24815834773179,-1.06418141267029,0.302173311177925,-0.315758034822835,0.0173777719409839,2350037
-1.62843023196744,-2.00873917157198,0.536812664105327,-0.160497908161637,-0.568754386330953,-0.80906058235177,0.339855361034147,0.904308977899169,0.556614774147308,-0.38178063992721,0.163447285176295,-0.358067377040719,-0.472407598881156,-1.03714402079959,0.559510794540681,-0.114712110987083,1.50276479329644,-0.146690309279644,1.21092385318401,2352038
-0.327008254349914,-1.0727941499547,-4.24731741465685,-0.124173827624273,-0.604833760765581,0.595219593401867,0.430015008620656,0.215754036524956,-0.186012390528304,0.374066842094153,2.86808018691071,3.66488467982153,5.1719005675814,-2.38548689468964,-0.918842374927868,1.84130725348522,-1.77428349062597,-0.29884211431671,2.04999540875192,2359944
0.52893415509897,1.17868783041859,0.817400086166413,-0.121382930898842,-0.429090138650983,0.101665804095024,0.0752619983152127,-0.128094611319385,-0.657958782620467,0.0891236453845781,-0.341732290169712,-0.966130315791835,0.61201504237679,1.61017641264807,-0.701086169439849,0.425277178902922,0.247204150781383,-0.110979474699504,0.951759937367131,2381907
-0.582033799411317,-0.142104774913684,-0.243070884726644,-0.323718083093214,0.0728690076291713,0.870768422375207,0.265103667952459,-0.591190631252152,-0.127212940385189,-1.06582128621869,0.152078574292352,-0.899208974585818,0.119786453317656,0.349672956229714,-0.0138745172341474,-0.0871799489996453,-0.0121705098121734,-0.373896396753602,-0.407886282610609,2393207
1.48211371560253,2.34221567091547,0.351578034919971,0.185051868142163,-0.525854151677034,-0.311730723911916,-0.0250324120007244,0.481490594708474,0.716662951102098,-0.177297299297386,-0.810297955264729,-0.475440169959181,-0.452434318662157,0.54471075376477,0.127437061406327,-0.334870370741844,-0.217247579089033,-0.345057533111017,0.490064918291742,2395415
0.391610550112764,-0.0947126209329558,0.0725611858979206,-0.118010113570051,-0.296789916888974,1.00960361154756,-0.0195539262283122,-0.733066210996472,-1.13014157719891,-0.097262621909547,-0.251838255582338,-1.18276960406354,0.255682775361258,-0.255412278476334,-0.24533431753376,-0.273290482433842,0.716699548255453,-0.178135911643323,0.300887234280681,2395943
-0.196373083295275,-0.725579993920798,0.742858411761263,-0.12473110996627,-0.517045382118092,-0.331413844049236,-0.0341383670961629,0.00688242517937879,-0.338951514220073,-0.101989676246887,-0.333058146097117,-0.910399465645413,-0.293777822375314,0.554189423473616,-0.960965100752987,-0.063821111901513,0.153152144729646,-0.199282908795431,-0.0262451485324728,2401405
-1.59034292545739,-0.62996038341641,1.09710240357772,-0.136504992067876,-0.56717200483488,-0.636054038485025,-0.109453927042743,0.444569767972269,0.186537331406315,-0.0098009339332138,-0.0534438334809595,-0.380233910363726,-0.534367805459425,1.32824519508241,-1.18932971858355,-0.52389238602042,0.073404410593221,-0.244075296303321,-0.194017286234929,2405144
0.00569517953620561,-0.628105766968696,-0.658705012653077,1.19467208005092,-0.631302552872565,-0.741048016112751,0.436278173626536,-0.217314565911081,0.10028830470311,-0.141566179185938,-0.743587140791218,0.861011044804177,-0.335098061385388,0.61340493306795,0.632335574542887,0.108682824077736,0.331612238686602,-0.36271334699112,-0.644477625878382,2414406
-0.048728334177061,-0.169891566786338,0.524039810413355,-0.0128632799680723,-0.133134243326479,-0.611066478354973,0.19545992465746,0.0459656787109657,-0.580379209581518,-0.424885909544307,0.49680129451552,-0.479702953337674,-0.720978457283044,-0.0700231781380946,0.118709095690633,-0.529767444491055,0.243223320541877,-0.206358377005763,0.521921992585354,2419459
0.247656398073319,0.975617241015594,0.804772858291789,-0.121676908701837,-0.692267318771087,-1.15478956845358,-0.16032888955516,0.375952290540763,-0.326040210764242,2.51003068358728,-0.433439942513654,-0.223404089728111,-0.876540451119872,0.783479874269314,-0.776619797372065,-1.20184329250209,0.235408987205663,-0.339435214071231,0.314986996512241,2425694
-0.0716196818557047,0.145606826841871,0.339454007884022,0.00158866412951899,-0.0985306678500927,0.0166222239895135,-0.354158335474267,-0.501986453702019,-0.47662817688767,-0.125159748890698,-0.545094424562781,-0.811020183001533,-0.292631386378065,0.511828964464196,-0.548385907036735,-0.147904039813689,0.503458159553568,-0.22709640394421,-0.355148426306628,2426863
0.601133397127539,1.27849553478489,0.654045842652433,-0.224436088684358,-0.18720227955232,-0.896848758351058,0.442024978977201,-2.29320525918447,-3.05646354754664,-0.168166366986864,-1.10820484601642,0.205622800767207,-0.340963020245329,-0.861127126160907,1.34974262800704,-0.245778470396453,3.08261286214277,-0.0166061210791802,-0.208681296035799,2430773
0.403744438963613,0.320157821288022,0.805610992644202,-0.12326843946761,-0.768271119824342,-0.781964936141596,0.434917683658197,0.0887104094650393,-0.216843457447112,0.349188145055879,0.248950062687864,-0.384829030332813,-0.412453174390827,-0.464641050759282,0.915303101845432,-0.679778488666361,-1.12095395561191,-0.241672126506282,0.488915534489446,2439458
-0.993320575304859,-0.412792626933663,0.152464036211745,-0.169560634247431,-0.425278085717341,-0.397478031308978,0.447795742999606,-0.135684421193673,0.0085172512662671,-0.135773740144276,0.118151915068446,-0.258347562854567,-0.678901115078002,-0.339327730721943,1.02256167230469,-0.819524136003461,0.608533267431632,-0.289730233130188,0.0418214525284847,2443354
0.947520160246129,0.308365232333617,0.236815094661504,-0.134532289461664,-0.131873755312215,0.398284164255746,-0.079708789859097,0.547623127263362,0.642296816121441,-0.395646500258196,-0.924683457990393,-0.749797320952666,-0.292972656228712,-0.334153730218382,-0.43109936324063,-0.178860441523616,0.524418563213974,-0.363042554449712,0.256346926627699,2445526
0.497474819764765,0.82104735868662,0.0150843703145299,-0.141567454263252,1.65910725944605,0.86598867141086,0.491505218240888,-3.59686869579831,-1.43584901756863,-0.883862953056602,1.80615102781679,-0.68421280969338,-0.263485621674584,0.282119070260536,0.402926573965043,-0.0500121537432661,0.618259116651837,0.569526416567119,-0.456779697224928,2448298
-1.04922563250274,-0.538612061823148,0.049148377400665,-0.215059616490614,-0.693056571494903,-1.02179697084253,0.296731625673424,0.221140320585068,-0.0556271239644937,1.03727972921504,0.759132705483223,0.664707749638675,-0.695434729764437,0.38690806858686,-0.172341946980007,-0.578010016126455,-1.42380153972379,-0.303821634851601,-0.240413234283461,2453577
-1.0042606702468,-0.370413637529496,-0.0108561906253437,-0.165820413809624,-0.661076432412122,-0.919158771719164,0.460252473949288,0.454275592819491,-0.0756758685494234,-0.115839592492049,-2.87434146550888,-0.144755829584082,-0.555148601033032,-0.113913678053818,1.18693316696199,-0.948507077674134,2.71330425864642,-0.366481317753497,0.60129252784804,2474709
0.976272264496466,1.22757954910264,1.25537380830282,-0.134633313170101,-0.567730555416631,-0.177087394531903,0.456072768063693,0.0366120699694512,-0.988104356566618,0.366266446513848,0.41758569664246,-0.252319194210443,-0.575124741467634,-0.65563816342848,1.19912886036568,-1.33713039696743,-0.730974575171767,-0.29820119057981,0.779115095481802,2480056
1.05047352623718,0.673895205279498,0.123343616107955,-0.0431988790193104,-0.529315754731151,-1.01046450754533,-0.407592932927736,0.502730623913169,0.085513314782933,0.895341884287396,-0.401272823197787,0.113864182950785,-0.584858084778093,0.216349937681228,-0.902066099269885,0.342668428693867,-0.371975286039342,-0.353172349335318,0.176582932541969,2480330
1.10606858674729,0.852702250650153,0.319957275935963,-0.0484366819798968,-0.205033097917817,-0.382867965529628,-0.556702596683616,-0.110437798492727,-0.137355435977294,-0.494211641974709,-0.389268916441874,-0.345505682764864,-0.134731590357816,0.260701284649396,-0.105404272386273,0.846694080341203,-0.0556869584404867,-0.209958563147645,0.573392320027532,2487135
0.86384808486688,1.72898509722018,-0.309319971649129,-0.200031575062825,0.456630696155993,0.434143932911401,-1.03545307262197,-0.17057263450306,-0.168941984535766,0.0217540472361949,-0.258066122879546,-0.273049363069495,-0.569273686352117,0.00731410472608358,0.0372368194018277,-0.520849730702027,-0.437205468263853,-0.13074311093169,-0.523728640654221,2488660
0.457473961669387,1.29078680587881,0.501537960044059,-0.103522679718655,-0.757219540947908,-1.14739389049072,0.334881806184464,-0.355178144537658,-1.43384032086247,0.0975476334658447,0.622174220882896,0.146847696801559,-0.577016331751232,-0.192088749891479,-0.758739494245197,-0.0690975715521823,-0.266025125517874,-0.338985369908899,0.0821269829962925,2490180
-0.840181309680952,-1.63573139695041,0.55312383231506,-0.143571608953583,-0.480588689725776,0.0974301487272876,-0.327149661692373,0.0876991447695653,0.0372771810765766,0.00371291373841833,-0.135295471891242,-0.0156543250819297,-0.364140993448766,0.118767449789933,-0.887779066756664,-0.182623759660953,-0.722589368531092,-0.281918837066625,-0.586587289401711,2493534
-1.52926985863685,-1.14829203986268,-1.25486518404034,-0.249724465554095,-0.312719809052665,-0.714827238081561,0.494162638312506,-0.718435295880706,-0.455715309037344,-1.31130730068198,0.38641366690805,0.905584183697705,-0.645572529734674,0.958670463374615,1.38823095258686,-0.432569332286033,-0.824926277153037,-0.284301297880634,-0.300729683799474,2498991
0.214250694668852,-1.66644427758114,0.148800822091403,0.158722106594766,-0.223296699900171,0.397012016921009,0.26132328812923,0.910028105582611,0.779140664082104,-0.278764240536193,0.440729336487602,-0.70125505111568,-0.518024642216458,0.912145530124413,0.851247649077634,-1.25336511868472,0.161969953189651,-0.308734619300741,0.568343755422612,2500377
0.0131662796200682,0.226685814118851,1.267970592786,-0.113259062391893,-0.56692760390511,-0.765340376709677,0.429419425278329,0.0531583807147292,-0.855975765745552,0.393098692190885,-1.58435592535049,0.138753047920172,-0.166543238432903,2.52891570068908,1.33866683136237,-0.245882141371995,2.37758991264414,-0.251215368158893,1.27817673637523,2504802
-3.56490109803309,-2.82786225545807,0.576789609378505,-0.130660028273949,-0.433742711866228,-0.832262081509834,0.135408785251029,0.392792624450647,0.0204429035356696,0.413124816370638,0.158637125757474,-0.266490470895817,-0.550421031752397,0.207725810779783,-0.998045193857968,0.547194114455059,-0.396776621013177,-0.307196754211326,-1.05634951351332,2510402
1.54439226209418,-0.0290918086197587,-0.338929832191494,12.0160985922632,-0.209957195333789,-0.00146970631503794,0.391086804379911,-0.343231367762799,-0.26718459682293,-0.243830596808753,-0.494237432683061,0.157372063490601,-0.481848543139649,0.409342413593174,0.644527747936897,-0.0151393702991517,0.227002480838194,-0.375836879216734,-0.955405925181645,2520618
0.0973193611559645,0.087867840118878,-0.0951141616934695,-0.0728167350043062,0.174678907347135,0.608363806204872,0.338546578015811,-1.27361978577424,-0.50261909157789,-1.08707166703943,0.824109303917308,-0.694952592638179,0.105307916517493,0.579084070503266,-0.501529662001019,-0.0359677632256775,0.331886586291514,-0.345155768763959,-0.573001778475715,2559453
1.74606729567088,2.16075522535239,1.39800995687225,-0.125381866677569,0.753716144107407,0.536535229681278,0.440793437342733,-0.216380850843707,1.36034526783217,-0.489470653881396,-1.85252313474728,-0.0401389911327479,0.966320931831114,-1.14039123144379,0.932644936776676,1.69083814773609,1.01654171690999,0.116111327118108,0.229274770837929,277752
0.93201283840556,0.136570745668241,-0.000900141217602229,-0.124788146996733,0.577315137940909,2.35085196034432,0.0869758372702282,1.61020776968672,1.02180472679601,-0.419420075161263,-0.216700909989379,-0.289025919317683,4.91771906112482,1.92787853594828,-1.34598358443722,2.47699808601342,0.0104277571745217,0.913977041366849,-0.986762143471033,308862
-1.62173293692513,-1.58426747718927,0.369170071786511,-0.126694853915434,-0.267447222512923,0.181670806879039,0.138465461761914,-0.218094884885061,-0.253752472838475,-0.0205275203913359,-0.536391615836085,0.113002432563676,-0.0857479510315022,0.649183421937129,-2.05730641770633,0.552131486367348,0.39970697826381,-0.0751179175617677,-1.24897944481492,58325
1.30483313900889,1.51509760497956,0.0307200720337854,-0.136983482329726,-0.667079639772176,-0.945901633962037,0.292698945618604,0.383354210045774,0.140845006127686,0.632559789756886,-0.89060989353079,0.378159199520817,-0.818466726907694,-0.101899349873863,-0.818212470263233,-0.965766731426014,-0.233868480225307,-0.336741916348952,0.415869625462589,92173
0.480287095170157,-0.303376539592044,-0.291883336318979,-0.123106567907911,0.506702497375041,1.90439106168195,0.426795052648595,0.752539210411193,0.709503510185522,-0.0626595470953793,0.110389501726553,0.633215517809955,1.38116546885779,1.1317197069013,-1.78776784355716,2.32509972073751,0.15400122483875,0.215095759145449,-1.22877112800992,923666
0.301654514283517,0.463397128242179,0.550152625108985,-0.117277445124705,-0.821108514895975,-0.859344482512043,-0.24059867159568,0.541192283718091,0.0396990115281461,1.19074731804015,-0.148234030382041,-0.0186507892437287,-0.616994849970908,0.32527038857902,0.378486186937235,-1.15358688486052,-0.165329744773014,-0.359903900558144,1.17695359736356,965005
1.64686895508772,0.440430964705138,0.692272590633065,-0.139536660339556,-0.417061548082248,-0.901091492358295,0.386287971318729,0.52249805581498,1.06340624093222,0.61256633161244,-0.0417079577661704,0.179047141577981,-0.369464205683265,-0.129726172173397,0.610531976952886,0.391437556876408,-0.398329890286007,-0.145617087874948,-2.58965099108326,983079
