pgsalome/predictR/output_NEW/signficant_features_results/tox/pcaElbow15_mkm9d_ctv.csv
"mkm9d_ctv_original_shape_Sphericity_250","mkm9d_ctv_wavelet.LLH_firstorder_Mean_250","mkm9d_ctv_wavelet.LLH_firstorder_Median_250","mkm9d_ctv_wavelet.LLH_firstorder_Skewness_250","mkm9d_ctv_wavelet.LHL_firstorder_Median_250","mkm9d_ctv_wavelet.HLL_glcm_MaximumProbability_250","mkm9d_ctv_wavelet.HLH_glcm_JointEnergy_250","mkm9d_ctv_wavelet.HHL_glcm_JointEnergy_250","mkm9d_ctv_wavelet.HHL_glszm_SmallAreaEmphasis_250","mkm9d_ctv_wavelet.HHH_firstorder_Median_250","mkm9d_ctv_wavelet.HHH_glcm_ClusterTendency_250","mkm9d_ctv_wavelet.HHH_glcm_JointEnergy_250","mkm9d_ctv_wavelet.HHH_glszm_SmallAreaEmphasis_250","mkm9d_ctv_lbp.3D.m1_glcm_Autocorrelation_250","mkm9d_ctv_lbp.3D.m1_glcm_ClusterShade_250","mkm9d_ctv_lbp.3D.m1_gldm_LargeDependenceLowGrayLevelEmphasis_250","mkm9d_ctv_lbp.3D.m2_firstorder_90Percentile_250","mkm9d_ctv_lbp.3D.m2_firstorder_InterquartileRange_250","mkm9d_ctv_lbp.3D.m2_firstorder_Median_250","sub"
0.800584781239504,-0.0547036461916989,-0.349175208387722,0.101471278401353,-1.12663543692598,-0.993303836276455,-0.634265910617827,-0.662904921144286,0.31593041071991,0.187541692747804,-0.00618437112358314,-0.785833917456192,0.838423225731283,-0.639109341967176,0.526979979714588,0.901205794882666,-1.15882212065851,-0.511066186804417,-1.31897493164932,1085983
0.603637414643192,0.464521588639744,0.292038835097068,-1.00747253830377,0.411933231723398,-1.03499951509598,-0.348377905685811,-0.688165695690335,0.0374636109180625,-0.496239950641411,-0.504048313854731,0.258906525721155,-1.68056708079284,0.0137473386322721,-0.126918453795727,0.0247206344036172,0.218742829229355,0.64202274565762,-0.643859770545025,1125173
-0.472203251817337,-4.56956651478437,-4.47638157143945,0.261250293514379,-0.601700804593657,-0.565096905262779,-0.8794395177925,-0.580196876448258,0.260626762573746,2.72374024275472,0.246517665792893,-1.01978962058814,-1.44600994352875,-1.61430624341163,-0.37227704134209,-0.889184166685695,2.22676855955241,-0.573985102971483,3.88000264935538,1154608
0.512255643198397,0.20316376297031,0.257274997015082,0.397645180361829,-0.15071951893295,-0.574159350514835,-0.173231698232101,0.214735680736513,-0.0633267975086922,-0.15381647663396,-0.541134238195265,0.661760654487295,-0.0960191749064484,-0.375976401735007,-0.346561094688253,-0.540951606060006,-0.649776990007436,-1.13188972600321,0.502186264152009,1181124
0.506177227649935,-1.56312523377903,-1.48547660384591,0.466443042400479,0.618356997379854,-0.695067847240188,-0.77293106822371,-0.531060322764106,0.107642107080715,1.11357414428943,0.223906561521071,-0.696928179325167,-1.05813338105607,0.184963871703883,-0.0602840701900315,0.101229781227392,0.136815603081266,-0.0191287667225712,-0.0574574162375013,1183075
0.885648114442777,-1.08137961293966,-1.37640291918712,0.369742621491184,0.0563823059353002,0.250673912236852,-0.91335713334032,0.0699132300407257,0.410647087796926,0.8685042031337,-0.31095367525963,-0.474887334462028,-3.15933114950612,-0.668322489387365,-0.217459249992803,0.414242972578229,-1.1404148714441,-0.0238879282292808,-1.12292425344768,1232870
0.714335481417378,0.0218839174713403,-0.435983697625564,-0.655255253734911,-0.870855346351646,-0.451447314808054,-0.0687442368593484,-0.575755422505282,0.0732095500457086,-0.259101686378385,-0.232149465131206,-0.48700050110014,-0.300350637899012,-0.590339473439149,-0.119174240354894,0.404518869234713,-1.37172687608181,-0.110043225767321,-1.51844999548044,1279943
-1.48133400742435,-1.22236753115113,-0.310007688763814,0.192804096226983,-0.125567670053477,-0.490245344014673,-0.70148702557941,-0.58409161338041,0.904474966808518,-0.598594836804428,0.606434568415771,-1.16422359624596,0.920037645684913,-0.805255144320248,0.638613492072514,1.05853977497092,0.202883116228203,0.705078728897945,0.0295576172305367,1329352
-1.06866605295259,-0.00597921280583767,0.532582290526489,0.390690004778023,-0.314448403703539,-0.225794951423423,0.0995999789144157,-0.133040226507371,-0.218218665636776,0.565088446346214,-0.643915045011771,1.43193896999613,-0.37055371983876,-0.196154448129527,-0.108523919562501,-0.833965874859197,0.63596838568201,-0.798984263990449,1.76204262121915,1330263
-0.180199441281054,-4.11673554164742,-8.40621530870248,1.91956572568277,-2.35148148820392,-0.153784176801047,-0.888400099967139,-0.588809546345866,1.11495597317138,3.96527936928122,0.0621571751636329,-0.96706670780499,-0.491265728824587,-3.51445461143025,0.0655006217737621,-0.704958506580201,-0.197407879813602,-0.945929764465728,2.1742948782328,1364384
0.475938388643323,-4.8501400158783,-0.0135025870755439,0.316893049535266,-0.579822124743705,-0.857109712723607,-0.875245013426503,-0.513241791350616,0.431864526631694,-0.0184803108528341,0.157117684093533,-0.851179748420306,0.302975302070606,-0.475921715620281,1.10124482467924,-0.396236222519758,2.53828731668546,1.47130267555781,1.57638891352025,1386095
-1.32559025059151,0.862658793118941,0.564513945826059,-0.475054973294431,0.924217820249473,-0.993426713158445,-0.036825876798861,-0.758574148281483,0.299448834182185,-0.38034508522471,0.0332876247120555,-0.714021605243149,-0.231670655190306,0.36647027683265,-0.273025567557499,-0.328731897103852,0.531399328413598,0.78828029145753,-0.329169545677266,1458656
0.388489437145123,0.9065806731875,0.386724674614972,-1.47329252110022,0.472367019545104,1.26953154549608,2.15373215078446,-0.199804858978218,-0.679759664787999,0.446332695387829,-0.584495925586715,0.871930821531969,-0.256687452504411,0.486168632269004,-0.272638061499663,-0.357790837641509,0.63164503329047,0.272795716913598,0.460055587214301,1485662
0.473403687051222,0.333976273445467,0.653618087583915,0.551356372652647,0.90577254883938,0.102786027528365,-0.358588171411272,-0.0805952682606881,0.0316365046731031,-0.575355063477145,-0.400616631548866,0.0491330172487729,0.307502724223599,0.49321206291142,-1.05101280966444,-0.504053580687745,0.112474266294816,-0.918070515771247,1.33638598153067,1497807
-0.925144582582686,0.501199441878751,0.333852129708297,-1.64056924947874,-0.0385999134611979,0.276269529638862,1.73172795704427,-0.396265588733772,-0.287892128499851,0.160086969423591,-0.597953733014829,0.984195341186032,-2.26257881993628,-0.0177419248186565,-0.766984138618225,0.100770750767381,-0.836103271515823,-0.407924943740444,-0.785747605973582,1501387
0.634975165692865,-2.89378151102546,-4.26487194056457,1.16568996439,-4.2610697253188,-0.829383407103784,-0.371883077240137,-0.757439434407587,-0.491129517477942,0.300118007546313,-0.313860831568439,-0.52507651819717,0.509008685305787,-3.76984726187038,4.88548769521131,1.19177655006716,-1.55841130597561,1.34523293428859,-1.88095721955145,1518948
0.977405226754402,0.1427636962266,0.234615913818418,0.465620693920811,-0.536209694689538,-0.868550436154963,-0.884182954098288,-0.564539652482562,1.10975709667891,-0.608952853294787,0.559314453413413,-1.06302494876143,0.389982274788836,0.050658594847765,-1.4887389484336,-0.0307117200172957,-0.336272719181611,-0.494036451420616,0.139544121432957,1526417
-0.546957377097786,-0.427179399545205,-0.346768926893664,0.170882357840935,-1.3975125889964,-0.37286382532562,-0.287557070250977,-0.787421642074076,0.749365246305673,0.701065758542171,0.724570781027495,-1.02331719036696,-0.662460684992044,-0.654024382105827,0.187047096915992,-0.111397073300195,0.276536846489684,0.419689447276517,-0.778844101208314,1565177
-0.116222276945842,-0.229562256922201,-0.0600599600719103,-0.810050482458464,-0.0569295238931712,3.61539919636429,1.90119037252241,1.90368756654702,-1.03959213286019,-0.17527703942726,-0.62848515766042,1.3892605245364,0.0299064894312532,-0.992269301270548,-0.0283969678085112,-0.814907567576545,0.295178512763677,-0.46439593880166,1.19787199798554,1606693
1.02028395814209,0.777408344783254,0.514718750475781,-1.95165316163054,0.719896110404965,1.02686736940039,1.55436530635448,0.332279422688357,-1.24605218868841,-0.862422493912036,-0.682675510194951,1.96651684733631,0.353092958265821,1.05583649185982,-0.0788997332969561,-0.540335244600346,-2.12764047218691,-1.62947090402995,-1.12094724651676,1612262
-0.393299153522492,-0.220397213181461,0.222712560398666,-0.456504033181681,0.401713314601304,-0.11659447609253,0.204579433237283,-0.38265551258204,0.200667599690289,-0.194551470762204,-0.251699897867054,-0.103798670330037,-0.229382482322132,0.335575445021089,-0.964579054441417,-0.537486260988668,0.337295849678072,-0.221359250526024,0.350765914998243,1614566
-0.282340675286234,0.853496692982142,0.75318456945858,0.127596946265845,0.870143312808928,0.401112447777385,0.706351401189107,1.77196928028102,-1.00609422487439,-0.226239369237709,-0.672012208999106,1.71750666678889,1.78448102816893,2.42552743940215,0.502171258331263,-0.827879336408592,0.122758044628164,-0.647022628539671,0.362395513462659,1644034
-0.0195010082018193,-0.513130549711747,-0.783275197852808,-0.0371044993347605,-1.12603322492691,-0.780759833200455,-0.406021464716783,-0.741138886547726,0.317057651415142,0.332575374458233,0.0731424798750701,-0.622971548113491,-0.819834440936799,-1.54459154382288,0.746160915880423,0.572343838326901,0.087419507438783,1.3203905881434,-1.0577939263955,1668599
0.142675247894299,-1.26829880641747,-2.48697031329828,1.03828367187114,-1.26825503197245,-1.10380151283421,-0.905178453793024,-0.879223968405112,1.16945235801921,0.56234483483431,0.60730332762997,-1.03274682407361,-0.882683576494436,-0.685306767624921,0.888476681077829,-0.0190946626743059,-1.66085237525194,-0.660081841268085,-1.13071136730774,1671370
0.786238958578971,1.13299739997976,1.39980079189206,0.582412259024611,2.05276298084701,-0.91345063721283,-0.966368589292445,-0.680763026404599,1.3793470012601,0.134796866230629,1.00187253484297,-1.32968363092654,0.474098093873922,1.795005533721,-2.7111496330085,2.22747105063734,0.468958489846187,0.289555980546098,0.0344647190340442,1684230
1.25092321043765,0.000818294271381574,0.177412224316171,-0.0169422174806088,0.736353856027348,0.251496367249761,0.402767504983176,-0.164506247687756,-1.42516244362222,1.1623951394258,-0.655020031253079,1.49699785773401,1.31353919841894,1.57114275159901,-1.31531213954796,-0.39784223289343,0.552251396735268,0.0237796983285298,-0.356292648566472,1692385
0.128706404202277,0.219156168194522,0.32762935122686,0.0436036586501799,0.29762403146762,0.162747651888593,0.213728294314153,0.0956916743783328,0.265437537026099,0.272194046978996,-0.456476615577994,0.632333588576252,0.549748758896041,-0.0453738192821815,0.0246055724814425,-0.526373935530699,-0.176526199792167,-0.224552583023253,0.201883457013733,1720713
-0.323814196669891,0.116463611529021,-0.0682165168102763,-0.229423161134153,0.100104176721231,0.00813216175745782,-0.52468183427388,0.970252098221956,0.149535423464083,0.558907619107078,-0.30012269636525,-0.0716489270096905,0.352817231279102,0.126361087500114,-0.376443695351809,-0.20858015712183,-0.590841944380334,-0.222414078035097,-0.0520377736562303,1738800
-1.37883503606345,0.225901252471648,-0.0479321068293718,0.0487530248445526,-0.000792193221440762,-0.735010501288853,-0.859042105254006,-0.302310015592627,0.968198589963712,0.533340550017413,0.684702437001174,-1.18987224773998,0.734400220897397,-0.944362846892449,0.76085717579951,1.32364098024613,0.42998405831533,1.34837069340583,-0.491889984142911,1740845
0.178409506132095,-0.0331135553499164,-0.284436996854651,0.552814874531303,-0.176282197282192,-0.285013007143195,-0.916093956702908,-0.652693535436088,-0.0568343270156208,-0.632157426268623,1.60062620341553,-1.34690225807723,0.0965362788710939,0.450196637253228,-0.876231553486498,0.888475496963844,-0.00621728244870611,0.294145241565918,-0.559588206746569,1742294
0.945749026133428,-2.29964868020268,-1.75196761911805,0.452271371105816,-3.02637972578227,-0.875575507459508,-0.755831873718294,-1.01012096787472,1.89821191989916,-0.629659612413773,1.06748496022097,-1.27085294515558,0.288526237172591,-1.20298707014738,3.05169631865439,1.03512751879793,2.50599947705206,3.22503802334031,-0.0909263450122656,1767700
0.376382666873266,1.09174196362108,0.568545217012132,0.874795307733294,0.62588114978864,1.81849235785438,1.56484511214371,3.32478017558598,-0.372891064270547,-0.118394377089519,-0.55253303524535,1.44361545259117,0.911410128711432,0.000948070077666504,-0.484595404809898,-0.925627858512017,0.268114782795011,-1.03026175720247,1.07288770249426,1768972
-0.13333557039739,0.164206058604973,0.344206272257084,-0.475069837822866,0.0209383159621548,0.123602696833413,0.14869412962558,-0.593274986588458,-0.0308992600419615,-0.498377374165102,-0.245532087473022,-0.31927347228365,-0.14213616138892,0.119455174393272,-0.444446072222616,-0.623655233716239,0.417111406417044,-0.768064906016275,0.34718832128621,1889409
1.0409327015016,0.639606970699877,0.0676561250336065,1.53385099045309,0.613765010461292,0.538265839478474,0.572704333091588,2.52624259957836,-2.8985655866524,0.0764770375722892,-0.678415654362093,2.00819991743583,1.08383129569824,0.957080199696752,-1.66050145675333,-0.137908509262142,-1.0741455267448,-0.912972238862795,-0.573005161654705,1915938
-0.19048197848281,0.517848221077883,0.445842691125964,-0.0049136259967907,0.102361592086949,-0.80198155391609,-0.73988250983848,-0.0470888853226599,0.434873896992851,-0.0383131899486365,-0.434399598544067,0.0596393035385953,0.214189967408666,0.120627627199896,-0.585135038415893,0.376403692831244,0.607859807919165,0.549672194761583,0.920705828797685,1916742
1.67426794809303,-0.635396657047215,0.149139024612485,0.0574429936058835,1.6042419178099,-0.0667124163135796,-0.284047473427435,2.12158888236737,-1.97480782955508,-0.223343495028552,-0.687834719519149,2.00635275029381,-1.73985111615683,2.40526034403655,-0.816009976166734,-0.52149213409462,-0.291734267908272,-0.896048014310373,0.647753084019941,1919296
1.77199758818759,1.18811877628313,0.601833596872516,1.75691790503373,0.0342217672454125,-0.250706624791966,2.32512812165864,-0.59870284365123,-1.30556714972443,0.675539978297785,-0.650630835423145,1.51188149602439,1.17085736043155,1.47871093165969,-1.43281523794708,-0.473379333954174,1.93197892992551,1.81172224213848,0.696393632012695,1926770
-1.00984643185798,-0.012155770705896,0.298240136158634,-2.31447259155282,-0.0151465164625999,1.13842515610079,0.668027989532933,0.325115233659017,0.0810400433063461,-0.194914361003917,-0.359220691934212,0.420334174772198,-0.277507344326497,-0.0191288102116571,0.339504614936764,-0.585315846684039,0.231224904391847,-0.471466754645416,0.152610720481204,1938156
0.60683638016702,-0.0893148044393005,-0.342371729101135,0.63896500317931,-0.298492005748743,0.844130249446118,-0.371172046660335,0.545726182345248,-0.0374709049342119,-0.0350590725089179,-0.377608973160726,-0.184748200948974,1.40476409904386,-0.943206991375676,0.61313804211537,-0.328548272122249,0.0437471163726598,0.128936155319733,0.387392696986606,1938561
0.350597986340161,0.807915250340246,0.532449778898237,1.41936414136901,0.927275626338656,0.36157229449057,-0.282342645056835,0.296429120034701,-0.633896838904651,1.69673844015352,-0.461047961626867,0.121415169849864,-1.36269486488722,1.88071433457641,-0.187940654417746,-0.624928529699066,0.66209008806671,-0.524685717204231,1.31609481411609,1966316
0.881056750879172,-0.147319538477749,0.168054553002462,-0.617706818570402,0.901556227102265,1.39096409882214,1.64258915351202,-0.103544837443373,-0.301497226260858,-0.478700477391529,-0.553683860477923,0.604107565820025,-0.917316004113789,1.3707337435909,-0.178689073419903,-0.926651785166398,-0.325809070028413,-0.923922815551202,0.345003302791565,1967281
1.12837274751485,2.09083851374856,1.46206788443712,3.49471453470328,-0.0233446859702287,1.20629834174037,3.48557927513204,0.422555703605036,-2.62806962887248,-0.329324239362785,-0.70033657787766,2.21695556790695,-0.408623489181451,2.06915442312699,-0.0639326796034863,-1.02212545646298,2.46098301513204,0.250204264148824,2.24490547861514,1973544
1.08947544760086,0.0140939283889877,-0.286021868347286,-0.232998355493535,-0.333619328634667,-0.824253567700443,-0.65122068660072,-0.533024610328709,-0.102999621568577,0.519526528149528,0.0724010129515954,-0.849592850215964,0.466270653939504,-0.348704476354566,0.582940583886879,0.323038427072508,-0.678078972382586,0.692262821711742,-1.36010026294633,1975401
1.14557382889176,0.411953119507107,0.446337482251637,-0.814427879546057,0.289140584078919,0.0892751483618034,0.222485303764952,-0.253823966118311,-0.37079837002191,-0.390672598774196,-0.529986031440774,0.373339275401545,-1.8418609273015,0.827657331204656,-0.42288649192166,-0.194116696601394,1.14822963040839,0.809872295713228,0.570136993075589,1976407
0.215987316923123,-1.08821369143185,-0.396249660398306,0.399715056885974,-0.17061404491325,-0.0447218365567055,-0.152202827706739,-0.583484268562166,-0.118631526133353,-2.88639322206799,-0.30982696904476,-0.562261558137319,-0.57807119327442,0.102088774716227,0.341040880510043,-1.04866054789681,0.0219243559849472,-0.0929303705376082,0.243746516968502,1978972
-0.377702884982456,0.223524685549384,-0.176350868275525,1.53144712259152,-0.570865807734498,-0.645964156958872,-0.775728892033622,0.0954768692429651,-0.576886010577526,0.992738790319196,-0.499024376504656,0.164148317450854,-1.64746591373729,0.541113396860163,-1.18154314790719,-0.104299199929624,0.269278145241645,0.0666057709232187,0.785494723110195,1979045
-2.37238523871722,1.17690578733891,0.436671427607348,1.84174146874435,1.12342428851225,2.6778838633116,0.78494803083423,9.01508007927558,-1.46071519232211,-0.532972991184041,-0.711544700583953,2.32042635123096,0.872454673500165,2.41022442094263,-0.609938373818346,-0.936554341734,0.0671331787433103,-0.844591406202272,1.69496105957999,1979422
1.28562668755511,-0.848061305381722,-1.44174006707052,0.986281258566877,-0.624813480791431,0.907432896171212,-0.596582950085576,0.676488422299384,-0.865436414000644,-0.505754448925477,-0.238242635684461,-0.527938477433786,-2.8635563142122,-0.4464105145489,2.31369596187996,-0.69879435246023,-0.265060208165319,-0.898872262531784,1.2652741409876,1980052
-1.65053908012461,-1.13633977033065,-0.58012311994752,0.396663732695772,-0.425019209719796,-0.495883151323693,1.26763677486059,-0.771016922267102,-0.00110754349832594,-0.280104054880242,-0.534015525894774,0.366959648723992,-1.87549618294218,-0.842148065113438,1.44701625828161,-0.276856766584116,0.62225708185843,0.798637544836789,-1.12445094424197,2001182
1.31116288507804,-0.200809175397512,-0.118932404574583,-0.107493335792542,-0.923321218498853,-1.00702228162685,-0.875593625853267,-0.997494226329267,3.4446024464921,-1.64070021190802,1.7421147266957,-1.39389078676416,0.495003772513296,-0.735913498429336,2.94648880833585,1.94067383983047,0.341183565248576,3.18278932225355,-2.41947279581883,2002465
1.43447724533352,0.723047185456965,0.409809253865655,0.759485648358625,-0.503234765535148,0.724342193236943,2.88541407180522,0.14106369619575,-4.78440540089588,0.0410541316050888,-0.701317926092258,2.23381597818042,2.26174179040862,1.16927873348062,-1.0284884758961,-0.439853365305303,1.21467098423144,0.667758647215345,0.142945084458139,2004451
0.263753134748366,-0.21391672398872,-0.484692864952253,0.449316994799122,-1.33218190699493,0.202100448241341,-0.677690884874596,-0.0413614072048411,0.0660973842182298,1.34469474583825,-0.0127776248268344,-0.649030334748852,0.322153271194112,-0.645081413342658,1.2408934980235,-0.492136792237314,-1.04984993021674,-0.278637229209778,0.0712870334561748,2006164
0.556901578804544,0.407966921865273,0.564383460369494,-0.2128738655467,0.690610666970556,-0.160279466284451,-0.134810433297931,-0.173580060568428,0.468718468053454,-0.0941881262457091,-0.304553780886317,-0.0728379366763451,1.06864401880833,0.570702856721044,0.0348234410373018,-0.659404764142397,-0.207359405472877,-0.799865668374189,0.436714010073575,2007309
0.101926021741722,-0.467772034188682,-0.416656451149033,-0.605054050562911,0.140782545890238,-0.59982283078669,0.219517468182166,0.820929102875692,-2.52497808782804,-0.111329287134173,-0.710625397939342,2.34682781944884,0.445322676862475,-0.282193705058891,0.755459901230928,0.0111207020611584,-2.21971619837156,-1.04847632938985,-1.26718805148911,2009915
-0.148851763865249,0.909224186075259,0.546064436923817,-0.191909805557853,0.438032819956767,0.0186824243776631,0.114648689167331,-0.458009251235716,0.441636163063862,0.234283709849972,-0.166369650657629,-0.463503275845244,0.822633152835116,0.475244616637992,-1.07589536814796,0.753977293629427,0.270178922763146,0.440384507087083,-0.273550975541182,2010259
-0.98746919432693,-0.351395663627732,-0.0868799894425389,0.634339111986912,-0.15078093601187,0.170861756131432,0.392858631489503,0.341541683178016,0.608110554531931,-0.112351206215406,-0.56346248038562,1.01955752449186,-0.68620252814833,-0.247737063240721,-1.17890122806222,-0.312961829083,0.428394286307027,-0.281736133825534,0.76739992095197,2010554
0.774311536698673,-1.20897127773287,-0.870128262867737,0.0321939634643172,-0.165204085127062,1.13718575933918,-0.00648826479420769,0.243402401198082,0.671355070057312,0.119045655610203,0.135687522572244,-0.846520531819588,0.672576051434268,-0.41937736585241,-1.1261025851182,-0.728637503017068,-0.0377667499086725,-0.488414110779181,0.200959919612651,2026671
0.312454752460115,-0.753654669606397,-0.467861051523955,0.230847690545137,0.0367935144880196,-0.967505121964747,-0.596488571196635,-0.658568639999795,0.377176186319973,0.0671507785208277,-0.0348802310800381,-0.731624800904419,0.295496759429166,-0.526483717977441,-1.28137471460529,1.71984364732487,0.643819496967765,0.96828171185774,-0.742581020657121,2033049
-3.32295354738466,0.598786354987543,0.108134172503892,-0.174139797660469,-0.0115382395144901,0.610220158278108,0.179107471793034,-0.243804648627214,-0.333574798645408,-0.431190907106999,-0.333831576517117,-0.180748191757307,0.354276574961752,0.262249162039218,-0.157158281721453,-0.110169662196405,-0.581197608726553,-0.00601484968909263,-0.502223670505945,2034136
0.771491465643578,-0.396742135315756,-0.446406324777331,0.798703184451831,0.653791499906537,-0.73296072699121,-0.499975552921393,0.321277643385746,-0.433156609585623,1.42854077811292,-0.588681573976818,1.05895651823795,-1.17735416744449,0.28713363566028,-1.17233010848186,-0.538058675695646,-1.5158143413858,-1.76557824646529,-0.0296437502084673,2040495
1.43051925599822,-0.0715641178510671,1.59734037422767,-1.31928936920616,-1.11041617596776,-0.260563802382613,-0.227257436791828,-0.638219853716829,0.52973716043072,-1.98933515721946,-0.26723864591347,-0.199592059226948,-2.05168094670012,0.90272777776472,0.00996747820248206,-0.308043402644348,-0.89284231814647,-0.789632675512639,0.143445000005807,2047354
1.03896373084946,0.58758596934075,0.19618470498513,-0.150452821670788,-0.219928325573352,-0.0927026381561309,-0.342128613938248,-0.294885044881426,-0.0149782277769004,0.112471818239292,-0.209998864900586,-0.352288889458957,-0.332178095991405,-0.230065068322843,0.421688626570074,1.22637343684375,-1.14567577442997,-0.187721519920562,-0.812822306509763,2051378
0.706209407861966,0.78003194509778,0.522953922675556,0.601269349555377,0.999499639805317,0.706833723369635,-0.325470540607698,1.16782631256058,0.574065809914163,-0.24008848057591,-0.328771902893874,-0.307090349530324,0.477721896984698,1.43020667048763,0.18934442697579,-0.751026665224817,0.0231934299128432,-1.03086360885312,0.738966583837046,2055667
-0.0719052312615034,-0.03855250648841,0.543093663998094,-0.254415452848843,1.13124215383315,0.830287613982268,1.7285055199857,0.772494916398603,-0.818181070211109,-0.280875216804451,-0.654047320291832,1.71459368656184,0.923419318371335,1.117925833555,0.0618957924325602,-0.807495490454288,0.313646060500965,-0.55846732211383,0.332364390075414,2057358
0.0738814084125931,0.33600258869823,0.26154535646008,0.312747129424844,0.387892325126207,0.117684315069899,-0.8744304475341,-0.122220789511729,0.780013174984624,0.104559097321579,0.521428823559116,-1.13387204798577,0.263074377640507,-0.478791107299912,0.415864777822506,1.5277255838139,0.887194526061039,1.5172147986444,0.524089048232818,2059713
-0.0679039095274907,1.65640836864521,1.49944953633716,0.712281495398465,2.85888378687731,1.88217642138841,0.397198867657553,0.53622788188519,-0.725367287145359,0.938638306661825,-0.399873559158912,-0.0574305359053056,-1.3351635943495,0.259662989430168,0.76731794626068,-1.1045354099396,-1.6058555193181,-2.06965346322139,0.543351350766134,2069079
-0.0274438072075461,0.139311369569051,0.287706474798485,-0.550349566069614,-0.459806974174165,0.899632267111716,1.87853849280182,0.115351195277849,-1.40353659374334,0.072003669402121,-0.579107866614169,0.926125179493686,-0.390391109139993,-0.433101956025502,0.392515797758424,-0.945286873626103,0.0366339120778664,-0.558884705837396,-0.0357971180135328,2070958
0.890793351987006,0.823910221296696,0.620947284853364,-0.194219885471461,0.576006544310316,-0.12908351853331,-0.347486199706361,-0.4071463123851,0.186977961883404,1.16100486658866,-0.0943012607835599,-0.742990200989193,0.67618384037812,0.743750877325195,-2.51723882199957,1.64458307290633,0.138566547110622,0.776031492251671,-0.649775798762024,2072215
0.665151223903227,0.933439890107187,0.654133140426446,0.22251468760216,0.361568598588112,1.8643642794031,1.73660178341209,1.68332564633187,-0.529323092426809,0.0658817110244184,-0.596168938736831,1.09872130672368,-0.250080986398439,0.490973300574469,0.0228970872932494,-1.06610604549491,-0.623413751317185,-1.23370424426227,0.722645849960357,2075832
-0.0932008171733904,0.820807450442604,0.63451250428981,-0.402088727975659,0.478674286519446,0.0486522304342001,-0.500152453382519,-0.199600845477964,0.220244483834889,0.405764993661015,-0.335149942511175,-0.322420080038653,0.926574662561276,0.818257486059567,-0.363417668405542,-0.097972411889658,0.0317427305664194,-0.279219415711641,0.535888387350777,2075846
0.896504223840925,0.217359295177191,0.0242125726839811,-0.610247789910676,-0.796294824050027,-1.01190856639241,0.985181147837819,-0.954644590493921,0.386946354887986,-1.00251465887992,-0.519000914764349,0.480492529841341,-0.459457631755939,-0.461449971391716,-0.141252750688587,-0.247783633247016,0.243201451596979,2.29975568600529,-1.54895203217932,2076301
0.439658615959985,0.124399648232724,0.491938502212305,-3.30875823048867,0.746709749410274,0.887193794300206,1.13097735297639,0.746311925144628,-0.259810397768303,-0.187333446510651,-0.486500084229821,0.684742218138967,-0.166615186940204,0.206830601571438,-0.586026852578869,-0.810181474826553,-0.10569712396864,-0.832179195860534,0.31918648234427,2078198
-0.100757177476267,0.41224829023161,0.333467157087994,-0.717621332674802,0.201687218927258,-1.28258844861151,-1.00641740447737,-0.986420720703294,2.09090590366044,0.77925900920054,6.64186345452002,-1.56586681964777,0.682459310244094,-0.275561661614991,0.328079915181141,2.72358185217003,1.3062574861608,2.83013935444317,-1.33999610310528,2078899
-0.146121344278983,-0.919155952693967,-0.144595895146956,0.0123693890738286,-0.827817734080275,-0.378353885188018,0.0531999548496575,-0.634375860995043,-0.126971290003626,1.21939818052095,-0.264674676348629,-0.31491388005266,-0.135307975601049,-1.18726380591349,0.548605347737373,-0.4410138497742,0.462461138203948,0.931227537396773,0.052568774894727,2085349
0.00409704540080731,0.0650448111012249,-0.486557753371865,0.635337949229592,-2.082288745337,-0.456267745473305,-0.554840604335403,-0.47587506624663,1.06746475515468,-0.00593483230656537,0.480894813388661,-0.727526222303141,0.37769884527681,-1.71086054345706,0.6200409359373,-0.253298402161555,-0.896689150917604,-0.549332557054394,-0.143885148040645,2086044
-0.845249065427108,0.38423391921979,-0.290487550742794,1.64723829063574,-1.43812866145569,0.276296659678781,-0.569679585663396,1.55833487867854,-0.513316315240518,-0.0529768588357856,-0.531477942698255,0.972843069938466,0.848797109025488,-0.851187084350394,0.440227144798974,-0.272942640764926,1.32735084905541,0.354030919040406,2.42255095178997,2091555
-1.06754934797776,0.474201700878007,-0.144368558683809,0.44341663231187,-0.448935931297564,0.771020371048812,0.562829358008177,1.00737221157915,-1.00712529537936,-0.263794477141233,-0.59279285742382,1.01697119003646,1.19262261780278,-0.248852961688175,0.165940568250347,-0.936767261086217,0.317578835075867,0.0772777088290539,0.453067328080307,2092954
0.72292536195948,-0.716167454918647,-0.387900212115451,-0.450893424302937,-1.08968901660654,-0.871375870382563,-0.702869786534986,-0.532271819114031,0.369512131576067,-0.0918783701783423,0.642186591762231,-1.10869084379346,0.69409642264494,-1.56334381542037,2.42527883354428,0.123043663598052,-1.09657353061718,-0.459555315982913,-1.53910273021342,2096627
-0.170147818820634,-0.901880206229329,-0.808389190663991,-0.0827350516417897,-1.62813854783991,-1.15269644514649,-1.01053222225819,-0.902641204339401,1.37971880906509,-0.300454617066417,3.24961739837672,-1.48170715442315,0.35543168306732,-1.0739025816895,2.57260665090734,1.27619483677065,0.7782931333216,1.43000996352296,-1.87752933894349,2100050
0.702847542540175,-0.119787427904151,0.153608354117028,-0.558614874095887,0.455636640734369,-0.615179374908252,1.02677766248764,-0.334240775404918,-0.341281668391646,-0.277571080993083,-0.646621426675849,1.5501419528916,-1.02356729755691,-0.450782590880498,1.75207645548088,-0.668280562525983,0.733109800013106,0.574703380555938,-0.678141362386873,2108003
0.239827962869455,0.398750900396639,0.533795562131947,0.247284997346203,0.274336690961602,-0.245455494609058,-0.166525491397124,0.136711221512373,0.221160696576627,-0.478440385891066,-0.383627409328548,0.0616420157478632,0.412034713155093,-0.0545684418760016,-0.450992234002015,-0.775553540932822,0.215333551980436,-0.713527988758311,0.627376058482353,2109902
-1.3565633466005,-2.35029226748577,-1.49341230787052,-0.0189152327621985,-1.30333939955442,0.0343174215713355,-0.215184040809454,0.458012566932097,0.290309935559078,-0.00814801924849854,-0.483260413037743,0.526332713793314,-0.216747257584732,-1.89882429926271,0.0730481398397156,-0.795138269039439,0.24490710990095,-0.343825340146336,0.160939607809738,2110540
0.175551210225566,0.0929848826457495,0.079155054584872,-1.85476472672588,0.339911083053044,-0.891474875002728,-0.780940026546157,-0.88499818114787,0.353718879653736,-2.15259633191749,2.10582566806729,-1.46603092826541,-1.80232340866355,-0.193412574251832,-0.291773300790418,1.87321914911807,0.62830130409121,2.08667726286709,-1.25436646327916,2116787
-1.37615775171733,0.708699427163306,0.606186624122294,-1.76105320039542,0.389098403667992,-0.161477864994682,-0.107984026478848,0.0993175767308633,-0.0235246606911836,-0.472949332359151,-0.428972408433135,0.196485502966577,-0.712998286189243,1.12342789057088,-0.680639777609916,-0.895779257794328,-0.240693203053977,-0.946503590609045,0.406769325621632,2119177
-0.950235778556766,-1.14067544109431,0.286887901437421,0.275926007432322,-0.664936666793666,-0.297349321630767,-0.597471276405551,-0.0996405746109957,0.985000313081219,0.801490673436343,0.14172152964794,-0.199620919969287,-0.836840905525321,-0.969012268573277,-0.920216272227967,-0.936232471563382,0.901521469319175,-0.0406654096249213,1.52685173707832,2131601
0.668970493021259,-1.06930088307737,-0.35816492692329,-0.196568993906303,-0.134282235198412,-0.563701533750306,-0.528629443196513,-0.89755011262095,0.478458552254349,0.134202734262668,0.360042425935023,-1.07582189284132,-1.33943999991431,-0.324375542139137,0.597470602906516,0.666870197584006,0.856077664065523,1.91906766339679,-1.25315504115298,2132424
0.0249734138988879,0.161167509490857,0.00876220311106384,-1.3955625424488,-0.244759465252651,-0.676928758104135,0.483706304260253,-0.395241256110596,-1.0262046361473,-0.147890499147351,-0.403219171203692,0.12659172272544,0.518145621839927,-0.996208226125468,1.03563417708404,0.398950849545217,0.0356288302672857,1.22451379155368,-1.63941509175301,2132982
-0.376769889664138,-0.135385015542777,-0.0982958459546865,-1.54784110268802,-0.165608327837644,0.0377318538221828,0.0586527880275583,-0.293068560131174,-0.700971979246523,0.0653506009951021,-0.330472027137685,-0.102175455894701,0.330186033441409,-0.471034608632998,-0.421159925953454,0.133636171134285,-0.577985638468507,0.0196034214778763,-0.582013194704526,2133204
0.91763197149809,-0.00574968951010828,-0.567478592925102,-0.355997316361151,-0.691788150866872,-0.385150216280292,-0.879145766892941,-0.890923943737302,1.15264585848074,-2.20007293967173,5.08054768003969,-1.55830975488428,-0.270429000994877,-0.706218216324332,1.91413892253573,3.5211907866627,1.48530842672835,2.90921068541872,-1.38368115584087,2133380
-1.27810794088601,-0.234167592132253,-0.126059666096562,-1.23563057812079,-0.36739824033828,2.26857864152101,0.400673039158564,-0.874181146556784,0.67759725320937,-0.00901988321478361,3.31373956689077,-1.50595971284592,-0.731431731198669,-0.192986493223776,0.106023694225028,4.80703577723747,1.64376153461333,1.24889799326412,-1.23244356310955,2134220
0.609772241363312,0.672591288011284,0.844005689102984,0.644910757841979,0.492185101420354,0.931477800788766,-0.111523440215064,-0.0836240149876798,0.992339256847299,-0.524235400586345,0.145339313065283,-0.497610036034271,0.573016666878718,0.018948398307799,-0.0795728505570053,-0.808923685465212,0.211487109927648,-0.847548295792996,1.02732500065666,2135748
0.103042129153747,-1.79676015784696,-1.85644351498742,0.449863996361246,-1.22134499171874,-0.631607494957451,-0.791175363688118,-0.897348758813285,1.08184703757206,-0.93137389782128,1.2270396216045,-1.29962894258307,-0.428132830353976,-1.51244157438159,1.44494045453681,1.36506720790978,1.03071769984226,2.04167201889981,-1.02611102530905,2137799
0.554341104428546,0.495302714126852,0.185557434493097,0.360838971841876,0.210336314408525,0.703602924619112,0.280398935708571,1.23709410012233,0.189789308329441,-0.103690165298143,-0.402257073391458,0.519253124839103,1.23020322247704,0.280035368410202,-0.553276858831727,-0.894309824094969,-0.920859241035769,-1.12065844841144,0.175539548894338,2138375
-0.38924112255418,0.164363607764982,0.202939556151258,0.257335571087211,0.0210259020573108,-0.441061131808315,-0.0320350760914736,-0.381004900181591,0.665001867462231,-0.294192663697689,-0.0140134434617078,-0.206832204573037,0.383404025866976,-0.465612318479216,-0.473410921530605,-0.588705887742783,-0.701156202087993,-0.78941397215549,-0.0211088959527258,2138678
-1.75386415761664,-0.650315670548557,-0.40739482037323,0.261615595763242,1.29483052805558,-0.539424498369763,-0.304583482510633,-0.467164367777383,0.852788528155587,-0.571632898267893,-0.14922994266055,-0.345937656356647,-0.0262813442785404,-0.0149514733389766,-0.810150173026811,-0.228351149408031,-1.26369033122304,-1.02405999801405,-0.0388231643857239,2139733
0.0395200036030996,-0.979089794474841,-1.22601316244881,-0.112471510954476,-1.4309129243595,-0.292684643263897,-0.581186065367358,-0.661306490889834,-0.0537569149253346,-1.90290373357827,0.644481760536951,-1.2876190422789,0.385791491275364,-1.93513702146469,1.2060707708793,1.80786338282742,-0.279922346811971,1.13360219297057,-0.963361953977548,2141116
-0.904479958601092,-0.297502118387777,0.00513170868444319,-0.560695793532468,-1.11318571447834,-0.67527655909219,-0.927291731209702,-0.955215574754882,2.89722899053281,3.36280108704584,3.24354143709901,-1.5195516960048,-0.466471473337239,0.284880499161382,-0.496391564147342,-0.205222740641883,-0.958362199761804,0.46024515626323,-1.09302439408669,2144796
0.766276801611754,-1.7023279424484,-1.36083786829679,0.194802160185207,-3.20713748788612,-0.502668770561738,-0.343210582688863,-0.824349428659305,0.632289395954476,-0.283958997596824,0.0390090657985752,-0.92572833473418,-0.475946528411993,-0.806948225327622,0.735042159358053,-0.21232099561612,-0.323843706668017,0.452059796965795,-0.954518966242504,2145166
-1.12881033540321,-0.50623282100791,-0.341063227426444,0.190327472771767,-0.848238404939224,0.402882284290992,-0.577370923271592,-0.586948346917616,0.467001105945917,-1.80350430618604,1.321079946487,-1.34414438909427,-0.678825059732183,-0.666478079051572,0.294100127570419,2.10599269145279,0.47086799493998,0.37883766542472,0.412570115939661,2145694
0.31578430629246,-0.69102087700457,-0.265478108390599,-0.469222021258019,0.918739940399538,-1.17246465116033,-0.900979361559461,-0.751044765631108,0.938169658905214,0.63729924976425,0.395993062694555,-1.05031016222447,-0.898711407887898,0.0642138002933299,0.292437687166016,0.484544154195793,-0.587936358796254,0.241284494678995,-1.08217925791092,2146138
-0.0986997910146555,0.139968551870755,0.214101330734006,-0.736380306888357,0.23481853387135,0.671661696211882,-0.787697327585521,0.319187795745698,-0.0452172205468187,-0.0416859724973954,0.0631005249893319,-0.614054707542732,-0.41512290047203,-0.337760349291391,1.1057123763585,0.516003415102226,-0.608402999918346,-0.101348662529738,-0.433333706900106,2151024
0.84051468172083,0.73584837165978,0.15831758234917,1.33723890581304,0.419688946939715,-0.502933291339012,-0.62599334984083,-0.0814146674496396,-0.277810838067151,-0.0314300491283715,-0.392691846093278,-0.217080480656379,0.0447445776919365,0.357914038122743,-0.320323181399254,-0.386314521145448,-0.0938053831491685,-0.386153765991395,-0.0109937930209984,215131
1.5372801343341,-0.402454274623799,0.660489646239145,0.910057471780801,-1.40365140667296,-0.217635586475226,-0.388561242927198,-0.557784603264356,1.11426027588349,-1.41980593801295,0.531469656340181,-0.66549804620306,-1.24387783228808,0.329895891028299,-0.46256839126629,-0.718000374818519,-0.242986027405692,-0.908583920185787,0.446090239333991,2152442
1.52500002885946,-1.23309836667844,-0.475146354437426,-0.692934216114824,-0.034023634235455,0.685333740052662,0.975677789677077,-0.212987976695018,-0.169482113126993,-0.157573136576744,-0.551573397037314,0.31939671710751,-2.47505904226572,1.95734981755176,-0.578698720949229,-0.362106795312093,0.212705955908257,0.5840074526794,-0.402637552448158,2157529
1.09778903225948,0.849507869852923,0.697571019495351,0.121645517638329,-0.835764276820746,-0.610457933640946,-0.529387894780152,-0.611327829352561,-0.0396017021045818,-0.920095269108832,-0.371408307832445,-0.312394235718576,0.532302661420011,-0.0134667656097334,0.255554219063504,-0.666272063896676,0.893307911668693,0.226177686265991,0.804480361850639,2158101
-2.63686345578586,0.00586204008690207,-0.225359909011712,0.660351164155748,0.0949984958885282,-0.864646613817983,0.278518357914927,-0.275022423308573,0.0161048097664764,-0.2483777001194,-0.582096027338483,0.916587997378996,-0.275099280677942,0.174987732474776,-1.00723638123964,-0.716011040160591,-0.683011885818263,-0.637011018039976,-0.0518692755485741,2158329
1.25106629520799,-0.886527293788692,-1.98278423475261,0.86329247963809,-4.46780273355967,1.33070390512318,-0.331351273202592,0.638563346922863,-1.14862517308381,0.61602581737226,-0.47987322425779,0.0798385519065707,0.37717847485016,-3.88302532005394,1.88594585845397,0.298770590025063,-0.219270534953446,0.0227122873284733,-0.000973796044578767,2168082
0.414995593760223,0.817474234135486,0.328894898061813,1.31295020504916,-0.551237432901315,0.952925662126048,2.47614335989149,0.436060809042491,-1.62692893086735,-0.764235523138509,-0.686752964385762,1.95528813748292,1.22742501138776,-0.515269130057339,0.599594398929013,-0.994079512517765,0.120216705299552,0.0262887829048424,0.199219505727444,2172217
0.584356949161065,0.248706376456236,-0.0144500249558251,-0.589198810584236,-1.42200377231593,0.718788240517221,0.0442929250426458,0.497326265064408,-0.201175441744768,0.662240413829236,-0.362406181417232,-0.159953356733573,0.80294318900326,-0.233875129354513,-0.0686868814052754,-0.821870802989227,-3.20067725520648,-1.98930793771705,-0.997723744994745,2176530
1.66244433980194,0.0197964398379099,-0.0395502397995446,-0.011509733000292,-2.85809814426876,0.0721802347043803,0.267127358736087,-0.272087629848797,-2.38516942979908,-0.17485653027939,-0.590192622905836,1.34694038273522,-1.87325339850146,-1.34215392094191,0.458749499072106,0.51148191265614,0.706983181722227,0.124042726399126,1.35230806792713,2176784
0.644524427405027,0.799455136813927,-0.445981639191987,2.06875084677752,0.264499863523761,-0.075909367542357,-0.196155517077544,0.925104765961859,0.743464574626291,-0.15021365695295,-0.26271839461457,0.585119284699536,-0.457968550136103,0.949431051460042,1.15083429388594,-0.865381946082049,1.13243385481406,-0.433287489567966,1.74483226710363,2181724
-0.365854840690294,-0.884265364065223,-0.00213009063747244,0.130842200538155,-0.432854500107932,-0.155558309452988,-0.326737464177107,0.147221120757855,-0.00942576070935289,-0.15063284054341,-0.384627706653821,0.18955310056277,-0.0415516576733779,-0.630445022288984,-0.236293443492091,-0.487399378039892,0.418190517203336,-0.360483207860609,0.90958101984348,2183291
-0.270742216557821,-0.133022441077375,0.193578642962851,0.750478922530484,-0.216956911794671,-0.963624473249347,-0.568827839542051,-0.19711110098167,0.306988514146555,-0.422815037438016,-0.211974610754717,-0.355471622482779,0.00764862082702012,-0.747270272280096,-0.537833059461537,-0.109758801683223,0.685371693074072,-0.078980391847279,1.48068160485902,2183356
0.843883616902731,0.223081425552508,-0.453828191662425,1.30771085470564,-0.706431532307175,0.706244368480888,1.30937291882755,0.433283919890292,-0.460701670698154,0.0754702187572248,-0.593107308111168,1.10702869322107,-0.539513196606698,-0.773635790139714,-0.842922991473226,-0.770596121578009,0.578013568415773,-0.248564182622116,0.950104709937352,2185290
0.531421742049124,-0.161861733162381,-0.0995613927896387,0.541291883079441,0.500174327198111,-0.0202361383331346,0.103869400581557,0.759150458819017,0.604895204941745,0.226759624220566,-0.180718220881891,0.385391015279623,0.268234425012947,-0.0433595009139415,-0.318718207839272,-0.868589735412546,-0.547388623729829,-0.779383066286946,0.537445051245792,2186951
-1.2071542495553,0.610735299648932,0.310894794039482,-1.23576430023371,0.181439824863688,-0.570687223380573,-0.520200813226636,-0.497136356741017,0.0774515702331099,1.11354011324898,-0.334362709070328,-0.389411314382656,0.925023201271548,0.434546806878481,-0.698004624006863,0.0856597426088747,-0.593396346698883,-0.515304679170951,-0.28803813194175,2196212
-0.684435424573519,0.0590668813373486,0.283321839270409,-1.91316525733128,1.34042237872796,0.272918441270536,0.406799990260715,0.874704592979169,0.460094449651568,-0.0829286399935117,-0.323951924167161,1.01316284681509,0.14106163428636,1.12146072986434,-0.464037272234265,-0.979121895521972,-1.49384227242207,-1.93989734644887,-0.0899380609577697,2199403
-0.480256328340481,-1.60524728032076,-1.14118789005703,0.163679700928103,0.14147454306146,-0.822708945396392,-1.00940961628948,-0.784324128061581,1.41195071981259,-3.31032144115286,2.68207192514358,-1.41599538606994,0.401777044975272,-0.401148736679568,-0.328827423218899,3.71211167249455,1.35212648536205,1.56793772675788,0.0445746630974721,2200416
0.0074058939244319,0.177881722841425,-0.383791946405318,0.648150895415323,-0.238885856261643,-0.372576609568363,-0.786547783597182,0.199465232850156,0.249667332201535,-0.693570974879844,-0.448580511967951,-0.0490081035856525,-0.390094567562022,0.156408845428105,-0.17035304284437,-0.174339537651656,-0.67423474446514,0.100607917239688,-0.635898914614654,2200813
-0.0893525795629725,0.0418760791558387,0.373620206619876,-0.48147382078709,0.767453705531018,0.260283012971527,-0.416086412062698,-0.427123821135399,0.687033541091362,-1.26527767666061,0.334978672729711,-0.93353277639906,-0.384838103678228,0.416748306161914,0.230473102324276,-0.54831351709069,0.239210407567465,-0.200716428837234,0.288250853142447,2205389
0.00955740485531746,-0.369344719038108,-0.237316753363969,0.149790211827811,0.734650011171939,-0.266783358896765,-0.806009427914876,-0.446362453625437,0.665165963336627,0.874155775115866,-0.00944062460404587,-0.808068978378624,-0.487394424345146,-0.0744467806874633,0.931819104108192,-0.0869458192340563,-0.998226368721753,-0.178826807092611,-0.689451639092664,2212664
0.753876603021779,0.196698732183164,0.135287304499666,-1.02960979875664,0.333144167099652,0.00270638404403841,-0.799893078199975,0.566939747322691,0.352019606369711,0.202831367462477,-0.208650177247074,-0.561844249636216,0.81933059376625,1.08305661512469,-0.843320625590344,0.716667241716768,0.112899034882168,0.250353801334927,-0.156644712212095,2217034
1.15168689707525,1.37481668382388,1.21001253195765,1.07995853543055,0.833056905531089,-0.307379993805781,0.173266785538857,-0.516895664735979,0.479737215787246,0.245220374991312,-0.470036854875968,0.420536928347516,0.208244466453611,1.6192602217566,-0.996296465578641,-0.797333859383233,-0.580672097926108,-0.754838103609719,0.249701234122444,2218615
-0.162289294532762,-4.40451979329229,-2.15372261425967,0.723726348050165,-2.17957373344428,5.06329514614388,0.460631425686064,1.453026113109,-0.357340816528988,-1.22486452585563,-0.591360473497868,0.961004815885235,-0.905237728218462,-0.548494920522047,1.10624209532284,-0.326985510477755,1.29853831716655,0.952033316807702,1.5395412807804,2219842
-0.751099515997896,0.224701770410159,0.400815077752379,0.376778996300124,0.55056207158543,0.592065821025438,0.326808070899888,1.55372769271829,-0.234748702116083,0.00584936299429597,-0.59037254205881,1.26546168910312,0.207708294577769,0.937460420696929,0.572954489180291,-0.9601545774691,-0.0107154460833717,-1.25242393047239,0.856742363924293,2224150
1.14788882008765,-0.154648994290056,0.42105855906523,-1.68918541371972,0.719388333055119,2.28276447636239,1.20774014310283,1.05263663316047,-0.357176338506333,-0.266565184457852,-0.695608480386514,2.16354308121973,-1.55754245432032,1.12451620602145,0.018172459115395,-0.358100567845444,-1.3204297885681,-1.05990179235492,-0.546394928553134,2228399
1.40549303179218,0.0569729684637982,0.463145386854042,-1.26526976448544,1.05474585735576,0.120846014692017,-0.352751526440583,0.509682116738623,0.361393090659833,-1.00143066540678,-0.143930381006601,-0.101892598297705,-0.374630071068492,1.10254022417895,-0.0305862412772232,-0.367052818535862,-1.93381269573018,-1.23241017241583,-0.772002037743824,2228400
0.650972906216635,0.410775544459905,0.642603413065556,-0.734326973264232,0.736813986708978,-1.30590643291061,-0.99486144184037,-0.981328449674026,2.19757571931567,-1.52173737158503,4.54420389520864,-1.53130335604049,0.760821427827525,-0.127409408406976,-0.241308652496415,1.15334270622184,0.59516453616954,2.23761003091357,-1.61761119475144,2234271
-0.798891411349611,1.19706478781365,1.28966539326991,0.624374633697576,0.384916994896116,-1.25929192916477,-0.90832677306552,-0.918093393245659,1.97517984108607,0.217822323026514,1.7069436927011,-1.37512458693044,0.990887313648932,0.445899693632699,-0.0982484040058834,0.561575140734262,0.796171376659242,0.870562474432306,-0.682632843191806,2234422
-0.254481904310293,0.689179631129306,0.268530785964052,2.63579621789889,-0.344136550494634,1.3698224859092,1.68470193546595,0.675336702434345,-2.74485355369743,-0.190729036963109,-0.661090059523556,1.85423834268006,0.898579150745297,0.231573027262514,0.595713429542847,-0.460904086751495,1.73923499432843,0.468315961138062,1.22298179006272,2237571
-1.08198434930286,-0.22371421283862,0.247602863855736,0.330946973077139,0.492405658371117,-1.07393070604981,-0.282954107848338,-0.315728308766628,0.160729486110742,-0.405374814669243,-0.468229060234065,0.251112225476026,-0.353211630556362,0.574683652563452,-0.776087339695221,-0.836911267304401,-1.61819035409875,-1.21617103807584,-0.251434516071519,2244172
1.19796011319553,-0.515899341961388,0.233376707215381,-0.0407721624787251,0.201046701101301,-1.14821325684219,-1.05490944698466,0.128801958878477,1.35214181297894,-0.177643769262576,0.367649171758698,-0.871316319985214,1.53982776479836,-1.0586072720419,1.51287336166319,0.700470742685552,0.663747635901312,2.04208522602077,-0.0706823785926494,2247869
0.753928282790796,0.0560862148614279,0.0526616440899948,0.776267016423139,-0.790286233618731,-0.0557605589106418,0.448067217595726,-0.0538882349945045,-0.351081873542259,-0.34597988334869,-0.624002428752865,1.32859468584946,-2.98206413985187,0.612324220266361,-0.186971955305177,-0.43358718624853,-0.962714007784447,-0.93705503490752,-0.0192334765683207,2250648
0.52827338324136,0.870613623086581,0.474213957539243,1.42581667944603,0.101328528545662,-1.00087376829658,-0.718606208729206,-0.605096921525884,0.423176104546397,0.0951645342623997,-0.135753944133934,-0.719170118547287,1.13268325172845,0.212940175541186,-0.512268144624483,1.05670256111278,1.18847982853814,1.46814545448606,0.902830285475934,2250836
0.653821962674855,-0.339556032349217,-0.823252375682362,0.145074938636728,-0.512657433472341,-0.644782692731003,-0.589471790850704,-0.418202624201035,0.867099146164281,-0.0631691856899493,0.88430575696147,-1.0931802928586,0.130910216502907,-1.63239263369225,2.08084509865447,0.180297958786158,0.404495566648036,0.72390949561289,-0.483612905206554,2267382
0.457036873594675,-0.29905324361825,0.277908718994619,-1.61483647351782,-0.0811395185676556,-0.652038296272396,-0.602527920159137,-0.508078092226282,1.72888974786089,-0.36199791909962,1.79561700579148,-0.721515882892834,0.348315735040043,-0.623321329963029,-1.01765703003278,-0.239681079971836,0.190928094328691,0.0593929242363321,0.712496613695486,2269346
-1.0197467097641,0.353127544708272,0.0680637907767899,-0.385597535942357,0.899720982160532,-1.22862199926479,-0.970311535056065,-0.8885212993941,0.916018595264769,0.27523155926555,2.11564751214908,-1.42877166434026,-0.0735170083352952,0.46734132765339,0.443696825221861,0.279254585345162,0.24150949669178,0.64591500457308,-1.2883928128938,2271329
-0.29564728668704,-0.233423021393115,0.100896687242206,-0.348564210315976,-0.175644538256328,2.49141499316224,-0.0909419209110401,2.36579464560016,-0.67732258433762,-0.335026958708464,-0.61829717559396,1.41462842858616,1.94218570496044,-0.353866377605298,0.817077209631412,-0.271695116787633,1.27955407235232,0.487396278881046,1.82309992078288,2274521
0.609965181687357,0.715062593769028,0.698108765460763,-1.54382924116227,0.622844454838605,1.2272606322619,1.87290188041336,0.211153062625123,-1.52605120588444,-0.211549773858846,-0.548735775238054,0.995422653332401,0.708084090148884,1.29804082897588,0.211143039344841,-0.893035167640824,0.285373814534026,-0.723756614427059,0.548503036314003,2276121
-0.411414243780642,-0.402280072690276,1.29897281552581,-0.44242257105679,3.28267650137692,-0.419532812638385,-0.515535192898904,0.446752199694239,0.270852232874287,0.824130952084315,-0.569011278027578,0.825990342795639,-1.70503264301317,-2.15487670255913,0.0844814916047662,-0.956569761127159,-0.518700207016331,-2.10281613199446,-0.0419715184907068,2278618
0.43350941230006,0.773507744173168,0.278985831862792,0.763745637344003,0.0548828967019243,-0.758371184435974,-0.701236124740806,-0.495024203005234,0.600358876137211,-0.0664316596855118,0.174494786283145,-0.985623194472033,0.975265384123172,0.073184549615459,0.195897162928772,-0.471722830565961,-0.169319316550991,-0.259541825595232,0.410281502902569,2285214
-2.22698463218435,0.348309627606583,-0.243624631056209,1.15030753773554,-0.378637408703776,-0.647210217342799,-0.539575600194502,0.125599104769753,-0.639414368838841,-0.458437351593038,-0.443421102757391,0.121669865976368,0.480202391111804,-0.209188309867918,-0.259616744298845,0.113087661691841,-0.10391100270574,0.0971691202222673,0.0350972633905835,2286108
-1.4265319541212,-1.65646205889944,-1.13108904514065,0.529849143744678,0.311533539027647,-0.677692367978791,-0.239672721328126,1.49515766038045,-0.235807695002839,-0.140810409728681,-0.568306387512397,1.20935689592668,-0.640550537257283,-0.384276256732951,-0.302567203162917,-0.89391414286214,-0.448799494079632,-1.19189807227642,-0.333809672180099,2293123
0.440261437854265,0.566633808330945,0.137045211054268,0.45324259240114,0.359210392193475,0.734676525596048,2.7566465708681,0.0316502933524431,-1.35039774359994,0.0453888152212156,-0.661058740104024,1.64582499195295,0.156901737133648,0.0917075931827605,-0.976130419230376,-0.313603056456587,-1.28579167446706,-0.651845714531216,-0.723180726138016,2294852
0.12093435656221,-1.9125981301293,-0.133088050440273,-0.56578872559759,0.858754397771896,-0.405288885350648,1.01527329656243,-0.653979167100314,0.0656936043761516,-0.681655816522862,-0.598135909568467,0.972101191605958,-0.656055613491015,0.939265499765991,0.314407083476222,-0.667418071634608,2.54075602247869,1.36517556069573,-0.515112902850795,2294873
-2.22135663395886,0.273880772974967,0.414350309847875,0.365114234085929,-0.370481199679563,3.60967170601742,3.00841621718105,2.67526577002274,-2.04412062015626,-0.131822969199566,-0.675255732294248,1.8773410478844,0.523055813276162,0.604404412161042,-0.0907998202861389,-0.921272467831868,-1.8671452011181,-1.71783349763496,-0.694404574049888,2296332
-0.079036318844331,0.532797357707316,0.104408448008038,-0.609770265536227,0.971853723460123,0.0993157920574984,-0.609856366021874,-0.0273533040523322,-0.0784960624549351,-0.370892741974822,-0.118912671023543,-0.649354993780329,0.0283109162182895,0.841927111618158,-1.12314988295744,1.34550776141477,-0.518424710374828,-0.573821153103511,-0.866561648720292,2305114
1.05091411216456,0.889713836077742,0.627805876009805,1.10563400176544,0.324733723831274,-0.523290392269803,-0.529482252776752,-0.50521083916998,0.254390289038539,-0.567385066382949,-0.137308296646188,-0.583512549595376,0.96374724060907,0.407814944070258,-0.00836763676133545,-0.519375733776063,-0.425976800996383,-0.58696075872778,-0.125381110082558,2305115
0.780059167883707,0.252321506686002,1.19453663262149,-0.561686917893309,1.14355468120791,-0.71193632198666,-0.677190948037353,-0.364663627606053,0.218736270106009,-0.511036679283855,-0.196483857353847,-0.702925304804119,0.815345888685933,1.45662749091516,-3.15509367072033,0.335875147159071,-1.59078047243453,-0.393214835916412,-0.468923334301571,2306459
-0.480856192651335,-0.290011394702612,-0.164320271273905,-0.634723042355989,0.504050734462633,-1.01231895165256,-0.650856288664953,-0.812691045446175,-0.0873675974876297,-0.170125086665657,-0.374085146305906,-0.234036830529192,-0.797976025074904,-0.621191994861431,0.0134528260548914,-0.111294427805245,-1.08817873935973,-0.122007441611756,-1.55028626193553,2306893
0.446623010153074,0.8916153187664,0.336214645893942,0.405502927277706,0.591072902502836,-0.143974513154996,-0.305308680151433,-0.418127782350531,-0.0472110883601142,-0.0646549087409458,-0.0102240087359788,-0.579365917629918,-0.123532276872967,0.297994520865782,-0.721528541515106,0.646339074774268,0.0119967092774924,0.296815880290361,-0.628502887931647,2317120
-1.09832459520783,0.585221905319359,0.372504191255337,-0.862030023940525,0.217689750375863,0.130673458395922,0.557394926199326,0.0517221980820376,-1.16177055045491,-0.0170864947956938,-0.633233999560494,1.31349708376209,0.315610300535455,-0.184542072425743,-0.16583327155471,0.143026417118703,0.254284913882698,-0.0460257749538716,-0.0325169350220477,2319068
0.285839916130023,0.425907686957724,0.304370521211198,-1.29320300287657,0.548123630295876,-1.08985377496737,-0.873410866711328,-0.503613920793064,0.426035194610042,-0.880428906100157,0.243763070576523,-0.948057695049536,0.470109437289996,-0.179557177273246,0.275562235831474,0.0359730770733888,-0.977661171309194,0.0778925992334735,-1.01667451793169,2321962
0.718292664013482,0.808648002638661,0.0974927188100576,1.56478809900296,-0.636147230411285,-0.482508939296328,-0.363274007403911,-0.168419936610817,-0.0273857115584107,0.363551947578273,-0.125683979043339,-0.573103662690519,0.622205964613914,-1.10772332826937,1.25390007438242,0.900064544728359,0.566549231077723,0.848848523427699,-0.461927711697033,2331869
1.22048304672132,1.17552819627279,0.592531847897334,2.08626580123475,0.0607689304779525,2.73185258144061,0.88741516716742,0.612849569666872,-0.357670311835658,-0.3967774609894,-0.552375133594829,0.726006081919647,-1.46380137122372,1.05942681433927,-0.153631897620408,-0.365453415453066,2.54938956599238,0.887566342829775,1.61187130003645,2336735
-1.04565316707185,0.689990862043239,0.472522509415935,-1.15706808820861,0.31062687529047,-0.648758441012405,-0.173733826652375,-0.500534823268308,0.00549576736426632,0.198162381291457,-0.378983315304414,-0.07479019421601,0.331424797194952,0.10396514319088,0.167585834220169,-0.597381193909307,-0.407317671449991,-0.458096204599495,-0.176476732126969,2339674
0.5362194506874,0.0417349636530939,0.233591076179739,-0.533580298758147,0.225917445110093,1.26671087261798,0.0341301283706688,2.04273209907621,-0.467194203387791,-0.224877230474584,-0.574867177775352,0.801919149506731,-1.38974270245419,0.318341092840819,0.132122606951926,-0.702890946810246,0.0615053071223799,-0.676091836782523,0.696044831691006,2340155
-0.953100820757883,0.858122538521314,1.5631110402364,0.902066117205977,0.725955803196897,-0.712951246154719,-0.308516847900407,0.352257646267565,1.08201629048003,-0.0256543686835393,-0.157980120021753,0.523581865907362,0.412116759057486,0.0651628611307925,-0.658793379288985,-0.876624186274233,0.557397152703384,-0.426496994422768,1.44482539556203,2340322
0.547292512454508,-0.00309730221640058,-0.166072504547787,-0.0266274995172882,-0.550791543861173,-0.884094363163939,-0.963708661844429,-0.523377070054722,0.66647143593565,-0.167365205574583,1.3841347249613,-1.31755278541198,0.412799887796636,-1.17700083586452,2.01349629577125,4.19049470101939,0.444998539045884,1.54886032072331,-0.691418352675365,2350037
-0.639631621344843,0.329999022412247,-0.0509940574809563,-0.969846290389548,0.294835460469244,-0.445441379988108,-0.540159093230178,-0.456735584645632,-0.239581249296273,0.798722345066864,-0.203803176788327,-0.717670545200689,1.11195723038898,-0.167619703766176,-0.0632824871049665,0.0824743574652296,-1.3186946156849,-0.649784712085009,-0.920717255631352,2352038
0.979288889617039,0.612073224235398,0.489341355345443,-1.68930628060897,2.49883557061475,1.3067455264945,5.33302096926742,-0.502283580461626,-0.150181297534771,1.00069592497038,-0.598684636851184,0.909642602094718,-1.43909527946632,0.75514554182096,-0.954631290417461,0.00250555358768525,1.47044856287987,-0.429004855727006,-1.68382861824747,2359944
0.0966623187546752,0.337326059750934,0.0844591668239654,-1.51848653808535,-0.115968678028499,0.131722905340527,1.23770776496002,-0.22411087128223,-0.603351494892203,0.208792283215135,-0.560736375431957,0.652716364806235,0.92244700865577,-0.836294711014355,-0.893223433053033,0.139240612329736,-1.66787771717654,-0.3188787818068,-1.28952654156824,2381907
-0.187534078982892,1.22472614671612,1.24296051497482,-0.283271517453027,0.672153373939559,-0.342941174667437,0.255115275981982,0.480025177780966,-0.0591052563731036,0.109802599226939,-0.533209663286214,1.00942687323003,1.24300581125289,0.522797902302113,-0.427914936142438,-0.939593303359901,-0.386858968240864,-1.0904448488479,0.819981513642616,2393207
-0.254123011948792,0.111537415200087,-0.204427934560025,-0.989611974654809,0.0730230775944041,-0.383252556552701,-0.361056597033073,-0.323046379379993,0.0722461928150938,-0.164268960510436,-0.338718652462145,-0.0703150567503762,0.0902378946971884,-0.603026449428131,0.570197238334838,-0.300907103318328,-0.776207143585925,-0.311699303619894,-0.586049171017879,2395415
0.324034634419258,0.280715892842963,0.52828072803753,-1.15970618463412,0.508615620375185,-0.404727658690988,0.583030046925927,-0.173990564444972,-0.531338436289255,0.139489833398456,-0.627615948410269,1.25590927937986,-2.30326383427796,0.109330725060437,-1.09671171858723,-0.207451607638974,-1.18736182040131,-0.976329781162204,-0.664271561956635,2395943
-0.498761093663463,0.771199066755495,0.341117981373584,-0.0764357357055435,0.237011018870854,-0.385807612282582,-0.238122994931227,-0.280264422788774,-0.320407002811894,-0.0287741965732551,-0.405081953451531,-0.0531196301246693,0.785795231306277,-0.0587576452932189,-0.139617512194518,0.231416813885799,-1.182925749976,-0.650046276295337,-0.454805971843031,2401405
-1.0709332538312,0.778425799909144,0.622259028402752,-0.472350832962152,0.381125555777947,-0.803326696963411,-0.494253551017173,-0.454299666255744,-0.0217574123594391,-0.0958922588207946,-0.273428349540291,-0.515218698400502,0.709299704366811,0.342335960102717,0.581117744259426,-0.446521252020803,0.351189813166219,0.0744732495620852,0.116450933260989,2405144
-0.043687323184922,0.221715853896983,0.728419078177355,-0.886879958491059,0.102499400911943,0.0600254642691193,-0.173844923234985,-0.437328760564669,0.220562886614972,0.655235906383687,0.0601860602329142,-0.548103457449675,0.310615533821658,0.218965262288696,-0.251167153382926,-0.304671522480017,0.455079285797876,-0.22204763613945,0.664513613272301,2414406
1.10656246716797,0.454792018690921,0.002179171303892,-0.582238109741475,1.25953571927703,-0.866344668321136,-0.833439739933276,-0.0389625747921696,0.0288103117993737,-0.928584642781196,-0.248423441508201,-0.45938816581183,1.37357444662815,0.906868783714647,-0.517313806494879,-0.232161885769147,-1.62356006839893,-1.00770376639248,-0.726998440146445,2419459
0.0490230067787362,0.219162734885013,-0.143423146975214,-0.388938771540532,-0.322015490472697,-0.891660917321257,-0.940061282522396,-0.580192460185263,0.616874607907478,0.769750276839204,0.798758482156635,-1.24849853650202,0.948428853170314,-1.20789376611405,1.02060819000938,2.90853819604914,1.43453589085012,2.98078420706233,-0.0715993814576763,2425694
-0.317337405714035,0.731610350535138,0.254975697386034,-0.443198587695235,0.0247405410293923,-0.0478134572727621,0.00177152040297213,0.0351243686554325,-0.515415017175152,0.250231163448889,-0.477054893475585,0.176073043591117,0.500974153785067,-0.449056130316853,-0.509500424619322,-0.0756538432302541,-1.00390246437239,-0.478511994768087,-0.626526535228427,2426863
-0.391502930105295,0.807577923433885,0.357858211841683,0.370679327422314,0.282193019186319,-0.593833960181189,-0.760993332250911,-0.709481253434917,0.586545847044057,7.33024074626615,0.516438507762166,-1.12021725771367,-0.106853851686462,0.844490546841819,-2.3102399520638,0.559232753462214,0.208036273513277,0.733871897577218,0.211729781710777,2430773
1.33406672100001,-0.163085671885054,0.175763731032603,-1.24746092627701,-0.0261614994002925,-0.644553973171637,-0.489194955424352,-0.752977750281312,-0.338989625173365,1.20984513522898,-0.20844444036536,-0.630623998312466,0.96571301765217,-0.0081786863736645,-0.533358340016433,0.0297443135067187,-1.23896510871352,0.237779178281339,-0.906799517487813,2439458
-1.91002038450637,0.0509126460659259,-0.316489817221033,1.14488759179209,-0.364066136045305,-0.830792702186719,-0.687066532251262,-0.48191243626076,-0.257114500063848,-0.0326125370612786,-0.256869649677923,-0.388273367538367,0.485586563571952,-0.562366693573034,0.607228193588599,0.187927850976901,-0.726215838950135,-0.45244029913775,-0.514417838797336,2443354
0.136483855434604,0.428872157810278,0.0259113150253578,1.38247042401964,0.00879677205962155,-0.263177456017116,-0.12267802714071,0.110394911765904,0.0355830151099548,-0.294747724482958,-0.492351389660547,0.511887110973655,0.236821464760368,-0.435484227640233,0.500036192824087,-0.236501619821124,-0.600716104140469,-0.207093565052304,-0.521193497669321,2445526
-0.221639636804929,0.968965486926006,0.660026058157434,0.234838006670954,1.10973995596467,-0.261731323858835,-0.303339079005094,0.593238459707136,-0.100049204957379,0.00848690975277482,-0.460145651070704,0.304110669361596,-0.0664610123336819,0.795076208024205,-1.34026446490935,-0.828644686422572,0.0352483666269791,-0.936933691839747,0.367357441091531,2448298
-1.80472481596983,-0.59850135746314,-0.0697580282288347,-0.67012557637086,0.794735726992583,-0.451368230929799,-0.715981587972987,-0.611800001792322,0.691063226258558,-0.0942331649568196,0.287701443774583,-1.0568291491516,0.434492805736143,0.11074036320831,-0.0359776784885445,1.75528357940381,1.28542898783427,1.13180345896316,0.186553188268434,2453577
-0.505280381616423,-0.152244368434187,-0.654537111748972,-0.122307301099191,-0.991149968191812,-0.598083635967567,-0.522872422251134,-0.498844169783491,-0.39318163807371,-0.834232857366647,-0.102276641756701,-0.805181591325237,0.815571936822607,-0.115962408249047,0.864438482046859,-0.116592693863873,-1.36633828465881,-0.593511624331349,-1.24767864374908,2474709
-0.0968109581590088,0.433814287918831,0.29977354289045,-0.29301297922105,1.80636306366489,-1.0140923563186,-0.547344416639449,-0.46679686069029,0.306108274117585,-0.351446300665306,-0.451874132841423,0.0216949235155742,-0.527817990536875,1.52714023610368,-1.20528825577584,-0.598706231007765,-1.15198895088849,-0.53697657313688,-0.886319095431717,2480056
-2.60011221054484,0.0801511636633083,-0.019252862319851,-1.33761145928731,-0.0639090277611691,0.104134861040826,-0.478717854713906,-0.3612077921884,0.785734279010519,0.316628787763782,1.01816449064558,-1.01051270309905,0.0639414086188398,-0.670653775382839,1.01645562357925,2.07822955283252,-0.00474522704631123,0.486011378477576,-0.976317794649752,2480330
-0.481514413708625,0.856301472300617,0.342377044459141,2.01208078953596,0.133337089022472,0.803008434574828,0.0547737760079615,-0.0187883394615367,-0.010935814498759,-0.456111225143656,-0.318554533622476,-0.191418459748741,-0.115621581455623,-0.115525918959326,0.11225073477586,-0.549467908683756,-1.1864127897102,-0.96096688041515,-0.813632934931548,2487135
0.466057872122139,-0.432241925868331,-0.169615873591918,0.106525910473518,0.400392590845534,-0.610707205463191,-0.507829749432102,0.789197154383587,-0.0480923213435618,-0.161952314568619,-0.547222987280737,0.75844904239648,0.430445450089643,-0.137279899218762,-0.197232346006571,-0.0901064571692908,0.439056348191574,-0.057717878837185,0.443044046133569,2488660
-1.00490783003102,0.877587647391614,0.506695921068678,0.695886291348496,-0.109402778656003,-0.254382385992477,-0.492925011662192,-0.671018905886928,0.893479341189525,1.90103774329503,0.48629723641827,-1.19632820335683,0.111791067497065,0.14714952720873,-0.252088561048487,0.392432171209666,-0.115290375494798,0.0426924485159948,-0.155766192544926,2490180
-1.5443649474806,0.498441025927773,0.41081180361579,0.47775127862022,0.343103011895307,-0.404418966846043,-0.240760925131505,-0.342174030212991,-0.180009855287768,0.210668546728206,-0.538889740852919,0.423057547882448,-1.63465075442722,0.0925669611828626,0.350946224132489,0.194380642478007,0.0854374920929809,0.0148760593666625,0.0878854546052826,2493534
-3.66706392350761,0.223614384530403,0.959634444399679,0.515592135513843,-0.00153847094314549,0.0014270186995804,-0.652428461199638,-0.312370313192353,0.489018391378637,1.89263804383351,-0.0749139389991618,-0.770527337530371,-0.729578318734756,-0.0152874154504414,0.678199322581362,-1.09288438494616,-1.08122493643947,-1.27016097199836,0.113428800270033,2498991
-1.50778876299653,0.214992932673342,0.276487967408535,-0.677774942150515,0.325174408389195,-1.1289630534456,-0.518985553956711,-0.138600880443097,0.172892117271617,0.465480901400363,-0.465719417370111,0.535536235352941,0.33657238119637,-0.0106711534158109,0.533228244491003,-0.327628720924372,-0.417437736661557,0.184054962448604,-0.62470900811812,2500377
1.17621527723018,1.48746326431956,1.36515892934556,0.70294275372258,1.43112638807764,0.140232397268489,-0.179446229171089,-0.692530684278244,0.33758993365746,0.402621839992984,-0.215563645606811,-0.719321047439615,1.5207169321743,2.1271010341847,-2.77527195914568,-0.349111187638582,-1.30392681837543,-0.848055292239273,-0.486568349546622,2504802
-1.55040950594314,0.107904757059769,-0.144317904391664,-1.41242884552705,0.306915021815915,0.0993255559417876,-0.568332022557824,-0.406206446559449,0.230744732453546,0.526138710922647,0.0419194673625045,-0.862226490033451,1.12095950761561,0.0966675266470023,-0.424859635215925,2.11292636985889,1.0528280279371,0.686899299027312,0.804592263202427,2510402
-0.849672886781736,0.247831339789968,0.108465654191689,-0.656430152199732,-0.0195972283919517,-0.310746834824742,-0.491011577908934,-0.110542991508298,-0.372391079693772,-0.0415805730427467,-0.271200793339782,-0.0223728094433168,0.705398505577023,-0.510304412520895,-0.17573333396861,-0.595955543927203,0.801564015670155,-0.386661899824112,1.37382902384002,2520618
-0.517338350083794,1.48327877168981,1.47547668341943,0.296333905649092,1.42233795488928,-0.407192940078598,0.177872607611502,0.325331393837063,0.0418457863699148,-0.467444045465533,-0.499435383514323,0.614935182189086,0.135684523663479,0.943182240616323,-0.466096083518015,-1.00772795463091,-0.50959873030612,-1.3122411624324,0.924804277049115,2559453
1.5381102950631,-0.387210886133845,0.77448287575106,0.575753373242255,-0.610779557832486,1.6159505116889,0.538090231500734,0.20892858660334,-2.11894067767816,-0.996643215732411,-0.539326269631507,0.607804295191122,-2.7007395561187,2.9246725150503,-0.785998158136182,-0.985844590100696,0.794427912060924,-0.000585297203950609,1.66460099332142,277752
1.18982869674812,0.673101198978778,0.369262316558053,0.783045771039121,0.30343740145667,2.66880634124863,4.01579823854705,0.869458128311249,-3.17856807066193,-0.0635951079505912,-0.698322935949353,2.17610560543633,3.06783562325749,0.590646639020619,0.359732186373391,-0.876915810059677,1.93161349101655,0.269042647046024,2.19890339675156,308862
-1.52028450797122,0.341486025023831,0.109167520063651,-4.09931426243932,0.100569386223539,0.216891939046112,-0.0186209686185888,-0.00679309800665163,-0.31756074482289,-0.378522791554809,-0.516727043116844,0.409601876016559,0.39378804026066,0.0169390063929428,0.151453753809503,-0.121403931202568,1.14365882565004,0.160867911537823,1.90226385783708,58325
-2.65887032986506,-0.695919238938365,-0.895709896104003,-0.078687439895049,-0.764584385111117,-1.04048112895098,-0.809611655780296,-0.572826790696909,0.737900631639631,0.475075437143296,0.244511712306096,-0.844352229317547,0.0300831866105003,-0.885342780492219,0.323397957214553,0.681619374196164,0.10220441948779,1.0920569808508,-0.81810810838953,92173
-0.210098612982391,1.21714027659974,0.756717402409945,1.26173379072227,-0.0103291450956834,2.22480433218197,1.62135189432074,0.866224177850502,-2.0181175410711,0.120412743793013,-0.66540168156762,1.76411866093955,1.09213146872543,-0.509899493717154,0.52367634161531,-0.523997157188876,1.77754169467853,0.79275077106292,1.66717071094598,923666
0.310692098662394,0.0629695731820644,-0.0303562831580479,-0.699340297249726,0.552124274938797,-1.05196841330216,-0.626339628681659,-0.790091347168973,0.573370188471073,-0.730478948679549,0.306417109019564,-0.974654882535845,-0.112665375051757,-0.0524298716403213,0.131329920352086,0.472469428983128,0.382212529945564,1.32787683220183,-1.37209918882164,965005
0.952087123001404,0.463790750573811,0.565262818881132,0.472208927819143,1.25612300310451,1.16217326851944,-0.375434288147547,-0.297740375438222,-0.111527068219176,1.74975267235402,-0.0309337084160435,-0.912624895984698,1.61365432471788,1.99133912044161,-0.442353773616681,-0.327719637090806,2.15604038470777,-0.363484499978515,3.1016908116656,983079
