pgsalome/predictR/output_NEW/signficant_features_results/tox/pcaFlattening15_mkm6d_ctv.csv
"mkm6d_ctv_original_shape_Flatness_250","mkm6d_ctv_original_shape_Sphericity_250","mkm6d_ctv_wavelet.LLH_firstorder_Median_250","mkm6d_ctv_wavelet.LHL_glcm_Correlation_250","mkm6d_ctv_wavelet.HLL_firstorder_Mean_250","mkm6d_ctv_wavelet.HLL_glcm_MaximumProbability_250","mkm6d_ctv_wavelet.HHL_glcm_JointEnergy_250","mkm6d_ctv_wavelet.HHL_glszm_SmallAreaEmphasis_250","mkm6d_ctv_wavelet.HHH_firstorder_Median_250","mkm6d_ctv_wavelet.HHH_glcm_ClusterTendency_250","mkm6d_ctv_wavelet.HHH_glcm_JointEnergy_250","mkm6d_ctv_lbp.3D.m2_firstorder_InterquartileRange_250","mkm6d_ctv_lbp.3D.m2_firstorder_Median_250","mkm6d_ctv_lbp.3D.m2_glcm_ClusterShade_250","mkm6d_ctv_lbp.3D.m2_gldm_LargeDependenceLowGrayLevelEmphasis_250","mkm6d_ctv_lbp.3D.k_glcm_ClusterShade_250","mkm6d_ctv_wavelet.HLH_glcm_JointEnergy_249","mkm6d_ctv_wavelet.HHL_firstorder_Skewness_249","mkm6d_ctv_wavelet.LLL_firstorder_10Percentile_249","sub"
1.30881026026862,0.800584781239504,-0.386436548086409,0.578634042335257,0.291927175603477,-0.98346571804688,-0.653294777642871,0.151026454820067,0.234610954314705,-0.000470184269513497,-0.762039522980437,-0.486510167813222,-1.25677164997583,0.416797755308606,0.981202043181001,-0.485217469713715,-0.615396477735298,0.015728760143446,0.533281116595031,1085983
0.207712242144571,0.603637414643192,0.281651650813879,-0.870121999232758,0.0718398259479871,-1.07896846284738,-0.679815523652548,0.214425883377841,-0.559545236014217,-0.500020183267763,0.115117677817415,0.619029107168976,-0.645179467063673,-0.306035779138487,0.0193643236933456,-0.181440941672173,-0.362825682048599,-0.753255989818538,0.0675910132836498,1125173
-1.77978312813069,-0.472203251817337,-4.37975383060101,0.0772839520146215,-1.49928676488006,-0.44453378640029,-0.539526436288995,0.224450024327435,3.26910433100794,0.249674595915771,-0.965048935844033,-0.710192384003602,3.79682216728053,-2.61265813981993,-1.00766845522694,1.70719188785795,-0.816499396764758,-0.690211013113033,1.23291214959566,1154608
0.947046439148062,0.512255643198397,0.225254016957139,0.523047789250008,0.496349408206397,-0.646981911861203,0.168382084357926,-0.391711904440555,-0.0523184438175573,-0.544505169244708,0.552948841980084,-1.03152119467877,0.442268538888971,0.520264847291657,-0.723405155127862,-0.235712371283341,-0.175294139582201,-1.15328215750479,-0.358250243680168,1181124
0.498026448452127,0.506177227649935,-1.52753035340048,0.475032972799964,0.73766878555337,-0.69938874962218,-0.501319788670121,-0.138314694974875,1.05031878138302,0.214288651711993,-0.673423424224536,-0.0724836767494295,-0.205303844165369,-0.605298534383589,0.155281512116343,-0.583077847809137,-0.723828947055748,0.284720591827782,-1.78550777163796,1183075
-0.040555282256636,0.885648114442777,-1.36569034276551,-0.885529609575055,-1.51984415380409,0.25467788755792,0.0644769706906562,0.266271896050985,1.11072421547418,-0.310189819654954,-0.494014083962359,-0.138170290796197,-1.04681833850477,0.272234935695688,0.448800485332084,3.39908074466539,-0.859789570490853,0.419360460667577,-0.476279082646333,1232870
0.326442447809471,0.714335481417378,-0.51039539556383,-0.183487092619605,0.937323810412924,-0.48105608363735,-0.573402222643577,0.0795986283026947,-0.212341916644339,-0.221316393815229,-0.508350460946244,-0.142934158570378,-1.54604289853151,0.68030580910128,0.423137910402576,-0.257056950634345,-0.0990612541295759,-0.593363459351285,1.16264121585662,1279943
-1.12719639939352,-1.48133400742435,-0.31861455885052,1.40374835095507,0.395887863629569,-0.492375589345024,-0.571318282453179,0.859600490919675,-0.64565257205598,0.600640693853815,-1.08737929370373,0.548298883070779,0.180425924442102,-0.878979977918514,0.805515834327288,0.739039481952021,-0.675677540481017,-0.789113547892479,0.0472615657617744,1329352
-1.34905215456648,-1.06866605295259,0.567625761355837,-0.899220554282026,0.27205378944956,-0.263366746156585,-0.140678467080503,-0.196790515931682,0.55909255992782,-0.649934319340565,1.41676372843759,-0.75649503730895,1.80660697154485,-0.694036290799752,-0.807866221710931,0.359084569541067,0.0774284247431289,-0.16037690245341,-0.0212029743027845,1330263
-2.0016901349136,-0.180199441281054,-8.54767580971111,1.60818794258985,-2.46890102649026,0.171461599389012,-0.519703863246945,1.2783874082311,3.42173213291431,0.0741237404802413,-0.922619228028842,-1.22656277900344,2.26245372211984,-1.11972143734422,-0.614742157463855,-1.2613043462587,-0.815864005046783,0.379152136646951,0.9405272954922,1364384
0.619699225547716,0.475938388643323,0.193827050275993,0.465337925474711,1.17045664081961,-0.762677607446854,-0.488753958512639,0.275461332945453,-0.0158980721823874,0.135731771239749,-0.820395838851987,1.6695954783993,1.45758558288711,-1.40346850560733,-0.46025484615349,3.58152077204145,-0.822956633877142,-0.463630193280754,1.26550379503471,1386095
-1.23162889338185,-1.32559025059151,0.557763956638781,-0.922216357288492,0.782977892980805,-1.04992903460565,-0.749365780494178,0.34476877072057,-0.454194816883001,0.0429695562314196,-0.721242632759801,0.88107220342009,-0.280292837026956,-0.694910513818943,-0.309906496010902,-0.585812458197907,-0.0832125605090006,-0.542694176279525,0.252425925764601,1458656
1.6065714486148,0.388489437145123,0.319823031994796,-0.806430194698689,0.884897028780324,1.12955665728,-0.209916625584682,-0.726634952050287,0.385551612896157,-0.587914195322511,0.741809478458136,0.274389936307221,0.499700981465016,-0.596826865794131,-0.330753189610946,-0.565216246135267,2.04560218065193,-0.330395267520011,-1.53114364956483,1485662
0.282152634392141,0.473403687051222,0.697466080369803,0.351096042837162,0.669430395626949,0.000233717373565945,-0.107249934113878,-0.0543910044000536,-0.477603695212819,-0.391526596778276,-0.0691777635373634,-0.807967286159248,1.27546884003329,-0.0268165028725591,-0.584332465235007,-0.917276416852897,-0.36351516109179,0.161728315361943,-0.0106790245270358,1497807
0.642043114724185,-0.925144582582686,0.294000638011466,-0.218862932923156,0.728354479245295,0.349135661222931,-0.393476922183434,-0.252315658404425,0.148783855993283,-0.60095498274046,0.836526890327953,-0.505404552266479,-0.827546970870878,-0.0626327385269033,0.109216944726511,-0.412725884577037,1.62025247705639,-0.539041499742758,0.774678850352174,1501387
-0.559060039216753,0.634975165692865,-4.06770706560628,1.83131674102932,-2.04145584826529,-0.623105377767613,-0.725469520222783,0.530134223515311,0.414855087220767,-0.314052054417962,-0.527891378944703,1.50040304802177,-1.88009379637393,1.09085461709633,1.26052231682391,-0.397157889477384,-0.354710787474766,-1.34759703701698,1.51025856153956,1518948
0.497182512383408,0.977405226754402,0.08142084295617,0.699935783277277,-0.900406863846331,-0.846763748778013,-0.553754166611871,0.995256698999904,-0.602769455477662,0.577302091084784,-0.992285910381658,-0.470501442939994,0.115456492145166,-0.197192928219573,0.0162666663209212,-0.713436030913527,-0.835782838388472,-0.158445749685152,-0.568120046772342,1526417
0.533346297044829,-0.546957377097786,-0.387032406346965,-0.826048415408879,0.28859852592642,-0.428614828305101,-0.771478157449942,0.786345585218458,0.653035327292006,0.740757265138768,-0.978698290656773,0.323066477552079,-0.819254780537887,0.557122513371895,0.0136319980155016,0.208784122201304,-0.293084121626212,0.46745000193826,-0.747823338058003,1565177
-0.474379824368576,-0.116222276945842,-0.102466273824213,-0.330455600367917,0.499280478873052,3.47279408278028,1.89038103207779,-0.825777138526248,-0.179153215967555,-0.635572143500163,1.46447216582671,-0.378461587703008,1.12911327098819,0.233406342262808,-0.772124281962196,-0.476329072608111,1.85926183351024,-0.56388545564112,-1.76621536546349,1606693
-0.0118805872187325,1.02028395814209,0.478891250203597,-1.49475588575648,1.0704010945231,1.09449771460163,0.297885769997839,-0.47584669397532,-0.931002164463848,-0.685385971274852,1.88574227643188,-1.77306715810604,-1.07455122715525,1.01341018692198,-0.533338245500505,-0.267133555760459,1.40217923617366,-0.687780773827226,0.398397953931661,1612262
0.560164658066285,-0.393299153522492,0.240715487303982,0.855138737721147,0.0566645474246893,-0.165901513693766,-0.379904812247072,0.218704749453934,-0.283574195098876,-0.251244259175889,-0.187384800467144,-0.21458462067307,0.212721942465464,0.452475143486436,-0.47144305169681,-0.760555497251942,0.158230192761211,-1.22526590705796,-0.251863430542826,1614566
-0.697454558639788,-0.282340675286234,0.726790017896045,-0.0180434789268988,0.747322630341755,0.41662772868522,1.71777888831728,-0.937391007927531,-0.222249386767454,-0.6821581924833,1.79511229783234,-0.505454284355576,0.41789105333982,0.449587586225672,-0.83598418333817,-0.986665411227846,0.627835338533376,-0.596356667090253,-0.477118907718166,1644034
-0.925870237246028,-0.0195010082018193,-0.766831410110605,0.0265067463450054,0.127815049378056,-0.773330305390342,-0.726158174466501,0.290462640507492,0.40379509197631,0.0706236014092861,-0.616973459195,1.30429263331603,-1.08184669813234,0.116896700113842,0.675994779359569,-0.990837211682625,-0.391005162605386,-0.432714612372505,-0.763628387628227,1668599
-0.330403089081099,0.142675247894299,-2.51386224320527,0.326151966517678,0.113232749019279,-1.11731983555527,-0.84919269627885,1.5018029120944,0.631916509502206,0.580741298991074,-0.965140478280296,-0.722135665922362,-1.17740493230741,1.05332342321116,0.0286412617964565,0.925395109087162,-0.852771067426566,-0.634148745430105,1.05659316120534,1671370
1.71468162878226,0.786238958578971,1.43990757605139,-1.49330181168514,-0.541418138805165,-0.888672350241219,-0.657529194589594,1.3909239670371,0.065344896185031,1.03062532228567,-1.22209742357964,0.241533003820064,-0.107450507524663,-0.958567216218653,2.3859680809576,-1.06500547531716,-0.909839698169371,-0.219128051322456,1.05601649007459,1684230
2.42442289358085,1.25092321043765,0.12371696531957,0.122572665684659,1.00026239421599,0.267752107240478,-0.146661360526959,-0.864107350711854,1.17262527329386,-0.662739519815128,1.46195826984696,0.142754370436315,-0.318456770711925,-0.110298955089263,-0.378191224480474,-0.902328197016795,0.368106274213936,0.176484596399403,-0.363981092058304,1692385
-0.849335205294719,0.128706404202277,0.342230807640283,-0.066242548463555,-0.0154797724291715,0.0550348663418552,0.0635288625501297,0.283217196311624,0.32344003690343,-0.460354235563369,0.51499654456218,-0.247412518835807,0.138519218259176,0.212148724954181,-0.559949155364665,0.186102898133402,0.153346307471083,1.85335164490933,-0.342174819845308,1720713
1.47093682366307,-0.323814196669891,-0.118292619729433,0.229626168120104,0.653506829399228,-0.0181036449935234,0.954921868594333,0.0524815334156548,0.565944457596594,-0.294799416423656,-0.111218494792573,-0.208139704441346,-0.0119789665123167,-0.318551676459965,0.00459938181758909,-0.526639279022257,-0.511027651087268,-0.354212710784498,0.786671986790821,1738800
-0.984289282577566,-1.37883503606345,-0.0947695376221292,0.0622837994609014,1.01101754736442,-0.779911638285695,-0.301641689450587,0.846055294697415,0.506597958849472,0.698648460772456,-1.10772131100733,1.31573734558322,-0.521209224053838,-0.900492212916368,1.27304323799399,1.61312669601858,-0.814495445640813,-0.305589017323681,-0.354887959788058,1740845
-0.0162214967025699,0.178409506132095,-0.266178330911898,-0.482243860071512,-0.437724577832462,-0.274393047487078,-0.627532322854596,0.0289186909764259,-0.596865098746248,1.54799738015719,-1.22763834904704,0.224216619000386,-0.505460727959842,-0.572943726707214,0.874693605477126,0.104808551419019,-0.860611104379462,-0.249853152403783,-0.951858940702664,1742294
0.301188642516276,0.945749026133428,-1.71629614731538,-0.456230194651056,-0.0106504908575192,-0.895074583926311,-0.980369539441628,2.31590019158458,-0.496036654592625,1.05989732679978,-1.16984964418116,3.29046844609928,-0.250733216320073,-0.345786111520468,1.7205090513217,-1.3506785560421,-0.717983603782036,-0.45282912701203,-1.02749111386041,1767700
0.0893497944395825,0.376382666873266,0.556185633258027,0.574827384815781,0.390454012547601,1.86820842447022,3.60305374569705,-0.525640105641794,-0.148336615584644,-0.561137395444951,1.60899523024194,-0.833220551865067,1.02191664588308,0.71230571875698,-0.933457114760364,-0.396399167671633,1.56518503445869,1.37036428369361,-2.18945963315977,1768972
0.0394145328552414,-0.13333557039739,0.373482521891853,0.358411475409252,0.271998066362739,0.0174647334243669,-0.595084671858972,0.10938433257224,-0.506932076845699,-0.235303093753774,-0.372066606006279,-0.870296075713887,0.273887967296277,0.940598295731032,-0.76055772015476,-0.353870681069069,0.143441031701589,0.318410661811125,-0.0986072296801005,1889409
0.594829207078501,1.0409327015016,0.128520283909368,2.11066883895769,-0.296784493540004,0.426698759821554,2.52070952935389,-1.27596928001645,0.19411079957317,-0.692043915147929,2.1797358746721,-0.934461193725055,-0.62690204693941,0.395607181533412,-0.189910047064935,0.548123950218093,0.471936555901832,0.587351076162139,-1.18832513380067,1915938
-0.486494399234392,-0.19048197848281,0.403461903504708,-0.0389189914227631,0.480082721699382,-0.872738624621714,-0.0729467541066863,0.128332115837777,-0.0391995998392618,-0.434655499243332,-0.0413083337792759,0.651259559575726,0.828650718617653,-1.48490709159567,0.328620547126098,0.132327633217015,-0.711209561278413,-0.703801734740138,0.594846249635601,1916742
1.27358243545127,1.67426794809303,0.261556506229066,0.425282556316042,-1.12366122848904,-0.00607161700110526,2.15396763663603,-3.25699810282417,-0.0903766060531097,-0.700541665511627,2.20388026817957,-0.977870028924027,0.549695872145671,0.572331038942186,-0.408454384354589,-0.765529259794068,-0.304710436831332,-0.229507870461027,-0.39807164086381,1919296
2.96017490846824,1.77199758818759,0.588400885367401,-0.194819659218359,-0.213956670983809,-0.132266994847204,-0.56779123189077,-1.22167978040322,0.681684553384827,-0.64903990166724,1.38724383597231,1.92405794375746,0.748143090233165,-0.876283270095027,-0.496842553982163,-1.00723703292192,2.25247130276865,-1.02974126842442,1.39601108359209,1926770
-0.731952187154632,-1.00984643185798,0.320002490482681,-0.0226677663075426,-0.0294881798548614,1.10890105989844,0.33339108952403,0.0249560476847597,-0.19993599425435,-0.36106726385632,0.39562435119329,-0.28612878642241,0.134878429314884,1.09619438469382,-0.69149016690591,1.16507313729265,0.636498093456396,2.95982808304306,-0.758496110039886,1938156
0.370953770244652,0.60683638016702,-0.371609141029769,0.24530064961264,-0.194530750046777,0.853262107212796,0.500665092163194,0.0498027270310104,-0.129500984967929,-0.377019897948265,-0.254966595899986,0.227421624866581,0.364278059262241,-0.527971521275036,-0.00325564720029977,0.806125988204768,-0.372689271372174,-0.281527303725165,-1.29564378638109,1938561
0.107728608831464,0.350597986340161,0.487544864671162,-0.150559162906599,0.897217361325914,0.37982735242327,0.31105820899852,-0.314315333788445,1.58582960432631,-0.473618017378406,0.0344200869520713,-0.501189047380069,1.39491238955598,-0.764202463013137,-0.521223369257476,0.32588986208893,-0.259928938547171,-0.351170854326392,-1.19133684413182,1966316
0.0398414333604586,0.881056750879172,0.147692899704896,1.16580562584656,0.438325692618073,1.22428375549007,-0.115034918607445,-0.495591626580105,-0.338000986280991,-0.552982174983305,0.483660396673208,-0.893819356866549,0.363686684680217,0.98713643459111,-0.852129660883731,-1.29662199544369,1.53558588514446,-0.736982843779453,-0.203970069658947,1967281
0.894423515290486,1.12837274751485,1.40961975016248,-2.07911866689968,-1.01315178387381,1.47796489046423,0.524762375722471,-4.27436299901666,-0.327755385068452,-0.713434916750206,2.52634021727014,0.270446732538905,2.45388779851025,-0.235700438095392,-0.955888533835971,-1.43735668565919,3.57260846940637,-0.230494280889457,-1.57991407090813,1973544
0.735253043721172,1.08947544760086,-0.313745345347202,0.284901786853899,-0.247332443922707,-0.822764739453866,-0.517060512569703,-0.123011410656017,0.589164413383137,0.059230593198585,-0.801512180658833,0.798455677481382,-1.35007464982182,0.543816157206189,0.515293430083584,0.0673769505242889,-0.623439243825234,-1.1639320339425,-1.69176983159653,1975401
0.991809379189976,1.14557382889176,0.381273543901049,-0.401763539182571,0.442027341522414,0.174490322578488,-0.265974676636614,-0.736121670648715,-0.331356434545863,-0.525061247426689,0.217940598204568,0.846646321424969,0.65659432818202,-1.73417920962853,-0.210402853840121,0.145498142734765,0.178163035364364,-0.75228063395522,-1.4626946242451,1976407
-0.643122020969219,0.215987316923123,-0.300440180893852,0.951859615606184,-0.831586929456224,0.060948060128877,-0.560203138923261,0.315383102072286,-2.72685565864107,-0.296817456229403,-0.613747204799507,-0.250852985972888,0.323347817634569,0.767793712604834,-0.985573931111092,-0.527828979040025,-0.169050138191237,-0.199462572307501,0.639723305436982,1978972
-0.4752551970598,-0.377702884982456,-0.150164727581699,0.471584537733885,-0.275247235983617,-0.548547500348183,0.116806362289382,-0.0996651944029786,0.984714151491633,-0.512055095074889,0.104677112910515,0.0639867691553011,0.916911230973368,-0.974523930564113,-0.0898498617617832,-0.0913379745661307,-0.731808769905399,-0.554311157052375,1.95503998029821,1979045
-0.846939739064889,-2.37238523871722,0.408722630935696,-0.136255914752807,1.28336262149355,2.81165634563139,9.15968997398202,-2.51134342372156,-0.564461056714463,-0.724835753465165,2.63258815609388,-0.778564599091883,1.59090030598504,0.18137286900877,-0.948024485369857,-1.14477588493926,0.666257151984501,-1.24087454740441,-1.79358928287347,1979422
0.459911057257567,1.28562668755511,-1.3006615267522,-0.189953926688456,-2.04893165932467,1.16397282927869,0.721318016230135,-1.24425672163019,-0.0274620351744459,-0.24183602950011,-0.546109606940531,-1.02786201030624,1.30935883308866,-0.75373326436466,-0.602004804415905,2.82764901889486,-0.527742112062928,-0.432111295521406,-0.805856062062238,1980052
-2.05266178536875,-1.65053908012461,-0.617487248209215,-0.00729245940053003,0.605721792656262,-0.521462090234687,-0.754225083149026,0.195568678038632,-0.178579711686473,-0.530369352624391,0.166224984144444,0.645781035771026,-1.13000020161812,0.796072228958918,-0.17996218560354,0.678944376663321,1.15524032003948,-0.752278371273088,0.160935833560033,2001182
1.05662134191496,1.31116288507804,-0.0870514206236368,-1.04838032269228,2.63497849206891,-0.954820695298206,-0.956204874744327,3.27722483219945,-0.779086303714647,1.703696635683,-1.26479057432546,3.38373637865355,-2.2260918488589,1.48760649682804,2.05751974238721,-1.41464761573545,-0.817959217502714,-1.61467280878147,1.94138026190481,2002465
1.09256704739349,1.43447724533352,0.358438152327399,-0.278744253036398,-0.367053625233323,0.704260901485481,0.1563867558023,-4.40294583453452,0.0249700623297545,-0.716670807995146,2.55818261761676,0.756953437016275,0.345493126324892,-0.929307889138598,-0.319222112204049,-1.19826014709498,3.02130349036993,0.0434614641715609,-1.88815493455135,2004451
0.801086004382802,0.263753134748366,-0.462303324849519,1.04005380419677,-0.0880803161591068,0.14662625022892,-0.0453209276581151,-0.109022982776988,1.3030745202916,-0.00963186422260916,-0.64761422600823,-0.340835993276248,0.13167785175137,-0.681831198418681,-0.495101772557041,-0.45586032716748,-0.63969670052203,-0.582753453656727,1.15993013354252,2006164
0.711180764637534,0.556901578804544,0.577512101413034,-0.59363174858844,0.835311974331821,-0.195653423487793,-0.198481485593575,0.193807102090684,-0.190568423590522,-0.299519690112715,-0.113423895264553,-0.780212892861892,0.399925819143493,0.3821486165255,-0.597019338513374,-0.700077086133663,-0.153204822430662,0.0410013714567749,-1.07443348055857,2007309
-0.370166192252703,0.101926021741722,-0.461775464531638,0.606038359973448,-0.337815466791099,-0.626593477247627,0.825915473626475,-1.5782940513608,-0.128493485219897,-0.725241670575611,2.68237507890003,-1.02850966121952,-1.25141749052376,0.82941645406938,0.266117041890807,0.0279949053864288,0.18028498322295,-0.390039316815609,-1.20213069079544,2009915
-0.546574851551305,-0.148851763865249,0.495419306836836,-1.57861399693696,1.20569486975405,0.0123640865500094,-0.45141048203097,0.427003625611479,0.400186652226886,-0.179252763634267,-0.488272053831279,0.482211010477879,-0.358181072198869,-0.603550991059434,0.460542863617889,0.657871788219163,0.0944261456459038,0.558883611707648,-1.87320761168161,2010259
-0.0301582773296114,-0.98746919432693,-0.109795680933908,1.29195299565642,-1.50751474765011,0.27087739856134,0.373011578553503,0.267991749852163,-0.157456954742251,-0.573685407586821,1.09728885773798,-0.127340654022421,0.682586808278946,-0.575282649373248,-0.541413518950833,-0.336622214457668,0.368434138031204,0.97741948179216,-1.93953881466054,2010554
0.45537602821071,0.774311536698673,-0.750827708746656,0.543805577294863,0.139138052036854,1.10210508333444,0.190229292513661,0.732907415036955,-0.0283141474814501,0.154365037850198,-0.837867577100452,-0.47345799427838,0.139718400970147,0.738603314814091,-0.683283762128508,0.458254718855326,-0.0380522279220814,4.26322517292266,-1.23743914706976,2026671
-0.704459117444778,0.312454752460115,-0.501852891136616,-0.796228697674346,0.188926332934101,-0.965746627136733,-0.643267553606782,-0.00295026397028545,-0.00572152818144178,-0.0341496806204498,-0.718263606643309,1.12016678268504,-0.782495337731579,-0.222138259234915,1.93254904509633,0.117167778410086,-0.573573216190308,-0.556989372776424,-1.85256393090492,2033049
-1.3885810501338,-3.32295354738466,0.0474681382599866,-0.435967625303972,0.716264080253681,0.523345571844494,-0.263242005799836,-0.594301973103465,-0.372794526357118,-0.323895126541617,-0.279187650397688,-0.080547114942256,-0.500079131809787,0.155140893420502,-0.00311478362814137,0.224862710114971,0.112658826306558,-0.0471994923011787,0.658897680206585,2034136
0.0496329850664404,0.771491465643578,-0.419852980348092,1.01707073647692,-0.271285345787714,-0.714114574370135,0.323737987030188,-0.237243225082404,1.40106652924296,-0.594043837166673,1.06053566589301,-1.63810993077712,-0.0806248480412258,0.893071207627803,-0.581373937081269,-0.922700335565338,-0.480496550703458,0.516158155861953,-3.10167787680879,2040495
1.30914188154949,1.43051925599822,1.70074347809508,0.286173808193026,-2.12227625190964,-0.0117906168244589,-0.592065705827039,0.75111345890081,-2.42757334676212,-0.29728126564589,-0.266982174066216,-0.76199479486157,0.194911456736932,0.376491990736263,-0.175220792823272,2.02768653070419,-0.246434581530719,0.499519272761182,1.31813923767457,2047354
0.669340715509419,1.03896373084946,0.191425390981094,0.79380218775521,0.284511374257196,-0.0159713969128285,-0.292178126486871,-0.259263619759351,0.125839292418544,-0.207263069430029,-0.418692887632808,-0.307517469225278,-0.816194633055754,0.0886668709174627,0.933876623822302,0.129386941593447,-0.331833343758253,-0.71768656522436,-0.0472717436403537,2051378
-0.00997255810249589,0.706209407861966,0.509836272703411,0.18850682584152,1.11672316481554,0.615266526739728,1.14266621440447,0.464454095254679,-0.23848713033639,-0.318283024277293,-0.368624364538442,-0.935303367422246,0.689337406284548,1.41637593157019,-0.824212204416748,-0.893463187082927,-0.337493826450837,-0.136379219619906,-1.42796140697124,2055667
-0.767867770303012,-0.0719052312615034,0.616309834777254,1.52262294631199,0.687905260920246,0.802376992012485,0.711130099287774,-0.849911914033087,-0.277897002082427,-0.658280812547783,1.7258444359808,-0.405358014003731,0.31544132129098,1.22122692503906,-0.823033804501491,-0.201000943547854,1.73477205135214,1.57247914306706,-1.19945779862245,2057358
0.465841784391949,0.0738814084125931,0.218046936043287,0.355146145651447,-0.714679564041597,0.0798097626742567,-0.135795842970272,0.368259677471502,0.0708899357995881,0.529644533619559,-1.06305431740959,1.36900344298445,0.645731402393747,-2.83129150299857,1.77977544177694,1.6160576277338,-0.83108291428031,-0.00478945185049968,-1.84734250320592,2059713
-0.700606005189114,-0.0679039095274907,1.52130461848217,-1.21988773545547,1.45150156187448,1.80636369712222,0.546529189120346,-0.355907079257308,1.24663452489176,-0.400614314960245,-0.130091201489508,-2.10312886919696,0.330625094890627,2.12172292976312,-1.04611097707932,-1.35415695674593,0.375827946470651,2.58027892762176,-1.85939232813528,2069079
0.633590800010516,-0.0274438072075461,0.290614761072073,0.925291066933691,0.413603855187748,1.04922058493692,0.0827422785689564,-1.55323447786043,0.0152386776382691,-0.576272697930273,0.846149444105741,-0.536581406884613,-0.0741694674319207,1.16953424741507,-1.00552684651096,-0.555224885210669,1.75593889410514,-1.02141320425422,-0.750330222461358,2070958
1.08137693007146,0.890793351987006,0.592160750991508,-0.926260792065144,0.767425261263699,-0.0959792304541367,-0.413941831595632,-0.169279684359742,1.18771084033919,-0.0794542609295705,-0.74599544768076,0.764149002234817,-0.698297625558601,-0.650512433067887,1.52329666338108,-0.38934005665967,-0.35162072901608,0.400502841077784,-1.32723681930223,2072215
0.575248728380928,0.665151223903227,0.627189155100424,0.542138592265381,0.779180199808749,1.77341312580334,1.74427985807846,-0.39805175329361,0.0927803398192702,-0.602339347281332,1.12446768215782,-0.999792314645362,0.667227427928308,1.32117379500677,-1.06463050996832,-1.20169856139809,1.67574281254005,0.23556620814813,-2.23976124047317,2075832
0.759183985126285,-0.0932008171733904,0.624606635298204,0.533333528591643,0.882371083774885,-0.0213511227701549,-0.205594224301357,0.114753528394557,0.403378587400787,-0.330611735488281,-0.397480872898879,-0.230240722273381,0.487416598201689,-0.711113046763216,-0.177421051657126,0.0520154374607737,-0.486392464517473,-0.607592995926751,0.612868236897227,2075846
0.893108743161243,0.896504223840925,-0.00698209059931365,-1.52136780061052,0.262660719182382,-1.02341732791464,-0.928231001171935,0.751026790293634,-0.957965606762919,-0.522282102484027,0.383848621262364,2.24484399125174,-1.48697344459633,0.562036106758596,-0.162197238768327,-1.34917688863009,0.929145110940671,-0.244933110001434,0.47649261545372,2076301
1.46149885957297,0.439658615959985,0.483087143872487,0.407901770985693,0.676944353541198,0.787904250814335,0.709944298863182,-0.461530825535786,-0.197349438267058,-0.484477232031321,0.650604467183507,-0.741421795351985,0.233453093634062,1.14537158642595,-0.725042419610137,-0.530555557003852,1.01486839657797,0.371751687498903,-1.0868363852769,2078198
-0.312467211877189,-0.100757177476267,0.290274070348979,-2.18011342216795,0.321828881647411,-1.31532633584274,-0.96083775306279,2.14293437094153,0.608866878569698,6.63401512314512,-1.40839914709899,2.97620850815727,-1.27902602291309,-0.203091628440598,2.99054179938036,-1.07560928534576,-0.949040020697431,-0.292699854316281,0.131757133622152,2078899
-1.35168810148386,-0.146121344278983,-0.0763322810210985,-0.0591806472481776,-0.979899628408877,-0.386177819750088,-0.62091686009676,0.103789906644016,1.1072478594071,-0.258661827198123,-0.349602202738011,1.00802682314999,0.0724416321995385,-0.25308597482491,-0.356032483743343,-0.714761833822358,0.0303053269116848,0.0746991259475678,-0.6346133788347,2085349
-0.369495072513078,0.00409704540080731,-0.486392822809209,0.456420027623253,-1.77729545599198,-0.467256443012228,-0.477221746055402,1.09396187557932,-0.380754407071458,0.492089983645848,-0.711538542010118,-0.395663020265107,-0.0908158306040425,0.286711858677558,-0.523407945690229,0.763193378236134,-0.542240725124797,0.606715428469526,-0.497181024252277,2086044
-0.845595799680662,-0.845249065427108,-0.306679868396448,-0.84323106035732,-0.0674327269631197,0.251110096900923,1.56342497673968,-0.0192239036505732,-0.0735056957004966,-0.538053354129939,0.949677794577625,0.299431261320471,2.50347039667045,-3.18511328697209,-0.0977952933094607,0.401609916810253,-0.548673919952922,-0.491813130736213,1.29402699700371,2091555
-0.945528316117782,-1.06754934797776,-0.193864271401137,-1.17228431590765,0.516918498899529,0.76172908739077,0.944012447757157,-1.09904693701602,-0.18467689525581,-0.594478402246578,1.02819018689498,0.179009794379211,0.503881253407652,0.045385006726837,-0.743508095714536,-0.0311316189853409,0.496300561485054,-0.459046901989799,-1.62128049798803,2092954
0.383850016934045,0.72292536195948,-0.437592732279414,2.10858907862224,0.669236398961175,-0.884312312091873,-0.524739594274295,0.298324802816879,-0.071339579085678,0.651382093553752,-1.02690238120074,-0.463042341050972,-1.50552060161774,0.941631461754796,0.0872659098253499,-0.279956102855471,-0.676646998834672,-0.2888545196441,-1.00561902332609,2096627
-1.0320455677541,-0.170147818820634,-0.814907007096537,-0.542729708710519,-1.3904415648699,-1.13731508842981,-0.870640148309992,1.61500374787794,-0.843787856309955,3.25501841480839,-1.34225972526171,1.65273441059369,-1.79551467288715,0.824852034915314,1.3087060206348,-0.54828983455111,-0.947215711115499,-0.127459070878274,-0.496016344292631,2100050
1.04588840393468,0.702847542540175,0.140971618525827,0.404513518196803,0.715248533531924,-0.654555325144963,-0.341480694816734,-0.211314152436031,-0.342935631259005,-0.650511348830383,1.49020547009443,0.489529418434464,-0.661647050341657,0.835103044488438,-0.766332958842184,-0.486604907411608,0.893726461349491,-0.761875754074494,-0.907276068332016,2108003
-0.754934081263597,0.239827962869455,0.536384562250042,-0.0196308256026077,0.687078623308406,-0.2453037651493,0.0960451994937974,0.00917896300375341,-0.474377301152668,-0.3847635270879,-0.0170603012491235,-0.630908325252795,0.51603617039836,0.571040846515433,-0.75483275313486,-0.435015998033965,-0.191072202352838,-0.462305954747669,-1.1144161714163,2109902
-1.06443069370292,-1.3565633466005,-1.37446803595322,1.14788719329314,-1.51698404395727,0.165289048805735,0.46992204482191,0.449763252661788,0.15036568794202,-0.481669074822776,0.441434924859586,-0.364300948419876,0.0642609310400437,0.957213772733541,-0.7848990861395,3.38163453429476,-0.212224456708182,1.55683390464788,-0.724158578431175,2110540
1.07800787040305,0.175551210225566,0.0348597774666275,-1.43206921379188,0.536205654905079,-0.909000252182597,-0.864882618958617,0.606504866230235,-2.38259405970481,2.14190701428357,-1.32966613674178,1.99411548094143,-1.20372105134213,-0.19499548394303,1.91613281155991,-1.18323287454807,-0.74651167783901,-0.428047615744019,0.700899376415,2116787
0.0226626413624815,-1.37615775171733,0.650747287693642,0.420071414699881,-0.410840039279141,-0.372999958382422,0.0842458156506716,-0.0729222748762723,-0.36132761297489,-0.430799772111573,0.114780602490117,-0.969519915605875,0.298165326941682,1.42504429984671,-0.937427468894435,-0.633404936415621,-0.149936762173004,0.237864004853979,-0.0024818090983786,2119177
-1.53263920344988,-0.950235778556766,0.28792218274408,0.28250660750311,-2.15141523451853,-0.295451613019403,-0.0882992613914179,1.37608610110241,0.716067236168763,0.143443173469015,-0.133941572980011,0.0894085774146862,1.42954963141095,-0.402474568441235,-0.948662943357717,1.97340513684907,-0.568027616257924,2.1889833696198,-0.233550482143622,2131601
1.07277202349444,0.668970493021259,-0.289913818963847,-1.09558647683084,0.195429488245158,-0.56986136467484,-0.871562953719106,0.7804306685847,-0.0940776682211113,0.333183537536008,-1.00451622205426,1.86274191555836,-1.17637303003362,0.309550020527452,0.190770349708928,-0.68126761048609,-0.509692979793811,-0.235457682567116,-0.525331693329169,2132424
0.521651761155441,0.0249734138988879,-0.0593299913134297,0.203959402246778,0.887104366499063,-0.742351631340123,-0.39958817326037,-0.860797441430423,-0.163215231592201,-0.398918088952025,0.0285956554211354,1.27363713219224,-1.57889972045025,0.331354021193362,0.642769789906462,-0.823559361919347,0.407653709126933,-0.566538464904923,-0.58331506851044,2132982
0.764589995163186,-0.376769889664138,-0.123732455143447,0.120539043455235,0.708964716103448,-0.0219597270290295,-0.298638471042761,-0.522685728265984,0.0176379712790061,-0.318823641503835,-0.19164432086598,0.026626128515201,-0.649281372938667,0.286120197548135,-0.0120700980185529,8.77129459086295e-05,0.0199345881100196,0.174827635978423,-0.490088936031972,2133204
1.69469968206303,0.91763197149809,-0.583151091197121,-0.0348958224421764,0.610075667459116,-0.447066812128179,-0.86838007517518,1.39061137630245,-2.60911035895317,5.12454265417922,-1.4018072065681,2.81538484565036,-1.37961422906191,-0.220841086910825,3.55356099253357,-0.666464651645044,-0.832800669660938,-0.378085183884578,-0.256116022099549,2133380
0.65477298080012,-1.27810794088601,-0.160733150094803,-0.113731697758767,0.229764829550766,2.37015871929274,-0.857010822770209,0.64748125815185,-0.0273426753094818,3.40992523361309,-1.36266157839307,0.890183021483346,-1.26288420516246,-0.436384852575498,2.91248982823996,1.6016420682142,0.350626168239973,-0.45294553217026,0.434241072181516,2134220
2.01409762048296,0.609772241363312,0.863983227845268,0.308292442273075,-1.06292645714188,0.962802178820426,-0.0861870923579916,0.992225120114834,-0.448070303251126,0.148944806027546,-0.495947471641129,-0.823166185561113,1.00179565373894,-0.288524343166457,-0.806508094271186,1.01980984739705,-0.102435991343013,3.85243521105989,-0.283424359876597,2135748
-0.147476343487264,0.103042129153747,-1.85642518596484,0.143588309029888,-1.65412766821299,-0.571494517738169,-0.870915641691553,1.39268159450874,-0.604341090942607,1.21928986738983,-1.19470074840676,1.93418132968149,-1.07021967842313,0.300731237933463,1.72623805540843,0.788645943436868,-0.747540979776068,0.691024082674767,0.258178077080823,2137799
0.976351292207183,0.554341104428546,0.142534870197638,-0.1716677746498,-0.356001269980442,0.705537564877398,1.17320549867435,0.129025935372074,-0.135080919215905,-0.406218501014746,0.498835888489866,-1.13510517793339,0.114045274255078,1.52162997002938,-0.835339011418481,-0.730599423426842,0.238562148093009,-0.0567373573380971,-1.02487174755707,2138375
-0.391288769775571,-0.38924112255418,0.205868294207247,-0.349755036555333,0.251500939989053,-0.406733071148563,-0.38763428473105,0.843056487088713,-0.291226281441808,-0.0242279815509065,-0.231952872082789,-0.770458532880407,-0.0835221297656328,0.615497298524882,-0.540312797043939,-0.154833584189171,-0.0548447033208754,0.457451868351621,-1.17436979984624,2138678
-1.47417591695438,-1.75386415761664,-0.208769841041368,0.353247030557559,-2.35750230360272,-0.494067823167277,-0.455857514476585,0.635943655427987,-0.629597484986005,-0.156807827731314,-0.392995683499194,-1.04645244025525,-0.0985721506420179,0.26300245750017,-0.161403484816473,-0.569077975137989,-0.296973764225747,0.362883971190237,0.437104378011193,2139733
0.614912498130128,0.0395200036030996,-1.21309104223719,0.607676894706491,-0.229762352269793,-0.282657247052131,-0.644632971122712,0.138991228896332,-2.03211752088383,0.659358173261622,-1.18783884838759,1.31931483213885,-1.0161653016709,0.31064307688073,1.69204846165209,-0.408266233165836,-0.554281181601491,-0.363753127714809,-0.488467704869783,2141116
-2.2421431286749,-0.904479958601092,0.118018457319503,0.165196344765302,1.11937089454256,-0.522341479647842,-0.915003338383112,2.98843306872041,3.42158488523043,3.0834716715247,-1.36306353787124,0.583402962535032,-1.12662633707803,0.21533266260171,-0.292133648461863,0.753708119560907,-0.864340755706443,-0.383120394490812,1.9902762930091,2144796
-0.543460337564375,0.766276801611754,-1.01806172648928,1.20404982478918,-1.17437686443077,-0.453497488448575,-0.794022370386502,0.638681907917181,-0.359522225297761,0.0634952195070654,-0.902422705518651,0.466047946527205,-0.852521628023856,0.68157790219376,-0.260747861807411,-0.495826535787062,-0.325925074686221,-0.466451099722236,0.524557294923732,2145166
-1.4527331200106,-1.12881033540321,-0.329900815315164,1.13220738407975,-0.0567488422224731,0.396550408546891,-0.576081456783054,0.335151293493705,-1.52990712419185,1.35370084225735,-1.23040709598306,0.335134169864154,0.496023136021655,-1.41762562131495,1.06935711111893,0.110354571079209,-0.561053480557724,-0.298785830100578,-0.142390197610792,2145694
-0.708144632398255,0.31578430629246,-0.269689688590867,-0.329248423837468,-2.92164678943715,-1.16338300043786,-0.729478239766625,0.896591486128884,0.616592362166042,0.37873123085979,-0.991235641663557,0.0998734076795645,-1.03681313202188,0.121733147892271,0.571397078098309,-0.0519887892238279,-0.854335676804574,-1.15168556511024,1.10745759572334,2146138
0.592912462857213,-0.0986997910146555,0.196903080919897,0.756303647057817,0.0657317247257251,0.532261834948769,0.270436135073033,-0.138180938719355,-0.0530085322541263,0.0751537312507066,-0.629720813859748,-0.21296448412737,-0.448054404456111,-0.285001479535866,0.392032914755608,0.628929586140513,-0.753792088391882,-0.793753136761321,-0.503099422026516,2151024
-0.103644381954109,0.84051468172083,0.14876404255446,0.703604289052085,0.0309851085020584,-0.465004793994348,-0.0925085175200254,-1.00975620658665,0.0448612583308354,-0.382409104475921,-0.303248906457132,-0.386667893703007,-0.059095529797717,-0.27386299826917,-0.307643535906641,-0.349172771024916,-0.609779506359825,-0.72253687209842,0.749262834067097,215131
1.77092468844852,1.5372801343341,1.04433410110168,0.118758820766808,-0.119740331501007,-0.246467278612192,-0.547120633309546,0.86602392219741,-1.54839005505718,0.495539965528624,-0.618411054902223,-1.11214525592961,0.340403678308333,0.433733739576842,-0.624506308969359,-0.95038620951568,-0.356209779906807,0.0906986408694254,-1.2300796681896,2152442
0.945409165828756,1.52500002885946,-0.419663707724151,1.48671224383578,0.198757492146175,0.652251780997482,-0.212364101162665,-0.626445642989026,-0.1115736448175,-0.551217615643187,0.157280138000088,0.476414553219844,-0.406516355643754,-0.297631008316517,-0.719160176372893,0.161172285486795,0.864759249680774,-0.261955811587399,1.66134592041985,2157529
0.374312299638591,1.09778903225948,0.678125222241882,-0.731909040590313,0.0634518742071402,-0.774558273638714,-0.590391628863308,0.176438101231601,-1.37591295859765,-0.360773136899436,-0.388256554849832,0.308798236850027,0.945137856866435,-0.472395297047346,-0.657869918955122,-0.390016150096174,-0.511924484505981,-0.290073250612295,0.912228400930127,2158101
-2.00968820925369,-2.63686345578586,-0.279808062864822,0.467512862895003,-0.0941942090467721,-0.907865364955712,-0.271295383933924,0.0830259739571149,-0.258120285577999,-0.585566122149268,0.870431474114616,-0.565235594109345,-0.0856016424647268,0.75137897103262,-0.601634611998862,-0.572893208063202,0.235352391135856,1.60824059051526,0.0528863768262352,2158329
0.492687994320989,1.25106629520799,-1.97361438259263,0.757362507876653,0.275131548564898,1.51604389330498,0.605095591297022,-0.663134773676246,0.488270746593021,-0.464645404089291,-0.0934873088161341,0.270374400827672,0.451167573629818,-1.38832919338319,0.22970055270752,0.894469996508843,-0.341835119119614,-0.517432063127181,0.19038305792759,2168082
-0.634524445731623,0.414995593760223,0.319445888766351,0.265757767713384,-0.251738457837088,0.97511409794647,0.364847404491087,-1.31503520064349,-0.757673199715726,-0.690511085126105,1.90835267164812,0.119039910657998,0.280444477910479,0.496203065254056,-0.996310200460571,-0.893374098927611,2.24960353467129,-0.761330961024281,-1.00766118144982,2172217
1.87111035434032,0.584356949161065,-0.0641949987584376,2.58884228288264,1.00789113349964,0.582704452563937,0.496345039096463,-0.488700254126766,0.730880164924407,-0.353685028179952,-0.217366454878316,-2.04524362858409,-0.996245975775897,1.38438135008435,-0.620821062186216,0.24210390277947,0.0469047750497049,0.316145886749917,0.766118291534118,2176530
0.799763937243079,1.66244433980194,-0.0561985809017798,-1.93769662105219,-0.921583477827994,0.289171707991118,-0.200097064110698,-1.47562602093456,-0.241498814335711,-0.596695750994198,1.52022265664841,-0.157064377957211,1.82128444987255,-2.5996871558039,0.0798447992362432,1.37912134411226,0.265465942837484,-0.606458303907558,0.826146629427607,2176784
-0.298266395678243,0.644524427405027,-0.488055617861019,-0.877979703844751,-3.39723049200247,0.0164365066196969,0.948802294995222,0.770057983783205,0.122229702296589,-0.277329750020827,0.579375883310216,-0.256991868460859,1.63049505608197,0.327255617215848,-0.784881851803754,0.153556002534232,-0.193505857577881,-1.77490538435805,0.301480386282396,2181724
-0.698628997910653,-0.365854840690294,0.0356995871091519,0.0535878515124969,-1.03234841678816,-0.152461270544708,0.119715729075336,0.247410980917405,-0.0715763815280557,-0.38694126376635,0.109673189155582,-0.257139121430312,0.849255468249406,0.661344794914744,-0.337233462180452,0.668414514651598,-0.325904607467991,0.437814207467389,-0.771395068887971,2183291
-1.46357959428963,-0.270742216557821,0.32851415048229,-0.0714568430540558,0.136292532333548,-0.972174406468421,-0.21333669177042,0.342319305480253,-0.328261496692132,-0.205213037015065,-0.396326172820486,0.0665512233699103,1.45636523468692,-1.7465089180876,0.155549007840876,-0.369239116831013,-0.556000612463667,-0.0237703300181611,-0.0536851214466284,2183356
0.594777211961644,0.843883616902731,-0.347033142325577,-0.758607402073623,1.23413747435626,0.701179519477718,0.39286826917579,-0.736045470403774,0.08881301870016,-0.595471189368403,1.04016551573549,-0.193763451337234,0.899577933360607,0.592406943555726,-0.507070511769858,-1.05054445798667,1.15153463886716,-0.486492481803351,-0.594430846129193,2185290
0.700701207541361,0.531421742049124,-0.205503836763805,0.500364439430742,-1.28925645438266,0.0328723794602808,0.735802339540062,0.628907640532855,0.170218817070279,-0.180853798900593,0.378823734964911,-0.815133633542178,0.63666547441149,-0.124707960677042,-0.835035869871105,1.73640894060624,0.0633415330451882,0.86385477984577,-0.564803829737945,2186951
-0.127209014057478,-1.2071542495553,0.281497428675852,-0.58739282803962,0.455645090202982,-0.598326347285353,-0.49894021973874,0.0386388590642695,0.998115154835292,-0.322907667203969,-0.462376002706446,-0.435017665761347,-0.336529717602822,0.079820561279452,0.0555200120050816,-0.257054633645112,-0.509335514545772,-0.123563785687724,0.57112181791329,2196212
-1.31227964952173,-0.684435424573519,0.259282430702898,0.399169026478968,0.811416012502439,0.195620152864539,0.879600668649134,0.537876010459403,-0.0867257419591583,-0.338457298982616,1.0567489815277,-1.98309526553058,-0.204648799012466,1.74205557690276,-0.983423532700888,-0.585609939447545,0.359095439030124,3.98254617183494,-1.44685717272703,2199403
-2.39389663691186,-0.480256328340481,-1.17378753036122,0.432367734826606,-0.268465498029607,-0.788054186945145,-0.754834335907321,1.09884849122132,-3.58845317061524,2.67382917382531,-1.28576069734608,1.3807983054302,0.117240352325051,-1.59560857186011,5.52457732083499,-1.54322638925874,-0.94638218258541,-0.639832480668676,0.934357558851783,2200416
-0.696969473467385,0.0074058939244319,-0.313594628257768,0.81902703655637,0.185004567578676,-0.408688031365678,0.193620667480397,0.0713191435375737,-0.650731954814173,-0.448512966254383,-0.147251699009326,0.0392485712268525,-0.670595916173267,0.68977141508411,0.184720516790474,-0.0793042433815694,-0.747422780868998,-0.305997673305702,0.832100472426564,2200813
0.0967393869274883,-0.0893525795629725,0.35203863460903,-0.278654603991443,0.612394587221735,0.217876800105153,-0.424239689258402,0.155919884528252,-1.29065431860507,0.356315001637772,-0.900317638108775,-0.319132028881494,0.271880633507669,-0.00527721316499223,-0.409273713003964,-0.732732715592694,-0.41157342418679,-0.946626216281006,0.144066770855243,2205389
-0.327974359353684,0.00955740485531746,-0.295979656056304,0.0521670619247087,0.0344826038846502,-0.219093192096102,-0.431817599962516,0.369720486653241,1.06876761938972,-0.0161572510926157,-0.778638582025141,-0.223253221174127,-0.702799637238575,0.208278211078067,-0.0465014544559055,1.71055469582858,-0.761866084407173,0.0375853753635388,-0.10201945911613,2212664
-0.819013213000494,0.753876603021779,0.128514675831621,1.03110906802079,0.626791474593552,-0.0730192742907063,0.526721306013284,0.558919549422406,0.154683907542651,-0.206266698102908,-0.581401569726262,0.261311301843838,-0.173970801682963,-0.86850167345068,1.04413941483209,1.4813289456946,-0.760229780144231,-0.706699558009711,1.81964226515549,2217034
0.59600648082854,1.15168689707525,1.2265426501116,-0.215008563362273,-0.439818648379013,-0.273460034446491,-0.50678963353326,0.479332663627701,0.427520026443889,-0.465128452520482,0.339012360984932,-0.755731574411727,0.1433529633512,1.30670302739257,-0.712344442535808,-0.85044182185537,0.117743674479507,0.148751444802562,-0.0375839192665199,2218615
-0.407642704940069,-0.162289294532762,-2.17192582584163,-1.88977958456742,-0.0276624632562193,4.82659051707568,1.38605823906866,-0.521430732498084,-1.10101652249461,-0.593019407167819,0.855930224460148,1.04731800598837,1.37431802700118,-1.43450025777058,-0.0520113330236712,0.448103441207517,0.514647351978755,-0.636975145578704,0.374507037062951,2219842
0.798378778614085,-0.751099515997896,0.509266001297573,1.12608468088439,1.0593733858659,0.526712379378286,1.48381238426972,-0.680696475894916,-0.0137129047012712,-0.592985823318141,1.26050375771153,-1.12378519592675,0.822931694501225,1.58310736687461,-0.928550557746929,-0.217442096358595,0.273599797087938,1.37086631835852,-0.811141338903399,2224150
0.93878230183111,1.14788882008765,0.440515875194654,0.592105538851073,-0.0917738398775397,2.50730051889776,0.97598916407025,-1.47762658003051,-0.351621257600883,-0.707576971913957,2.34909679164635,-1.17709090721045,-0.379810659531152,0.225899006223414,-0.761222198942691,1.39866611422345,1.12556627069733,-1.09029296043408,0.838248011047461,2228399
1.32053877146635,1.40549303179218,0.486167030069842,1.50502234077717,1.29362734365945,0.0330816383184835,0.445780987074044,-0.296994876088984,-0.997863593774491,-0.124699464680641,-0.185792607358135,-1.26873998562107,-0.768289476228584,1.02550950424914,-0.468104593370515,-0.308551985782335,-0.365328351946045,-1.55079850767165,-0.14888359569711,2228400
0.397288091869932,0.650972906216635,0.709946156384713,-2.89278264850108,0.554653212690427,-1.36350178792322,-0.954253498061864,2.27180412823635,-1.27348141803336,4.52271038075947,-1.37934544657626,2.25080745274691,-1.5170279538808,0.25179895298303,1.02633831180596,1.09497400871137,-0.937254529145873,-0.567693837178404,0.915235993886683,2234271
-1.24035367508968,-0.798891411349611,1.23691338788414,-1.16146682822523,1.66957724934101,-1.29455351954258,-0.891675236985934,1.99287860511088,-0.000925938840501276,1.68841991248312,-1.25276992120958,0.942079977056925,-0.749821390847842,-0.364380558533983,0.641928429114344,-0.929981577135346,-0.858675963610897,-0.773634645558352,1.03684283137013,2234422
0.135155869662634,-0.254481904310293,0.224710734425455,-1.18399549791403,-0.00972431853425929,1.32253703569297,0.662717268018237,-2.27139165147194,-0.195510720288852,-0.678969477388873,2.13429212617766,0.484877550319416,1.39533326875954,-1.15564047227512,-0.619039685194117,0.00360685415124272,1.73300796434268,0.0212033983415903,0.802867888586462,2237571
-0.417084805223878,-1.08198434930286,0.274742499030305,1.13720878532822,-0.511983366817994,-1.10953416393162,-0.320408189108427,-0.103653767121817,-0.492964497600971,-0.467602404059071,0.161972618263169,-1.19206129290633,-0.319166609296734,1.17173582428962,-0.877057897866186,-0.220516204064988,-0.298674736779805,-0.239525307244973,0.101921980961858,2244172
1.07698051802676,1.19796011319553,0.211163721619291,1.64164632472649,-0.377587060705834,-1.18125647544879,0.112830943702744,0.821760426776014,-0.315274923767465,0.363770876059609,-0.830907680193981,1.93453176513678,-0.0023625158303385,-1.57544526205081,0.691154156031958,3.23951177044575,-0.992333736260601,-0.663526181644048,1.08988141868707,2247869
0.00511366324624502,0.753928282790796,0.0629148874027459,0.449022558990761,-0.737424846778037,0.0516870854993119,-0.036607309447193,-0.436364613636226,-0.482969695029929,-0.628624829864297,1.19368405857224,-1.01507402595343,0.0167247935052866,0.523313156263278,-0.42420002952871,-0.841730186090773,0.399397671141019,-0.572288426109187,1.13305376206468,2250648
0.650178251652974,0.52827338324136,0.433488953778406,-1.27512227162413,0.786577517350715,-1.00841637378587,-0.598514591446933,0.0956751254165271,0.0498969617926499,-0.129842706605488,-0.733743795736161,1.49508392498957,0.970874291639199,-2.07511306883237,1.13814973921504,-0.754904636528145,-0.691214186941421,-0.533405529143936,0.194050862948576,2250836
0.287502806860767,0.653821962674855,-0.840711875836909,0.517607140010015,-0.538530888468915,-0.622689980217695,-0.419755442308514,0.286407632218544,0.14273542381739,0.898639863508231,-1.01605287619822,0.626018391814267,-0.504896520593599,-0.290492996984496,0.177300586239585,0.578175906007628,-0.571249297221614,-0.512476659304952,0.087696213070698,2267382
0.713355439203871,0.457036873594675,0.34038364703256,-0.841688899281572,-0.716361351858522,-0.67515424230118,-0.512012954323542,1.57975536078032,-0.379402423040257,1.73777576834189,-0.665437857250491,0.188018933992161,0.680306365078743,-1.21589117922644,-0.18097952438003,0.835761060325263,-0.582421160196405,1.17273882253279,-0.719295899370228,2269346
-1.15816819171594,-1.0197467097641,0.067200159810719,-1.48858293195961,0.597244768482137,-1.23360951325411,-0.863283959519865,1.33355360002412,0.557717829894314,2.10582755700998,-1.29726938623595,0.539578724790175,-1.21888214144875,0.375226002655845,0.229945149321825,-0.727637969973821,-0.913484116855693,-0.609881112327817,1.01730272632731,2271329
0.549404935136304,-0.29564728668704,0.0473230292482983,-0.406852887437427,0.165780538524339,2.48170972593982,2.32093299653321,-0.100893965636471,-0.271901208164739,-0.622837593704973,1.38250844587763,0.511356149198226,1.9118018532302,-2.23315737553408,-0.216129885237247,1.77932164643407,-0.116405009338278,0.459000434985066,0.110171648162445,2274521
1.18364654837574,0.609965181687357,0.720578370782182,-0.0857480629956939,1.26222663147807,1.1214287972953,0.152672082252023,-1.10694963084895,-0.254444923778118,-0.550370824498719,0.982436684119929,-0.716866049039342,0.55313089358947,0.692765437393242,-0.978786098418096,-0.127468481963266,1.838095070065,-0.292359330331982,-0.467498512812229,2276121
-2.68510695009715,-0.411414243780642,1.4667099816209,0.718033595068024,2.21295855956987,-0.471716275110424,0.444275546899606,0.391909468997949,0.849210655632505,-0.582883344574802,0.887278512877494,-2.07497654308107,-0.197589578618418,2.9557944244447,-1.08703038596814,-0.0979087551004773,-0.502394051531979,-0.0748637283291671,0.16022442283768,2278618
0.0627469826023023,0.43350941230006,0.282222272724575,-0.556257093214689,0.234544803461907,-0.773411717233537,-0.490024862288111,0.605839364395863,0.00739020876050162,0.162145047851076,-0.931033452055975,-0.276677512789762,0.391016208122385,0.0261343515880287,-0.543356539650527,-0.356241407551301,-0.667340042195338,0.0783156734501931,0.946845973682942,2285214
0.407260216489955,-2.22698463218435,-0.265543917116836,-0.062308180795257,-0.127560831934722,-0.65304267057887,0.0885432649066463,-0.823940226160734,-0.437027493875076,-0.431000796499956,-0.0114331645504521,0.121464305947451,-0.0538147193058702,-0.526710960238862,0.216093279241717,-0.145798702860551,-0.529938120575367,-0.352073600692038,0.404169797039393,2286108
-0.573307878100435,-1.4265319541212,-1.14890694293443,1.7152421367279,0.221640250833918,-0.737889717437814,1.37721829547652,-0.317546039875708,-0.095231849181702,-0.568736998728505,1.19950478437932,-1.16067531909841,-0.394333071716872,2.00998336582851,-0.855765898730321,-0.024881844758325,-0.274178382563125,0.213044431061836,-1.40111081383865,2293123
-0.0842581847308578,0.440261437854265,0.0662944552546743,0.332466683076208,1.08098901455484,0.67744871082704,0.00514955451013399,-1.38722846957607,0.0355005201826416,-0.667202357472216,1.66557303455453,-0.692796116649388,-0.743887146955885,0.280760411678309,-0.164061624422724,0.912184544516953,2.75513299647351,0.271031335435807,0.420452581406058,2294852
-1.36244586984862,0.12093435656221,-0.200056991252607,0.103069409311712,-0.378894440413184,-0.278925219705741,-0.638857220304979,0.173722127223264,-0.626353713328692,-0.607563815465669,0.913218264364523,1.18016754414054,-0.619766589306564,1.71881913751887,-0.566333795510666,0.675434646941541,0.935222301511848,0.805134359170759,1.45402668170492,2294873
1.05151022927119,-2.22135663395886,0.420724267817866,2.23213883668608,0.736296742862775,3.15844415289827,2.61590546554444,-1.36633948363597,-0.0851521194871149,-0.684747264951343,2.03881716218309,-1.55026056404854,-0.645270125806898,2.49352709819339,-0.901145046422754,-0.236955934259157,3.12209788688932,2.72169174405775,-1.73277345233589,2296332
0.0246746007087301,-0.079036318844331,0.0284343223886819,-1.15452129190843,0.673015287243865,0.226136223265548,-0.0428440592855866,-0.0577229288756028,-0.31389475560927,-0.102345767887558,-0.661402375464891,-0.68801812946244,-0.918211965239575,-0.00368619973562386,1.1723727989102,0.259393272481051,-0.590949458121468,-0.276580417452154,0.863506612344652,2305114
0.802971843864825,1.05091411216456,0.61741707962731,0.329847704054667,0.00157264108606697,-0.61508011366206,-0.499403696169887,0.387462773570382,-0.530292970697093,-0.126347357400678,-0.610452852505799,-0.55625287759147,-0.09316105235928,0.289245489380676,-0.473380917704873,0.193880143053637,-0.512323357010861,-0.498267773072169,0.594639068120083,2305115
0.327230890570275,0.780059167883707,1.22058687154491,0.86665571067597,-1.75322336564318,-0.744385400015251,-0.34587305733972,0.188360068747617,-0.683642195619072,-0.181034356001691,-0.703044740625354,-0.325916063905123,-0.436653645055875,-0.808587552602735,0.529045265757238,-0.786981178048605,-0.644189600780792,-0.685012129715774,1.26872119507899,2306459
-0.634492278226385,-0.480856192651335,-0.140255955213516,-1.61349082096031,-1.40355932080002,-1.06182823834833,-0.791345120482147,0.292002055736748,-0.104113657614716,-0.377404542958304,-0.294593217241557,-0.246427890921426,-1.41812725208417,0.615082826307736,-0.137181991258981,5.29585053702902,-0.620779549650619,0.37378231265321,1.0535443945029,2306893
-0.0890738527163246,0.446623010153074,0.264315680480299,-0.616232708009895,0.415648850964399,-0.234803115390301,-0.426593402801758,-0.210409337150279,-0.0695349408936822,0.0100599082169831,-0.601809906128646,0.313226758167123,-0.658330102822699,-0.336017673016318,0.6328018325333,0.224165675674438,-0.32580113989014,1.03941563237369,0.385240972942705,2317120
-1.61367010193134,-1.09832459520783,0.322587463818916,-0.0694417101716621,0.535388348547256,0.0612303788598093,0.0239462576905398,-1.19968771951628,-0.0713578804668422,-0.632339783944719,1.21602005645423,-0.0610415465018776,-0.0581022469078787,-0.135902075491724,0.109845235606573,-0.295518336267479,0.492002146477381,-0.364664137653089,-1.01854495396134,2319068
-0.198259213832942,0.285839916130023,0.260364789707955,-0.3631645367327,1.17304286139786,-1.14615821092098,-0.497351258088962,0.309445102714302,-0.904096240791292,0.254308690886886,-0.912891698354836,-0.0488465845239864,-1.01683905553094,0.107887442343025,-0.0310528755560522,-0.585786708758277,-0.829760908557272,-0.419198692385051,1.28725916695026,2321962
-0.227412851533743,0.718292664013482,0.0315510115962475,-1.61231842353804,-0.344322184494124,-0.523801933422288,-0.187667637999139,-0.440952279977176,0.400660466270283,-0.106652152989131,-0.583621096105156,1.0601827933347,-0.430805480188388,-0.641980626368705,0.922008977398613,0.350411494427465,-0.389020672722978,-0.235900102351046,-0.571747871489355,2331869
-0.100077158902714,1.22048304672132,0.562707477172239,-2.25782116450956,0.255274471087543,2.6801205258941,0.636269553253808,-0.697618865934224,-0.434037501369906,-0.537209108644441,0.590889442184893,0.884852355618443,1.7411708566429,-1.59618174694181,-0.479347440566269,-1.01677960345726,0.898315506555115,-0.674478208368335,0.802274210908497,2336735
-0.40199154776579,-1.04565316707185,0.446697378890631,0.0539390378547854,0.137026698111146,-0.729087571362766,-0.506628836992263,-0.096341932183807,0.228372449223007,-0.370490398525572,-0.173498294014373,-0.478842116066671,-0.16644905832318,0.615895015274244,-0.589216503052854,-0.121632135804227,-0.192730173027815,-0.162736268700287,0.221133162827931,2339674
1.02923837883991,0.5362194506874,0.1957961865747,-0.176954009765145,0.602516099711355,1.07879902390128,1.96773699913857,-0.520673932829464,-0.229570658215957,-0.574823618561181,0.711900870471594,-0.63105862766138,0.653133501341605,0.764439362121401,-0.771897192646022,-0.55400188749363,-0.0113785522733564,-0.213620170386457,0.401650202479699,2340155
-0.446289312440536,-0.953100820757883,1.5398242437251,0.669297033788698,-0.365470663415448,-0.742599203103984,0.304844764683842,1.03075140663279,-0.0584057664284241,-0.16767555295272,0.517025860274126,-0.187017614268882,1.33811809238067,-0.507536065943255,-0.862344915202711,-0.395802110486143,-0.320486130600358,0.649054483358915,-0.448785880717477,2340322
-0.320626953867911,0.547292512454508,-0.20962717592685,0.158909445757978,0.0797999349243271,-0.894022807162612,-0.510893570403471,0.827092071461688,-0.177949638707707,1.39468263724422,-1.21022445823757,1.39563974266551,-0.591013507381559,-0.729004604342113,4.61586057374233,-0.0316560299283133,-0.909441364822786,-0.193813037272535,0.965431444542219,2350037
-1.23957667486284,-0.639631621344843,-0.0739102924443691,0.677132788021777,-0.36606729749559,-0.379193496407795,-0.436113429369392,0.0124476405203322,0.752222956759883,-0.20690235811672,-0.698879080349276,-0.856280910769924,-0.937220551824943,0.506560515068945,-0.312029246022001,0.273166821130066,-0.514871703416181,0.175798277910398,1.21210216268885,2352038
-0.866130722444108,0.979288889617039,0.516564914484522,-4.66975445491641,-1.18717300362185,1.50976119980047,-0.489145252983295,-0.265564359664037,0.888231849617332,-0.603962717012899,0.797762043187967,-0.759500384388211,-1.62572232121714,1.13341789923944,-0.159817860280342,-0.393784283082408,5.95354605035383,-1.37871231300518,0.931543661517166,2359944
0.921753575191422,0.0966623187546752,0.0157621697109574,-0.449063887338471,0.680529311807705,0.138312753700735,-0.234360231719767,-0.340733575010876,0.261002033990282,-0.562110097025978,0.598882213502591,-0.375861931127412,-1.24660409385272,0.297888440391092,0.095637951833194,-0.068676163435196,1.13279993153425,-0.190262852476407,0.581610680496894,2381907
-0.315626994903982,-0.187534078982892,1.2249226166526,-0.563602820057257,-0.979463123374364,-0.44030550732587,0.397125695344585,-0.0720790807703265,0.0675211047043201,-0.535168107086783,0.950685015627256,-0.971711172106527,0.773608274462002,0.42039003985723,-0.937154189209458,-0.186036607411861,0.189622628828396,3.85534875583657,-0.174907909323545,2393207
1.2948323093773,-0.254123011948792,-0.278374497990896,0.769994453835524,-0.928121129961243,-0.35292033317466,-0.326860779946733,0.0341718296095141,-0.228860473119881,-0.338075460645424,-0.157513051282081,-0.31909241427811,-0.620947458017166,0.530534761887703,-0.319492058693728,0.36152690845198,-0.359980848807394,1.73970634257928,0.718908534176097,2395415
-0.191962690336822,0.324034634419258,0.533829381826835,-0.912572135645509,0.253305086901509,-0.497731282936966,-0.19990922925365,-0.544590663702853,0.107677977824875,-0.631276403666971,1.2149582730065,-1.08530012989729,-0.670485033947367,0.0624104326653048,-0.222470390384047,0.713927964236022,0.496986764770501,-0.25812644511595,0.645225251656843,2395943
-0.493768673179932,-0.498761093663463,0.331255799490565,0.0314945438507696,0.879464958291259,-0.459184273669054,-0.289452539549974,-0.0926745896269065,0.0112942245306706,-0.397860430810226,-0.136429528707836,-0.784080387790438,-0.465113080688907,-0.00133835082525636,0.138073610812076,-0.378250297403027,-0.243993895565564,-0.330317692020016,0.814653903181685,2401405
-0.610571630414412,-1.0709332538312,0.629164600486596,-0.211191780721109,0.0437018581213843,-0.837449912679459,-0.456583729229929,-0.243522830395025,-0.209297277086507,-0.252601590222817,-0.580963359570011,0.0717723391535432,0.144380020810873,-0.366150512722202,-0.4492813498849,0.0175833780614662,-0.494937833619985,-0.845245170645278,0.488702838975735,2405144
-0.472570163251261,-0.043687323184922,0.763009087011496,0.437206196702965,0.770604660876262,-0.0300435784101783,-0.439842980347409,0.442963767578536,0.728678247322054,0.0612780822245296,-0.57247393306559,-0.137604202028922,0.604197968957303,0.164235258205186,-0.439704147417473,0.393274886644031,-0.211321651501133,0.795452738189137,-0.233697156154321,2414406
-0.193633598537647,1.10656246716797,-0.0767605979589803,-0.425459185355506,-0.813169279965625,-0.805881234848214,-0.0345612094334867,-0.0172411038370741,-1.030560597344,-0.24862998905931,-0.485720623656602,-1.06909914805522,-0.846287471166051,0.59999609425032,-0.187929733634488,-0.250030607526579,-0.789736417714729,-0.988035839710108,1.027487917617,2419459
0.805861587554845,0.0490230067787362,-0.169903058219896,0.0166279434944505,0.670853660539453,-0.944079103854719,-0.575333379088265,0.3229447135906,0.728644224182976,0.839424818483855,-1.1576576817418,2.78746080422993,0.0338439856349591,-1.65334826922751,2.81827944106524,-0.509559062110289,-0.892318056346069,-0.508928855283797,0.536117271621264,2425694
-0.305473517949968,-0.317337405714035,0.195266223227665,-0.473395125065779,0.449179745688829,-0.098772233183839,0.0103857149116383,-0.547350964287906,0.262243878566649,-0.468185446005299,0.0472322707181559,-0.523713911190201,-0.643805602469433,0.144036701530632,-0.147015700205626,0.0304297926040085,-0.045972393787556,0.101671177394435,0.369031764269771,2426863
-0.806290978847373,-0.391502930105295,0.350068797300605,-0.108050413547515,-0.864000777361375,-0.551519862870685,-0.688255057973087,0.570055965513236,7.11123898314779,0.536412770024602,-1.04533091075093,0.657607224843138,0.232439824407341,-1.22711747087541,0.870117754480664,-0.813006471964132,-0.724582723966818,0.356802419208511,1.22335572317608,2430773
0.257916986227222,1.33406672100001,0.171747347178671,-0.241119293566546,-2.15139637738283,-0.537276324378402,-0.730074309099036,0.0108628821721174,0.871217351857071,-0.196924632972199,-0.642472888022646,0.302165288721374,-0.905725190342541,-0.166659455275304,-0.0395268139085987,0.804087186426347,-0.470389783299398,-0.238494937254121,1.24294607212329,2439458
-0.493013443093954,-1.91002038450637,-0.314301947063533,0.997609540979701,-1.46240227014576,-0.816977058289018,-0.466323479921496,-0.0548312719249295,-0.145407238234321,-0.243682329392114,-0.440334771597836,-0.506374498853883,-0.579935138662597,0.480934075912046,-0.00448693423650956,0.490635696608421,-0.655287516382639,0.000541251674698709,1.05388703167517,2443354
-0.0292097166592532,0.136483855434604,-0.0020750225712077,0.989214792156056,-0.521116357455934,-0.260892243919707,0.081178497379957,-0.157503414569249,-0.234337640755149,-0.490869883327846,0.404970501114524,-0.189665849664968,-0.548874111775316,0.320644619864664,-0.147870504986264,0.100623079538723,-0.150630859676279,1.99854356203558,0.604865194467273,2445526
0.705607110000562,-0.221639636804929,0.65181282246546,0.741127065716393,0.769304759497674,-0.273617042056645,0.56882600508521,-0.60924652703795,0.00204313780048053,-0.468421046384183,0.29420080187701,-0.917360683242821,0.211362880212517,1.21580159074505,-0.928969329291864,-0.983962346085378,-0.314184325608371,-0.225709167776661,0.138836869718691,2448298
-1.07938515100957,-1.80472481596983,-0.109850359691935,0.707461583158475,0.937626785005522,-0.40516656171865,-0.599889060657178,0.601944885102645,-0.0442085309949162,0.290773151929914,-0.999481794583474,1.11088125494206,0.121288209547564,-0.81094450276613,1.09786778011627,0.128245502951727,-0.681641659155821,-0.670385337947374,0.857249575428543,2453577
-0.673214662020841,-0.505280381616423,-0.575702862940174,1.51935288891262,-0.0903769809783153,-0.610051771844878,-0.472560314489825,-0.907632112064021,-0.778052920584683,-0.112921116546482,-0.775480359186765,-0.706849877702578,-1.25743132786273,0.783322380201139,-0.37702437018158,-0.401058738990239,-0.493198126779285,0.300776630005624,1.02354263735202,2474709
1.21330940311375,-0.0968109581590088,0.211129372143095,0.110375143627911,-1.55914908080852,-1.02405529519451,-0.462961972333198,0.316242089121966,-0.460216877640131,-0.445257670760157,-0.0674994572986608,-0.516874482295834,-0.984489358012465,0.293944836121076,-0.587538942023918,-0.394217595307962,-0.530661271171426,0.157272868521969,0.91957284244223,2480056
0.577231526598128,-2.60011221054484,-0.0752730553367459,-0.239449773378606,0.0825105525565604,0.0902991903890617,-0.368915459054766,0.795975716418816,0.320429721150225,1.07563767850169,-0.967600468924335,0.332102558671202,-0.90023936652269,-0.357772321581161,1.47193272715872,1.19136932407702,-0.476040210296921,2.68402052191426,0.407075589401055,2480330
0.339406942868972,-0.481514413708625,0.307992090979033,1.39039373795853,-0.183696748237702,0.842367844870333,-0.033219852913408,-0.288846447818306,-0.471222596217021,-0.30092137879787,-0.276780214543848,-0.8927069213111,-0.848624389318027,1.36232195700737,-0.587934134832874,0.419930057712375,0.0207548558336955,0.885231693635878,0.542987319974274,2487135
1.25975340006199,0.466057872122139,-0.143871062330794,1.40229138213416,0.884424420680979,-0.654179844112816,0.72966542135789,-0.260415711716274,-0.170891458328383,-0.545098174552293,0.591197031812782,0.0770175755048245,0.414620598975293,-0.199597118729523,0.10027092468803,-0.0492126569876777,-0.500649729511652,-1.25201682900514,0.766650089249066,2488660
1.37162472631182,-1.00490783003102,0.573836707459983,0.763416801018922,0.327220035690821,-0.220946322567242,-0.659673578182885,0.46054952901453,1.69250009336595,0.485682963155019,-1.1072557210998,0.0500110167170964,-0.0573156713822179,-0.125468684794703,0.441448824284111,-0.923678862783049,-0.481735155396821,-0.54096273298703,0.954158192263485,2490180
-2.05921764316387,-1.5443649474806,0.451876438689438,-0.371408005052879,-0.307971373401381,-0.359246201977764,-0.340650833798004,-0.11580923280125,0.128139200844616,-0.537211772732171,0.265713431583026,0.103906514178199,0.102664777579572,-0.382447048342356,0.132102618487453,-0.272751565168633,-0.253009051510742,0.0720226717376871,0.742865269366126,2493534
-1.25123197239437,-3.66706392350761,1.05139887704272,1.82987277126715,-4.46938052561127,0.183050256209167,-0.278307852560653,0.442778143919444,2.26389821664329,-0.0923353021616032,-0.738358638973172,-1.29690656515417,0.118076057383056,1.07962810546109,-0.69927940959429,-1.25472396627765,-0.613245546725252,2.48889275118342,1.2101699802371,2498991
-1.35966155567184,-1.50778876299653,0.269104277866012,-0.0415688111252339,-0.614468022178724,-1.15740174020431,-0.124332077474944,0.327273403802922,0.382472274791133,-0.471981627800251,0.511846929529467,0.150299135839763,-0.525561094089985,-0.169015636228204,-0.266093870005854,-0.269763990916385,-0.50454699176867,1.88490818531911,1.0232534663773,2500377
0.381846871349885,1.17621527723018,1.33058511048237,-0.972176166861814,2.75208226960896,0.166031948522683,-0.664775676575233,0.468225092064845,0.587473853800398,-0.229649558870888,-0.709177229155007,-0.916641960767807,-0.603475178248571,-0.0257276011179003,-0.220509551275562,1.43288632117153,-0.160853987774958,-0.991945016601865,1.2930362612024,2504802
-3.29998836288584,-1.55040950594314,-0.176885816023891,-1.10541705023953,0.0980179899025498,0.122541088462933,-0.401932061524391,0.323576862277405,0.354128036857941,0.0452484419297238,-0.839591230544972,0.740595760260635,0.856389607400001,-1.53329376572681,1.05607389176381,1.2042194630581,-0.555165932232244,-0.021932683650824,1.06367558254618,2510402
-0.328757323158754,-0.849672886781736,0.0803784415050566,0.736671141472611,-0.616543623415962,-0.323261156400091,-0.104003826688931,0.021723695088051,0.0582085079035316,-0.271760166920078,-0.0688813570429199,-0.31840209821311,1.35154286142687,-1.09096777613481,-0.42802795224073,0.396224653136168,-0.477107030465054,1.13488266270689,0.133110138715144,2520618
-0.0282510620777345,-0.517338350083794,1.50832892859642,1.22510106510471,0.613069907600625,-0.441937380758871,0.279828785758888,-0.0600925765817048,-0.492944034913841,-0.496867187001237,0.514152453664534,-1.18761360146613,0.827290995572258,0.716453640555034,-0.969975450706766,-0.617438496917363,0.128989143679661,0.804636267818729,-0.357310945225163,2559453
1.6886100985038,1.5381102950631,0.825815351712942,-0.511549262741782,-0.57182708173311,2.23574838714448,0.210550568771192,-0.499126064689644,-0.316731330250624,-0.53548734059136,0.34567474250019,-0.0965836566595073,1.75075096761559,-0.535002612785474,-0.916475104965625,-0.344267819544047,0.569822258196284,0.66594137784131,-1.34526787672237,277752
0.339699822312071,1.18982869674812,0.309489447737324,-1.587183334208,0.5119947494812,2.86324030415357,0.865119668257661,-3.49778810653498,-0.110460716041548,-0.713961995489641,2.4979465210733,0.2285154287781,2.3049390648844,-1.58713436231857,-0.87922470670235,-0.371209502772775,4.26343389053244,-0.948729622977664,-1.28239908741177,308862
-1.75689911835342,-1.52028450797122,0.0715043594810862,-0.555106802270396,0.586600512372374,0.18252432655874,-0.0424800808025584,-0.403480123440858,-0.198395959174215,-0.515837323615723,0.274481144534689,0.147529673594671,1.89100651152363,-1.64161159900553,-0.234802838905761,-0.565969573391524,-0.045398334415204,-0.61920770834405,0.671684216826779,58325
0.861361670032316,-2.65887032986506,-0.97949848087583,-0.603806033868598,-0.121996411936123,-1.07938631498773,-0.568095285293854,0.794314470597252,0.492514435997598,0.263361224413508,-0.824600169201111,1.08457498939002,-0.853405404615679,-0.244553694321281,0.890764623299374,-0.707953853028897,-0.772604770925823,-0.184495484222686,0.157989464173443,92173
-0.314006893417326,-0.210098612982391,0.719855629762614,-1.95389054443907,0.0816326615065374,2.15463082343054,0.824645262816571,-1.90314599228288,0.124509984670099,-0.678840972426109,1.96953297698642,0.746204784765934,1.83670358738717,-1.83631882420049,-0.585498393906481,0.235142096426468,1.59327699947276,-0.183363897318336,0.594428664311407,923666
-0.663874938532155,0.310692098662394,-0.057042596602614,-1.46024251620613,-0.552962220270841,-1.09308206893956,-0.772565577405504,0.855258899730177,-0.895085756218807,0.326213480299317,-0.939030090400973,1.23910279001111,-1.36427001570773,0.488162986514783,0.334555747887763,0.377686883504406,-0.607167551507763,-0.605301553816344,0.895338333647726,965005
1.00723802354498,0.952087123001404,0.605846213217036,-1.72242382666722,1.5983431408795,1.19570658704537,-0.281581478863074,-0.276277261139887,1.61433458067578,-0.0379969277742595,-0.847165442866946,-0.445995403026981,3.08130201845583,-3.00964620603519,-0.446947699193208,-0.970027826424733,-0.346044530191633,-0.391834380842477,-0.774980168384617,983079
