pgsalome/predictR/output_NEW/signficant_features_results/tox/pcaFlattening15_mkm9d_gtv.csv
"mkm9d_gtv_original_shape_Elongation_250","mkm9d_gtv_original_shape_Flatness_250","mkm9d_gtv_log.sigma.3.0.mm.3D_firstorder_Skewness_250","mkm9d_gtv_wavelet.LHL_glcm_MaximumProbability_250","mkm9d_gtv_wavelet.HHL_glcm_JointEnergy_250","mkm9d_gtv_wavelet.HHH_glcm_JointEnergy_250","mkm9d_gtv_wavelet.HHH_glszm_SizeZoneNonUniformityNormalized_250","mkm9d_gtv_wavelet.LLL_glcm_ClusterShade_250","mkm9d_gtv_lbp.3D.m1_firstorder_Skewness_250","mkm9d_gtv_lbp.3D.m1_glcm_ClusterShade_250","mkm9d_gtv_lbp.3D.m2_firstorder_RootMeanSquared_250","mkm9d_gtv_lbp.3D.m2_firstorder_Skewness_250","mkm9d_gtv_lbp.3D.m2_glcm_ClusterProminence_250","mkm9d_gtv_lbp.3D.m2_glcm_ClusterShade_250","mkm9d_gtv_log.sigma.2.0.mm.3D_glcm_JointEnergy_249","mkm9d_gtv_wavelet.LHH_glszm_LargeAreaLowGrayLevelEmphasis_249","mkm9d_gtv_wavelet.HLH_glcm_ClusterShade_249","mkm9d_gtv_lbp.3D.m1_glcm_Correlation_249","mkm9d_gtv_wavelet.LHL_firstorder_Mean_248","sub"
0.69847015605371,1.10620067850787,-0.130124632340914,-0.814372075542421,-0.829307578950477,-0.846950748422047,0.516830484335808,0.0561649387592321,-0.0571848490715789,-0.601447676092366,-1.20755534420006,0.743176210872438,0.33337331429875,0.269310335127655,-0.749299822560074,-0.226330585217935,-0.120280129018107,-0.42897092349056,-0.0706225939277159,1085983
0.962137579248856,0.796438141055738,-0.258013146947394,-0.108269022395436,-0.751470698498423,0.205015374172081,-0.813763492347277,0.113011449447429,0.143424865947633,-0.307233743323593,-0.908323834708504,0.656596564582699,0.613997756641911,-0.0321424971343035,-0.182869447901643,3.30591108003081,-0.0978599100483472,-0.675284695055892,0.0722367420396544,1125173
-0.8858295034978,-1.6700560069843,1.55068753136379,-0.686558201945142,-0.727694238284529,-1.25924453155009,-0.505778013582273,-1.99675776834079,-1.48856967110224,-0.142774591439985,3.08760175650172,-2.96483402174787,0.551871061729335,-2.12361022344858,-1.11363056009534,-0.317192139619657,1.62448690161081,1.09665991873423,0.580966700732255,1154608
0.623014364482949,0.822227092376877,0.509231787831454,-0.571488992076168,-0.00728217916613266,0.341198848927112,0.607073574007763,-0.291487619985812,-1.63877129839027,-0.785026631904324,1.06403716175753,-1.55513163784186,-0.760722539767278,-0.463994756971603,-0.954275172968127,-0.0236224233722642,-0.150446279999268,0.546284933336312,0.375065969259985,1181124
1.17941388477205,-0.241603380840388,0.440119453429853,-0.554888102013214,-0.544165788038351,-0.703249103122712,-0.814165372595727,0.0773470855020034,0.506258469789759,0.685370771229339,-0.783394545366235,-0.039583746553618,0.0671391054598567,0.0186580122029487,-0.63866916432127,-0.294483704017274,-0.248588231557537,0.0912611714006252,0.312881949765145,1183075
-0.643321885140262,-0.347241854915511,0.10955010265107,-0.713701395496335,0.219563205733329,-0.319728590945024,-1.36932979939255,0.0990920583522498,-0.30008630686225,-0.787554345168506,-1.49003825381301,0.422835168752197,-0.287649972737133,0.485749864361086,-0.130210232244877,-0.281033532464089,1.77569540391702,-0.524726738888696,-0.0791463985890774,1232870
0.753640874637782,0.738301545200129,-0.684586275930997,-0.466234903706919,-0.722361355383296,-0.759285353570753,0.0499311357988434,0.297676206062019,0.0793459521109569,-0.187889906677062,-1.46902098331272,0.881067453918426,0.261869804190148,0.592657332465392,-0.346445895181296,0.0819360085086256,-0.11485344506316,-0.468556227292187,-0.324378781020953,1279943
-1.48853422497875,-1.60397004644515,0.741811623091361,-0.406174686160777,-0.615292754128087,-1.18551361725297,-0.129404593578433,0.0980045632431769,0.39480667165393,0.809800838979742,0.19631899253858,-0.64299787261872,0.330437713068081,-0.923774712243723,0.1756818756135,-0.298541122408036,-0.187254074460058,-0.698041977804584,0.823013341022807,1329352
-0.447657071602672,-1.37603671622577,-0.400731974857472,-0.714545246680354,-0.233687841719091,1.57817115502541,3.38402313925143,0.0951764681502005,0.0126437071124307,0.00160513422414139,1.95974484209385,-1.12458760988438,-1.15561951101357,-0.135372739164613,-0.565694415203559,-0.205026605097277,-0.124541671250788,-0.118511381709346,-0.189189629731981,1330263
0.655066831636685,-0.578075999521888,-0.119376196205459,3.06602812309936,1.85756645460593,0.14157268798049,-1.03299951954318,0.0824824254687239,-0.762574776431426,1.42978890149712,0.945251123840424,-1.21969364146044,-2.3513580254713,1.69451928982352,4.08093149682585,-0.316606486020445,-0.0790953063066584,-2.76864410080149,-0.234371385592888,1364384
0.363635750342831,-0.943475186393943,1.08321581683138,0.465776409646372,-0.456993590619629,-0.799469668761555,1.11706317128498,0.0833538414108965,1.77452459634539,2.84676496291716,1.26211616218083,-0.262069287618796,0.508889468935753,-0.596474346024108,-0.820936794551299,-0.313289306898729,-0.00134068327876245,-0.675859323037648,0.984192783658325,1386095
-0.362001457343579,-0.982195069017342,-4.23323088878127,-0.270681877027637,-0.846890350174,-0.798164338822234,0.0705698808858221,0.243570887465053,0.700080931652219,0.534654035428927,-0.459579575236919,0.563624615542334,0.555123066218384,-0.407003464271448,-0.0536579850542288,-0.23943754120081,-0.159723730450498,-0.60108995435936,0.350983509086589,1458656
0.146635415210695,0.532727165187558,1.5869526099192,0.180391967347856,-0.242257103125635,1.16845625159471,-1.04110404861709,0.0783498127759836,-0.379452393494952,-0.668103552926793,0.270785926355504,-0.209316242815254,0.0544602625513546,-0.506907741574335,0.895369387021854,0.946804491487732,-0.12455056169471,0.0721012649613988,0.155495650548795,1485662
-0.378308628064865,-0.213830036761333,0.161498270915753,-0.621898926164976,0.16370371942658,0.416386737330368,-0.352164676889297,0.248478270976406,-1.88777827853845,-0.662947116955223,1.60900925581915,-1.94994318657024,-1.05166535306707,-0.221420206740434,-0.786200234925745,-0.245674856076756,-0.113355070124468,1.63656803350215,1.0585138892955,1497807
1.46732281128987,1.70581052643604,-0.538294140595574,0.428343564507639,-0.456090795883158,0.849548541362107,-0.98233395503337,0.0879745109578381,-0.0328979821891515,-0.119994587752249,-1.01318846252718,0.618864069332011,0.191435973950123,0.146448868166277,1.38776685879605,0.133112944339886,-0.123384046438869,-0.669526512077209,0.0627122305244646,1501387
-2.11439199153579,-1.33821568673436,0.235982944034137,-0.544477315383194,-0.63833838331023,-0.22965021375939,-0.6902388037691,0.0776383315274711,-0.593386781107082,-2.96042852595286,0.570136353839321,0.565236423454796,-0.0325028649047488,-0.202940041363989,-0.0345786010860127,-0.316919680751337,-0.18506130956919,-0.1385628515131,1.59974064526228,1518948
1.18685892917443,-0.349201686809449,1.1332260711402,-0.201500342870405,-0.61112048751082,-1.00136936645958,0.434920264356605,0.297710972667951,0.385794510314648,0.137788776063031,1.09600131516974,-0.489954282588008,-1.15220605274589,0.387137560259996,-0.734294987886035,-0.305240742216808,-0.231637999329576,-0.266355735040156,0.923355684634224,1526417
0.353180363437608,1.23937153475419,0.585127783014817,-1.02409976705011,-0.838938388655713,-1.03357763082737,-0.0210947637700891,-0.914678146230547,0.631033631795576,0.410218350280852,-0.669045161168978,0.497976934350178,0.566028466767626,0.229169711102975,-0.895848738737727,-0.315273423630193,0.110706355726886,-0.108883868849828,-4.84487879913333,1565177
0.44411516853019,-0.0479086016323747,-1.13986284417075,1.03549259409057,1.79872860407117,1.2735611776238,0.356077136837191,0.204350760518025,-0.109631759526343,0.194644122534848,1.22582539205619,-0.917986460414698,-0.811736774124522,-0.0268328157350655,0.258840948943723,0.37220372707975,-0.122693306228927,0.722711348317756,-0.229687243401225,1606693
-0.520238955852486,0.403256439431639,-0.148046049486111,1.5079189196037,0.0588855786631099,1.72031220500612,1.29534871668339,0.0947938949140507,0.623957477436409,0.298777513895132,-1.61603291183862,1.36770964174021,-0.442232985285586,1.05127059971999,3.21391457001942,6.73239430910002,-0.126644473893776,-0.46992150295969,-0.142757019748031,1612262
-0.310872187356838,0.430438044809545,-0.261340019682586,-0.80875349641849,-0.223966615276279,0.415087474223691,-0.4926686963462,0.127351182262824,-1.21301681145824,-1.15718640088937,0.214884984049501,0.159001144356652,-0.518759938212502,0.748086332440318,-0.95766401799428,-0.311595240744051,-0.169757478244273,1.2286364314041,0.335322953490568,1614566
-0.32339521099519,-0.715574095612324,3.28293334237097,5.03382895432699,2.27525831930234,1.74057260810562,4.40930133708524,0.0798706302412972,0.61999412522324,0.469711266302859,0.721092673391784,-0.549834829676393,-0.156423670852125,-0.76153912254471,2.77843307379881,1.87334580441715,-0.125952526756314,-0.429310987078071,0.482027530774876,1644034
-1.01341278083625,-0.840884954206186,0.0650553705662073,-0.326047981123202,-0.809699318796994,-0.672856054986729,-0.568809606263867,0.0626721342553455,-0.00988826985033003,-0.603292075893932,-1.12986482753541,0.606653285539168,1.01603645097105,-0.181794398065671,-0.179193975547227,-0.207139629912576,-0.113556646896889,-0.775528650371926,-0.362905088739823,1668599
-1.33231230633857,-1.05973398640578,0.925201347727905,-0.9489212173463,-0.791634090877807,-1.19149382977475,-0.933390560471579,0.0438145127778405,-1.02559325552161,-1.57971599704015,-1.17823961861855,1.21251762865023,-0.277291544650141,1.11695334255844,-0.987892443477561,-0.316516680245139,0.55187969665707,0.263957278172973,0.577962749471814,1671370
0.79617137603312,0.439891853901493,-0.740123767359041,-0.838157383770852,-0.67356301550808,-1.30273070503842,0.787063077598245,0.101408544449104,0.137635859198107,0.13996624615286,-1.09579131286969,0.501884668921195,0.307741183775331,0.30452608550248,-0.662548778948934,-0.315167001423569,0.135999838216806,-0.212988324226996,-0.053458146709674,1684230
1.21009201148683,2.13895556958249,0.100298775707483,-0.869900861882552,-0.119287883756336,1.48675175561326,2.12146701196582,0.0898971044999092,-0.374048485217791,0.0376945914450674,-0.670360619064717,0.575509635532405,-0.0888927864728089,0.662684128495538,-0.415124708052969,-0.304520123102997,-0.125276421898582,0.933430589642977,0.840282390065196,1692385
-0.328802924185343,-0.59684527512536,-0.973295022086165,0.285266444368897,-0.030709938069039,0.358544337812548,0.855684680287291,0.246065304663402,0.164879528058388,0.17226925411476,0.639519886116883,-0.875710230721981,-0.0955134005714787,-0.738170711686054,-0.227317649135239,-0.145790205175574,-0.00994400697200397,-0.457783722724305,-0.521575141973336,1720713
1.13386657406349,2.27236949683126,-0.191449164335612,0.157983183093976,0.617310576100706,-0.138885942345424,0.460295267217837,-0.0311062896655386,0.178991308093229,0.169214978556978,-0.627659409364141,-0.374570094422604,-0.0671300505291817,-0.261506896415134,-0.396166814200742,-0.00788252288833885,-0.0909568088425322,-0.249186484293662,-0.830918166644171,1738800
-1.2927661108235,-1.04667599375971,-0.693757272048634,1.50896621911285,-0.349191227504648,-1.19123245091276,0.864906531983783,0.151068853666715,0.620022207926044,0.473877508450682,-0.655638630062856,0.0891794024671551,1.06960308824717,-0.9724369440714,0.162615189381513,-0.00854510868353047,-0.141122321842501,-1.32062918777011,-0.329954373637485,1740845
-0.364968697797447,-0.38251068760625,0.603959202134174,-0.459116534887712,-0.710147575369236,-1.3075913212865,-0.443942105149754,0.0882158061552174,0.643065974447674,1.94780923203507,-0.892921002483024,0.320409880445316,0.13628692227516,0.595658317873964,-0.420203071167684,-0.314898066602449,-0.122123891643676,-0.0273164038858131,0.120208891813883,1742294
-0.278366282503119,0.308141245948789,-0.0970791606579112,-1.05248277800531,-1.03434006514828,-1.23330738050554,0.740759187682119,-0.0845189410669722,1.32442576882502,2.0071722481234,0.366522751845806,0.526507411195893,2.64549016533527,-1.00377332513259,-0.818767088327612,-0.306388043345747,-0.0530793149183776,-0.679714481711595,0.0550328641335522,1767700
0.346343764089411,0.146638646983544,0.392014662122568,-0.261253689616055,2.6447473729528,1.15100254668174,0.364348315417239,0.0674773536730634,-0.290392977036868,-0.0344623315709405,1.21459433133375,0.00900279686434158,-1.01389498867082,0.811613118029284,-0.832465540870676,-0.180427941623425,-0.129547682087313,2.59175848450588,0.323445159215486,1768972
0.344240716889966,0.00696185386081,0.806306527571546,-0.796971498898194,-0.721177140818939,-0.393774043352975,0.284406187883368,-3.27416546293912,-0.176474030818183,-0.442500206179345,0.870348789003462,-0.165812237896396,-0.375133221111906,0.547822630095767,-0.819214075307749,-0.221179317749015,-0.0948818038732144,0.633491013998891,-0.244879895928379,1889409
-0.577509722958234,0.442788700561938,0.779233837651956,-0.0661256627942208,3.41472450783106,2.19557930202513,-1.35333663708904,0.0819319837383851,0.363779943987097,-0.543377601141053,1.11602616348072,-0.5857699132249,-0.354117396192683,-0.588811596451849,-0.414167899244101,-0.16999733449974,-0.124830743213204,1.71781497176353,0.825584411934953,1915938
-1.03786059356782,-0.985615695821922,-0.458820107907603,0.695058460116214,0.0218183618427774,0.35598379766303,0.281559410989938,0.11522378950117,-0.628658028427502,-1.27451343470984,0.744406237239202,-1.66967939860639,0.257505555788782,-1.82549167052807,-0.359101332719541,-0.11542274320305,0.0148424630066331,-0.610092421961654,0.00287376178018863,1916742
1.8427269248102,1.24703259868161,1.23053198419223,-0.514519154373418,3.96090820027692,1.97762608648872,0.80893890634555,0.0724841379941961,-4.59402553559606,-1.99095075622146,0.646851461640375,-2.60442486222641,-0.8923772352016,-0.556542424073927,-0.387549475186522,-0.301606394224767,-0.113282039608596,1.40290504747589,0.378326168364489,1919296
0.771152517679206,1.73857332311571,-0.266294818448475,-0.723025135717561,-0.501601641064421,1.28194509496497,-0.312241005064979,0.094228817673293,-0.340987220654194,0.048139938811848,-0.445389446996388,0.0864473804799604,0.396807770107015,0.119231429387815,-0.0720692614676357,-0.295573705013121,-0.124435137678741,-0.539889556537791,0.231179029211054,1926770
-0.834611120491842,-0.761800223154846,-1.42236037359529,-0.360557718384726,0.288559734262744,0.488205888282813,-0.0797014121159115,-0.446381323646919,0.486453684841884,0.344016789425885,0.6543257445764,-0.165815829448904,-0.519142739372097,0.523220172431382,-0.528132188906651,-0.298246730488463,-0.0346091192691263,0.896400971756131,-0.280800518869863,1938156
0.416692437082743,1.2562956144084,-0.128229503369035,0.793169996896816,0.555453784321581,-0.0970448217670875,1.01213043595792,0.0916479281291041,0.130017352889881,-0.0350759559990475,0.714498442756139,-1.16855408073618,-0.366215737840253,-0.987971010434125,0.564173657798719,-0.0738058799627055,-0.12228801017255,-0.0508059629543453,-0.09778328134595,1938561
-0.382074986644887,-0.361338733660135,-2.76006672293247,0.513933525635182,0.315879195074226,0.114686614263924,-2.09941104980304,0.0911785633062815,-1.33308547295535,0.0106934437037399,1.72039892470352,-2.72253781872407,-0.606118971160637,-1.41159356556551,0.072956313085472,-0.295288620230182,-0.119706444312254,0.325990366880703,0.450182467701987,1966316
-0.547924233463134,-0.335140774967176,1.44733178484213,1.1105913784869,-0.126656493353133,0.861870182058248,-0.463511310572749,0.0749039879685366,-0.404140305793682,0.201217322169994,0.862446706884722,-0.571193859356261,-0.354274016601741,-0.369150863232966,1.83855386105743,-0.101701341329805,-0.124459283282797,-0.454561045884856,0.593622915799879,1967281
-1.15730347984324,-0.280617972851056,-0.270352484017693,-0.762230315486084,0.282025654019498,1.98076409135168,-1.35333663708904,0.0972910846929159,2.47315360163243,1.964118503785,1.00237444998093,0.18700909671275,-0.808378311305479,0.0234446792642382,-0.248920358609129,-0.31638356425043,-0.127780716763935,1.89260249220589,-0.641513068822926,1973544
-0.21703094704056,0.427454114694408,0.719595959357987,-0.212274385847715,-0.629523307676093,-0.782353290588224,1.66934642227086,0.0846302049624888,-0.244843528706101,-0.724046642629675,-1.25252401251902,1.08892803135291,0.570576579914651,0.713989088129878,-0.185987676853597,-0.295714472453601,-0.0981655613943416,-0.911901550980869,0.822233964850464,1975401
1.03252010456709,0.509930861525611,0.160830766758222,0.332828864079733,-0.461956651887515,0.398156642503442,-0.702854220336423,0.0967525353207455,0.790163741684159,0.622575081448837,0.396717927947086,-0.286301254992398,0.856990842779811,-1.49777799513049,1.18369934066502,0.0821768404377708,-0.122376456272925,-0.55064618329299,-0.0265358896735653,1976407
0.0351420845702384,-0.064073624996048,0.0463360673346134,-0.473095305492949,-0.582099514991384,-0.548287284029283,-1.33698672749785,0.0905071944600189,0.583217032496683,0.811127663822247,-0.394567536781405,0.7890134549623,-1.06259074944017,1.18618854675748,-0.281301426002391,-0.306439393101288,-0.127415382358862,0.0380328335501793,-0.144041087929925,1978972
-0.577341057944758,-0.345372093150059,0.103596409998818,-0.414014718206149,-0.126497678727089,-0.0806641888602505,-1.7627615920589,0.0857878791541055,-0.94473446899362,-1.72596387455963,0.498192932276154,-1.50129926350068,-0.283937943000841,-1.16355412403395,-0.674519713504172,-0.308375153984526,-0.129568134020087,-0.376252130170962,-0.788443453715561,1979045
0.0236697483678978,-0.378005160806538,-0.518518047905144,4.96416143820126,6.92395143583434,1.92702398921343,1.00085685398767,0.0834987351265332,-0.29432687026241,-0.50259271474106,1.34793893556162,-1.1188040391931,-1.20814145079633,0.225521659687526,1.30891055889876,9.81354956551987,-0.132274502351774,0.815787723965122,0.516859345127972,1979422
0.343070831821898,1.05766164775072,1.54600011595998,0.130761952988947,1.21198083640973,-0.186862570072156,-1.0674159040729,0.0795004749257321,-3.55985498385307,-1.0849655392788,-0.219080642675472,-2.3779787600277,-1.73996996340274,0.104829178946213,-0.035430014806408,-0.313558284058303,-0.104089591408539,0.244289156667684,1.17380543475021,1980052
-2.19121090030807,-1.43450092633157,-0.174791884739972,-0.324534301336983,-0.831376057571229,0.219475732212331,-1.2795218936702,0.0129341096505414,1.13857558897396,1.04950112356873,-0.659751905682959,1.26445371585511,1.25418945020543,0.825559762630606,0.0520869163985934,-0.272129114399332,-0.133230432117721,-0.697766469756684,-0.910217477950887,2001182
-1.22181136349908,-0.453477607326258,0.678715362203088,-0.330369334683524,-0.704535637142709,-1.17585811257478,-1.23420299833231,0.0857628894838773,2.41088451106095,4.05241647951683,-1.84017730805526,2.41289970094316,0.819779204314832,2.01292425882713,0.0605011928846434,-0.316938203922433,-0.296054754163216,-0.931357950644758,0.419248849458395,2002465
0.372198135177628,0.442172552647169,1.59218871769331,-0.974127312431637,0.125540627875897,1.89957627400576,-1.35333663708904,0.0912885253198483,-0.963185305686868,0.213099699117081,-0.214466996786473,0.708071046270986,0.114723167909881,0.633158036164974,-0.601808463639845,-0.291894879423114,-0.124634847105975,1.00335584779447,-0.320549062989241,2004451
0.647199389606937,0.772404288106745,0.0794325246654474,0.0503589858965394,-0.149698163620051,-0.739096491675406,0.222529778966088,0.100048888121375,0.134721913831605,0.449518572731807,0.696907371428428,-1.42193748500371,-0.205019180209768,-1.48187833598454,0.134726203609773,-0.300233611239182,-0.101074782761134,-0.613633308546785,-0.5098807646852,2006164
0.514079988310174,0.746043146170833,0.803007718148868,-0.55987059195578,-0.259230324075458,0.0494955547141126,0.523621935922792,0.0432383694570908,-0.391472688715254,-0.364861898032367,0.147782605246467,-0.431567061075451,-0.54171493742383,0.104920818933008,-0.615339250231022,-0.0759535042649362,-0.12257899791641,0.348904202045358,0.474331190985127,2007309
0.885186056919769,0.486699643587093,0.410971133096021,0.284346669519602,0.887049322500121,1.9986461018696,-2.23589808338887,0.0991618897755786,0.385922194685697,0.655030227845161,-2.03686148161896,0.658911847536768,-0.813162654216172,1.05141895246034,-0.179321710392272,0.415602878391427,-0.117858196377612,-0.122119922637088,-0.111518192049882,2009915
-0.450471195547387,-0.234061239857471,0.023418863684365,-0.450686524284239,-0.600217285533373,-0.587807916702503,0.573066598632071,0.098914557959284,-0.573476556057585,-1.08352433820082,-0.470251387160157,0.167174717226475,0.58680668796551,-0.347921513749854,-0.0588255035291251,-0.24941975247564,-0.156358311881006,-0.425126498822686,0.163006880482454,2010259
0.585254796088233,0.43034206122469,0.138229520686644,-0.558439693951009,0.233679817516728,0.978099848384017,-0.37186749577445,0.0864782012096608,-1.90536305985946,-0.713333858831283,1.08953594362166,-1.29069052734333,-0.541745855950907,-0.431542890026411,-1.01128317358129,-0.302725899326284,0.0661236022231429,2.12063582506023,-1.16134568743064,2010554
0.678192645633134,0.478817889294204,-0.605387281549487,0.0628108964923027,0.210536743869414,-0.829747028840989,0.649592511669381,0.165061724475165,-1.60069211976721,-0.724737817000663,1.06260376831792,-0.854963431159042,-1.02323271538374,0.48939155524811,-0.680188935006354,-0.268910793504271,-0.266641622782866,1.6741485797955,0.721923153776004,2026671
-1.58854706210476,-1.03515676602848,0.187380997343957,-0.665392347708335,-0.771991574436609,-0.718447544381506,0.585830858614735,0.083765741056901,-0.828923610197457,-1.48273506259693,-1.64718141041251,0.535643482541075,0.583187913375965,0.143632461102998,-0.672181726947492,-0.249641431768754,-0.061849391332067,-0.559325105260292,-0.248216594494276,2033049
1.0466531711338,0.776569667685776,0.49356689168849,5.6463159823711,1.56402059534196,0.193264179507752,0.546824095975624,7.72197268294439,-0.551887045203877,0.337481989576427,-1.6346026815088,1.21477745315986,-1.51782373083513,2.4552185539992,3.27039715125246,-0.237533800041555,-0.00496983932303179,0.41207656340597,-0.587721148273945,2034136
-0.00270695504409918,0.153303632369458,0.640377008575963,-0.969183329126354,0.392104739873401,1.18700588174494,-1.19285524909976,-0.293088155525032,-1.00990623379599,-0.571370377714094,0.520327044793942,-0.125460920062007,-1.0237860041539,0.697074973897389,-1.1031571185474,-0.26086591565376,0.134438580764036,2.71643194618968,-1.69784240149767,2040495
0.302764231776339,-0.0731567912313076,-1.01554235889237,0.141590648824426,-0.1064195092496,0.535548621829963,1.0684119715577,0.0917754221636528,-0.634963931428149,0.298958843671935,0.572441060534355,-0.368076629290354,-1.59531546205169,0.562975822483737,0.814970982875654,-0.308033560229373,-0.123694885741884,-0.144333460301136,0.335875351052733,2047354
0.788102502295654,0.454618051219092,0.468645681358208,0.300319134249127,-0.368507480294529,-0.362781575136606,0.681090756700847,0.0885409402439742,-0.431002120741714,-1.17446364926164,-0.641972254864283,0.0398317581363508,0.47679365368996,-0.510921776526398,0.891856721218123,-0.0352460837350878,-0.104798869698256,-0.52796906259117,0.137555315248932,2051378
-0.198209299264224,0.0714198307559272,0.859588996721374,1.25384300512944,1.54409865335812,-0.0372472268005015,0.0551509198050605,0.0839485962296692,-0.484708737717132,-0.228555459143249,1.23077215639587,-1.4758466947076,-1.16612084379376,0.269354839922918,0.05813389461186,0.112936136364491,-0.112801963120146,0.413648506736539,0.563438237975683,2055667
-1.58528290215196,-0.57374190885243,-0.144850711823286,0.102305605811916,1.10505591254207,1.84247454618534,1.71580432942236,0.0806069443599716,0.0814117316778692,-0.27969776270276,0.727277510908196,0.432132051163908,-0.86517265262853,0.912631663696056,0.0200138608290702,1.55103838642284,-0.140101774494408,1.01835183991119,0.37352021875672,2057358
0.510499569468789,0.539081283123891,-0.114089571115051,1.66413457131259,-0.280771005603133,-1.18627552796767,0.530275668019708,0.0923531447366394,0.447114336021192,0.225480430608831,0.1858695974442,-0.742367725415262,1.64199921277522,-2.41745234474138,1.29270755181688,-0.192213375444123,1.53620158613293,-1.32612548144669,-0.00580497581173231,2059713
-0.874997442682632,0.0647948177149462,-1.09770214032576,-0.302935591357014,0.73537045595967,-0.104081173433264,-1.67642706539728,0.254714111887487,0.997546656988889,0.706666946473441,-0.0282233713568357,1.38785274088504,-1.75601020480669,1.94478146235863,-0.381802319406951,-0.187383742171724,-0.2695926683016,2.53341922451214,1.40703703086979,2069079
-0.234723487803068,0.520089656951165,-0.82231278423634,-0.146057608432725,0.23405576782953,1.24163058913755,-1.16123364459382,0.249629248186029,0.376099194850784,0.346279323198325,0.372133884317609,0.771763271256776,-0.910324062777805,1.37895472527031,0.0573532396185583,-0.123191948883112,-0.12276074895936,0.975787817339532,0.343997341106822,2070958
0.637006286057911,1.21540810717446,-0.0281412615350867,-0.48330314389375,-0.394601423290004,-0.798095370263157,0.160878978671682,0.0980610868468912,-1.10873709820726,-1.83448692312842,-1.19867090577557,0.46531776405902,1.10715243731664,-0.116014104343757,0.283379617600709,-0.197315273667239,-0.0637826680952635,-0.416294988906969,0.101283127081668,2072215
0.0814454885282906,0.570864953549801,0.145585801899075,0.909231682827765,1.78111326690359,1.07537453189797,0.132853443838128,0.111691525839673,0.672958101075992,0.560824812522214,1.38510430462718,0.0608805941086092,-1.50390539272397,0.906326026094731,-0.126716742295716,0.0772115726788023,-0.126833234429896,1.8281156572212,0.37338635635243,2075832
0.518945383196301,0.737617989760641,0.11608455825258,0.063003522755034,-0.326892110433134,-0.339119058392795,0.363002262424102,0.0929206006736907,0.0602754773558819,-0.256443243553258,-0.162416861428852,-0.191298899614611,0.104119789609195,-0.254416249950526,0.198123836407263,0.0259312163253226,-0.128869585837434,-0.504420736257847,0.418167103106917,2075846
1.43976150825143,0.471198225516391,0.786020075416723,-0.926299075243903,-0.998315386090204,0.54536799516327,-0.815818529677863,0.0972735398910232,0.208654130916271,0.0481564989761579,-1.64843861109239,1.79590045454622,1.47285191268088,1.28464979146666,-0.0166245846984509,-0.190880871545394,-0.122098802495661,-0.95689598140636,-0.0684917109950833,2076301
0.93375773319947,1.51168731831603,-0.833535307882192,-0.513379530761038,0.485730050418803,0.577660007916988,-0.177366777910054,0.252768622382372,-1.12133503400076,-0.565790376076116,0.149766258907612,0.0963375946625394,-0.753012820559823,0.918962473369733,-0.736715516967796,-0.2249277583781,-0.101059338150261,1.74257604624201,-0.504362055057155,2078198
1.08052341945232,0.282082302169222,-0.127478021361703,-0.833925841734001,-1.00908941498843,-1.5584593833676,0.372652770016226,0.113136847258615,0.677954264580605,0.530911332221256,-1.46103038536858,1.41439293835351,2.04538156743855,0.559259781495967,-0.47035728521851,-0.301383981462333,-0.655975963876796,-0.983571152147322,0.0247625733725265,2078899
-1.47592074322733,-1.5128820344396,-0.275687027428701,-0.0846708483929522,-0.640158378950765,-0.467582787661371,-0.67450590323146,0.119796474281454,-0.135411262829985,-0.068680644005903,1.2905568714667,-1.24673160136603,0.116035046334837,-1.81237787380268,-0.439421420003734,-0.297464025053449,-0.12675977750158,0.34243510553939,0.0922937439886733,2085349
-0.963367336552622,-0.865925462163489,-0.479182176718684,-0.601337640305487,-0.701511813092908,-0.921849490096855,0.680515661223528,0.141132592403099,0.645644076330836,0.71805860414117,-0.249489309180096,0.464960700828473,-0.590171683764302,0.861971171039544,-0.670203454902182,-0.311122596947313,0.41786502022142,0.596340946003005,-2.56660718300928,2086044
-0.277441920443354,-0.639969979047102,0.985532403176574,-0.535098667537463,1.71469324480432,1.23910493341184,1.97735602942544,0.136228979394239,-0.25492239650715,-0.480317026939725,2.3087252189231,-2.55357322630871,0.0858844597763592,-2.14336669506586,-0.748476473369306,-0.305110351950415,-0.142035498351539,0.983254676276834,0.136196134123604,2091555
-1.2288434823846,-1.30091134352397,-0.864362833459696,-0.593597767869546,1.27501722127971,0.805052744866832,0.501266722400636,0.0879889486681883,-0.206040975540109,-0.25238513651592,0.244372840294175,-0.134210812755335,-0.211415171937516,-0.0944704971490084,-0.353946961477022,-0.253504522808546,-0.122336457439424,0.686702684081577,0.254302041349863,2092954
0.811028516226543,0.341945804417394,0.0847809354795252,-0.0354312431925669,-0.719896249458923,-1.27668212143941,0.567092488135816,0.106357023815697,0.512110581197982,-0.0377529414859032,-0.833902827641137,0.677823976147668,0.820505928459671,-0.137431674690687,0.00668528057627195,-0.214164333167174,-0.11985809790303,-0.908618480172334,0.0505362492854997,2096627
-1.61723324137741,-1.54680000823308,-0.241043464975909,-0.606439973856715,-0.907101364369943,-1.49827552723746,-1.14369150569505,0.100625138042877,2.15158991976517,2.6925249511377,-1.9415033531592,1.93481654610913,1.41676902703801,1.34081570200389,-0.618945041643426,-0.316907322936468,0.0109249672133345,-0.921616645510374,-0.39091267956179,2100050
0.65107443659903,0.347760754540267,-0.5356780345199,0.310147743265445,-0.367313879693903,1.5596067149781,-0.447126208643374,0.0988969521570286,1.30258196095906,1.43260469327914,-0.942390707155206,1.22754044995328,0.0142823390936722,0.89050007809412,0.522244682403238,2.30632910589635,-0.141936570819103,-0.318472738673871,0.255530606133763,2108003
-0.579137527617302,-0.647003672373744,0.429080601239408,-0.0487819205189271,0.204719843611411,0.3337562767681,0.23151305099654,0.118422611911016,-1.15590079305834,-0.364140465249002,1.26562621629227,-0.956915770736223,-0.890439804293743,0.0179848156262389,-0.591324430296832,0.269393023153551,-0.13349599694212,0.660361511483649,0.348464097746339,2109902
-1.00870233100653,-1.1419123702386,0.483885571834267,-0.0175828294109301,0.360673576560914,0.425026266179352,-0.00947445149479931,-0.932879929263253,-0.900837053187622,-0.126900056091861,0.395717758464377,-0.428874325796074,-1.19637568514563,0.753895831681246,-0.857345718967856,-0.288117309037011,-0.159972793199206,1.22844492943313,-1.54918344059555,2110540
-0.282689237492029,0.898159705694384,0.792345171720802,-0.746300910379511,-0.957906032090596,-1.50551867692935,-0.946565552966056,0.116499034526831,0.230653333229785,-0.278145498356434,-1.10392335058164,1.23821608840701,2.12762755548101,0.151644186003331,1.19456696397469,-0.27882057177564,-0.124584963135593,-1.07571878934873,0.458613561764579,2116787
0.596201423943628,0.13822047208558,0.66488720533057,0.0454505042353647,0.17849830802739,0.172307220712683,-0.41499473598548,-1.18258115891186,-0.743610217874853,-0.387270338137222,0.423869790030645,-0.300112908095591,-0.979116201117908,0.892310685853138,-0.52299320810749,-0.315547638127057,-0.84955764214129,0.315714965913052,0.574874219646703,2119177
-1.91942972262445,-1.55187043980609,0.548086399808002,-0.707513081303129,-0.421595713366549,-0.442636685584803,-0.521428943407832,-3.6436844302407,-0.444222882899418,0.105366422118204,0.990843754029039,-0.644100453125147,-1.24654941500738,0.549645113380123,-1.12176034154693,-0.31738012713524,-3.78911336392226,2.29935535190911,-1.06341861807081,2131601
0.175738352897081,0.106031187669125,0.622303510797105,-0.767560382531751,-0.920661252426568,-1.06978193740725,-1.46839232147513,0.080739135232613,0.607303277260336,0.449677666168451,-0.845645432027069,1.27919015561168,1.58112579086553,0.397580691720247,0.0192410975466251,-0.300658738974861,-0.140302752532133,-0.749454741512977,0.693932781072372,2132424
0.392679323655687,0.511034793104355,-1.71226050252909,0.884500192170623,-0.614545340447701,0.0480131969009761,0.34938799875194,0.12490386434072,0.387477820352395,0.0868693952932836,-1.49976573437331,1.37338119026151,1.30359633460776,0.5745673353683,1.45126092016995,1.23241872783965,-0.128174391591856,-0.868458250062197,-0.0534785045144454,2132982
0.759244580460027,0.573837795299104,-0.0333831963093751,0.307794706520285,-0.471620946399224,-0.169435521304374,0.00208949903501209,0.086292115053766,-0.317332260321479,-0.905268723423926,-0.622766020852357,0.325576881868682,0.345583101474802,0.00712820364402202,0.656851889124875,-0.200667606712999,-0.132479517072914,-0.480825348724404,0.136988677985924,2133204
1.62063023517723,1.82316197968891,0.0265535742042674,-0.782562533094211,-0.971214892583135,-1.59650530454739,0.0431169478996659,0.0865301915885496,0.847310327243955,1.24245900886172,-1.00619739556249,1.41971367316769,3.89874890495644,0.202989896776568,0.255767691373053,-0.316375311025458,-0.114651743459697,-1.09212342495769,0.0553886144709292,2133380
0.461584670197623,1.5677657101161,-0.438656103274298,-0.608238908575941,-0.924856493541524,-1.53897790942482,-0.445622879938444,0.110112696974029,0.376852948917848,-0.158474627799349,-0.392003770183137,0.614649391294306,3.34993980931967,-1.3936745912822,0.342051268616632,-0.308923176340454,-0.00682649512087964,-0.651824598432551,-1.06685725801842,2134220
1.66246866076595,2.15395465938949,-1.40630764567377,-0.63409478699477,-0.0985505512938201,-0.430716342570756,0.277960136749697,0.0199107288760586,-0.0858290764441218,-0.204837897510645,1.07534772441541,-0.86566792329511,-0.67531195368907,-0.360265828020575,-0.632210666609447,-0.294974270564073,0.866319558333355,0.133268097152982,-0.21691367862806,2135748
1.03170229872514,-0.216163063505936,-2.95551950234586,-0.501072919590105,-0.91781157272534,-1.32275539235544,-1.1489931289114,0.12980091352603,0.492351896932142,0.309528021753983,-0.938952460065541,1.00449350676867,2.27845534473342,-0.029256087412391,0.800464345792643,-0.31027758725902,-0.0792236214968727,-1.08335658296181,0.533511808314929,2137799
1.23099825543478,0.936222166486533,-0.373922949111595,-0.128796046778765,1.07508394629583,0.298204113916443,0.712585645775867,0.193149338738264,-0.716869573202829,0.034591775903351,0.305273921488676,0.584628899899903,-1.33830566277299,1.64488976580951,-0.402310258862824,0.0291421242942681,-0.0730544223155218,1.22555651577326,0.32912910141248,2138375
0.404945351629495,-0.309558549851542,-0.141939369060958,-0.698773043133508,-0.402330659950777,-0.121347043080012,-0.0710634590595574,0.142909743359321,-1.08866811896918,-0.66955670219714,0.09926124737257,-0.046704582098698,-0.746964686491742,0.65067338739021,-0.719377203267516,-0.223947580270483,0.523700665811961,0.612915017765839,0.319992134254513,2138678
0.711154850993972,-1.71187627432904,0.015503656049785,-0.269770012629518,-0.395089325087218,-0.330812226903465,-1.29108704358947,0.274328851841717,-1.09708481024396,-2.35891057582652,-0.0729823672628214,-0.742367755845116,-0.712345330605971,-0.369202805969962,-0.887163561364855,-0.314033876362891,-0.24622912378028,0.0682823791049629,1.67688887999507,2139733
0.828222250128241,0.338523578532022,0.123162575586617,-0.343178372973306,-0.724737011669824,-1.32168837294378,0.229817051278128,0.0767446911501281,0.331739710594542,-0.213885067555314,-0.877784808586667,0.441706336925609,0.20334569889304,0.0995235133045734,-0.646825231443499,-0.274659089326177,-0.11414788337994,0.265057242388029,-0.441631728014188,2141116
-1.16997529686111,-2.43244707845226,0.283635138933833,-0.903852940505012,-0.922256613182001,-1.49612145639691,0.210344966949443,0.132196328433653,-0.713417311343349,-1.63337202524777,-0.96009773669469,0.40571500680565,0.746694995635571,-0.416625475908934,-0.769512448314644,-0.316720461884155,-0.183678660541493,-0.678213146986293,-0.421036048881575,2144796
-1.21213826956798,-1.66087365449925,0.228255068938677,0.0347708844369364,-0.640581342734525,-0.766401533284489,-0.986722444603592,0.0774161849123355,1.13961380525585,0.784483398501316,-0.464136802288444,0.611984452476654,0.344904238407345,-0.535731167052702,0.328669111341328,-0.292663402213555,-0.146011307302132,-0.636643863241591,0.118714047284041,2145166
-1.94533783358834,-1.45270728113733,0.651220137006377,-0.323049720499887,-0.644234098344376,-1.42125102331493,-0.864676160795902,0.100141240646404,0.173708313368742,-0.406365429919862,0.802011189788957,-0.950568457633816,1.75843431629799,-2.62972867957507,0.166478775592003,-0.293767295349547,-0.117215464311157,-0.971728068872627,0.957122728206294,2145694
0.256617482807473,-0.935682879270665,0.0872954987402473,-0.17190742657058,-0.72854140665074,-1.04073411276324,-1.17878828221791,0.0912877999105966,0.0194983059257526,-0.329694347838241,-1.11428063855954,0.496071824994183,0.442794317143359,-0.0611869153900858,-0.29909636075416,-0.277607531116027,0.133406866786769,-0.971615969000553,0.237222675335488,2146138
-0.150842105640216,0.476463923880031,-0.248614214188766,3.32132023466096,0.216862311699426,-0.754530986631794,-0.0178399170981471,0.102479137983803,1.07724740270389,1.43944749268626,-0.659770295373321,0.435944585976792,0.624162125100974,-0.220445414534891,2.85901383029652,-0.150742673980336,-0.0803554346768,-0.983387217146055,-0.154486037203064,2151024
-0.676020906485583,-0.348384838551272,2.26613630583344,0.613947542906233,-0.128323252631072,-0.143155990626468,-1.03614332389926,0.0819594861351802,-0.319238716786504,-0.559973234242932,-0.107911068581239,-0.556219068620354,0.176450666260753,-0.579998229677658,0.952561329093658,0.033859565153273,-0.131788899156703,-0.773056364156821,0.256965540208384,215131
1.18746518944587,0.48542790691272,0.406250844792542,-0.562587704279401,-0.667296772707218,-0.891126367730313,-1.45309560103066,0.108319133217108,-3.12832809942718,-1.67249659011098,0.236635386837486,-1.1700291009018,-0.40466859607689,-0.604148213108775,-0.918323700200505,-0.313983296518719,-0.11884050914259,1.37448016713307,-1.38744819403656,2152442
1.54085505221775,0.850062014786956,0.541872830060665,0.914415335196116,-0.13978555605474,0.176412810106826,-2.56849975240765,0.0816657713950589,0.0247702514451195,0.681721510934039,-0.0728938182149593,0.125258209166118,0.943221423571224,-0.680297595396809,1.09962731408716,-0.212320766351628,-0.128179380438072,0.294122422176553,0.711372554612669,2157529
-0.127979438218689,-0.727749079666295,1.06753619738142,-0.743153259172156,-0.651280134508652,-0.154008760382536,-0.448711154631712,0.0819683597389488,-0.878814559924678,-1.46205040672212,-0.0851837185745331,-0.466204388450798,0.364024267247743,-0.695483324154805,-0.701140526335269,-0.308110932222309,-0.13577776995008,-0.46935425958612,-0.256467171462463,2158101
-0.266789248160318,0.170673210039386,0.189976048952391,-0.934415294357297,-0.463151642039497,0.813939320650242,-0.739819008848084,-0.111259678924045,-0.137936133990772,0.177418942931862,0.115686183996447,0.486932783720058,-0.923253508899299,1.21340291491005,-1.01167675170152,-0.315156932372901,-0.151377125858121,1.53160332795499,-0.0315610794204738,2158329
-0.314425412825082,0.159850965595553,1.11605004107087,0.736673363315841,0.672346571947152,-0.0268109423869158,-0.0905200662677374,0.0842801403300308,-0.547918322579138,-2.21678731879332,1.88354326785514,-2.86851712249958,1.02358737891366,-4.52769517900472,-0.118145480239916,-0.143878903678693,-0.120417028632735,-0.934162575513637,-0.847681428504165,2168082
-1.26339605153975,-1.14296012443341,0.212752427310476,0.107664114550233,0.160016695511591,1.7210069873451,0.470623685263947,0.123061448551463,1.72042479762794,1.36451244373457,1.2503610644742,-0.268035654030101,-0.672436857208822,-0.263522879288968,0.801498439754977,0.159940254709011,-0.123915739543257,0.358336214389627,0.420678492454589,2172217
0.643908338073263,1.63327776812404,0.426494218747511,-0.549932172629973,0.567333152026802,-0.319356809514569,0.522065485446995,0.0790292828884497,0.68378792354076,-0.327450730820125,-0.871703529479626,0.779533239143824,-0.840426603482041,0.898630007136017,-0.491376426455932,-0.293951771362628,-0.145181126884765,0.766126551176745,-0.69522509660362,2176530
-1.17609751493327,-0.521657464953468,-0.951658178840042,0.398916070960891,0.0730756603873437,1.2674643812064,-1.21819441562438,0.142422740678413,2.68039377146258,1.1603309779011,1.58230812575389,0.422185561704182,-1.67746745901187,0.460188180464202,1.18104815748273,-0.31657728765655,-0.751405722737687,-0.296208182957598,-0.583201784811211,2176784
0.613580800527581,-0.132764810793344,1.23054785474454,0.0489500865136649,1.68981275667984,1.24158127765559,-0.841555443376712,0.070699618255586,1.1866780420178,0.918848508958942,1.60463447829178,-0.7572385482567,-0.962445203324794,0.109469362159418,-0.778923097676602,-0.314011299114086,-0.0727772786263361,1.40229673570889,0.800895336427182,2181724
-0.404479952618977,-0.0868651303122379,1.41009174497611,-0.540045569271583,0.0625002270690556,0.162545647761735,-0.0306543452867587,-0.681711146023158,-1.16411957736004,-0.396277099561681,0.955051244020628,-0.575362982402995,-0.696833433122207,0.294143491087159,-0.770815685651378,-0.305694789529286,-0.0255877624765026,1.09432126490796,-0.375112264818292,2183291
-0.485987197468912,-0.856257366456982,0.490406335943105,-0.265139833198293,-0.43427467928676,-0.267912255917446,-0.00771005422613225,0.297126029470414,-0.729098796930503,-0.25155430832504,1.58421640060637,-2.27246362782147,0.300896026359031,-2.5992452418896,-1.06369231456007,-0.234505679092779,-0.124851163569459,0.606502583846309,-0.853561180873337,2183356
1.12577796179179,0.430046711793469,1.39895249672818,-0.071647065014421,0.396394358015844,1.20437972772399,-0.974938416987988,0.170719456858637,-0.119775847973471,0.548252247612888,2.01858617634168,-0.347429173717782,-1.19573201723261,0.516386595088049,-0.221481378453973,-0.10030779092596,-0.123862391929254,0.941778942540116,0.20177520710941,2185290
0.389588823223062,0.927558975875454,-0.528115489388635,-0.492873758839961,0.68414094909188,0.580317914157617,0.617542242955179,0.275997947391333,0.0255808560417106,0.105375215747748,0.40437958712993,-0.638450592170514,-0.679888322580744,-0.066915345970796,-0.756362420820478,-0.302848383458111,1.4861357423237,0.689131458479474,0.443653974639056,2186951
0.542405279254365,0.151820853091267,-0.821147192051461,-0.947056825455136,-0.609454113426171,-0.49974507396747,0.37916493550318,0.124413592510172,-0.332659508957843,-0.494667740437044,-0.437614938163725,0.105486067653493,0.0533457975350937,0.126231870627237,-0.818202006467498,-0.269929241707206,-0.106803031502706,0.471701095844784,0.0338587338622258,2196212
-1.31588969450682,-1.35350026963594,-0.660726485403117,-0.57837547191038,0.763361933978057,1.38138885387041,-1.33280370643554,0.330787181295568,-0.372638716720835,-0.240853860008386,0.00554673957258234,0.733339879869698,-1.47566322271427,1.45523267584065,-0.903559545368282,-0.265641051247577,-1.22449918912687,2.18710417342376,1.41668372700667,2199403
-3.09632341471798,-2.96958333153507,0.985204682225067,1.66885331127341,-0.614062358334844,-1.33696511931558,1.72807731072992,0.0823027111985846,-0.374991478830447,-1.18526448996926,-0.290979127844534,-0.00923822611168943,2.12423989722698,-0.554069069330031,0.995499626772272,-0.313384416129844,-0.118179138516446,-2.17744686334827,0.435571400416584,2200416
1.08340670556585,-0.413388766583921,-0.0107715737716522,0.20206042422044,0.255475306313698,-0.0927002581571609,-0.575478647720086,0.09751913151687,-0.0832437684168112,-0.356565532462405,-0.863260286813689,0.24367339009734,-0.315236536782969,0.332187545291776,0.358053596741597,-0.188549510753693,-0.072272140744697,-0.505964330917306,0.00485324713357581,2200813
-0.565318058793912,-0.188506419866587,-1.23481257205451,-0.302539351396761,-0.555279081559166,-1.16027389845265,-0.270343037605931,0.0717540031412689,0.63457538330553,0.225107531920605,-0.0533186717639549,0.0641481816111169,-0.387840164185685,0.0829815725970316,0.154665649673274,-0.276255989643906,-0.145781331227755,-0.320151121695225,0.597956575303146,2205389
-0.969638558416546,-0.24541719093878,-0.0292927735920415,0.683617202888177,-0.51688592859109,-0.782900983269573,0.544832393540325,0.0940349260320994,0.492841385535402,0.529017805458439,-0.719144213790265,0.674879210152857,0.29693975786956,0.241167675452547,0.988731796331446,-0.19027813044605,-0.0655924485253105,-0.96816074992833,0.391815848824541,2212664
-1.44436487196656,-1.0676863355403,1.18136127382584,2.83710638472072,0.462865774469925,-0.566605423567419,0.813224034255646,0.0845762202044113,0.0654584058139775,-0.635354636534648,-0.120508274440703,-0.386214639399332,0.907295459806249,-1.37501707470502,1.08642261124438,0.179877779326185,-0.115469114514431,-1.18142606704596,0.177509542379757,2217034
0.691709785097993,-0.71633635215037,1.29414570905325,-0.539053133413828,-0.155749634819272,1.10885714446224,-1.61688268670434,0.0866067972375694,-2.41501442955486,-1.05199640521695,-0.251339499611122,-0.707068297629119,-1.34184459885075,0.488555548243648,-0.651315536374269,-0.316311133455005,-0.114833538413946,1.52617564088593,1.82938585572566,2218615
0.862790503302103,0.125613307763027,0.084008777206227,-1.00390880151316,0.964045773365533,0.71839614040726,-1.0444401308841,0.128364309420669,1.28170732830732,1.5866437352785,1.20633230275241,-1.03995375155433,0.77357654562111,-1.76920714776315,-0.908107778981628,-0.316892988282739,-0.0448414571887762,0.872861370466864,-1.17099513455251,2219842
0.792592428069282,1.39157940005862,-0.811516340141205,-0.755937933235641,1.97193803732834,1.29046878063905,0.230330700525566,0.411922162844678,1.60806384918571,0.57906502563034,1.1071590536358,0.430289413325133,-1.21257213171683,1.10710268755353,-0.956927732540712,-0.300653314055258,0.0104795826835861,2.99712600849911,0.204601352845998,2224150
0.976348649085494,0.491883001873623,-0.119450704886095,2.7491655975163,0.944224442034471,2.09010442564007,1.47085999107042,0.0853387464563991,0.804371175595246,0.508857237364551,0.328235842373504,0.514333500665619,-0.522212187174199,0.314355813707237,6.241951755478,0.531254556378051,-0.123985945799175,-0.429648955155809,0.588519424064641,2228399
0.723891944943586,1.45628313098918,1.44040404028208,0.721169808431473,0.413196713333028,0.161074802931032,0.780890082436666,0.0829637037447784,0.661633652935308,-0.267366159484445,-0.734089769252922,0.679581082705848,-0.455934509347595,0.64146348027423,0.796726207219504,0.0194880415206809,-0.152146213349281,-0.275680497597273,0.907160140363179,2228400
0.596696918154888,0.362547636536768,-0.123707788019701,-0.754890889057577,-1.00178146894995,-1.49309019315694,0.165726094198397,0.0939346107338558,0.247724462196141,-0.0447719548593098,-1.75333821060399,1.3942247173723,1.43999116992347,0.770375763358472,-0.474986336316427,-0.31166641643071,-0.00730714444486083,-0.932195076424433,0.14508938788813,2234271
-1.5783978417463,-1.21092775176269,0.393859846308589,-0.78581760077014,-0.932032618159336,-1.37220734655609,0.515238017328966,0.105980197838582,0.658674810911231,0.376124260277077,-1.25936153576094,1.05950864234464,1.03001526948151,0.222953097230038,-0.898319660990924,-0.308344886197726,-0.100748597594058,-0.756337950590858,-0.230223177938489,2234422
0.373991172290205,0.0174495835981285,-0.239148699550736,-0.745350925960949,0.828316554996116,1.79263350094851,3.92791105756916,0.204594494598866,0.954313696042609,0.726481630783618,1.11904500764986,-0.74271496061132,0.0875722704411713,-0.879863622501785,-0.135718367171547,-0.257442607007406,-0.134352727361174,0.142865081989151,0.135925028573488,2237571
0.00883582998078685,-0.368146584566269,0.39281979496675,-0.729748047172173,-0.13262656233529,0.317671649736474,0.470797353329047,0.204253820556736,0.656258286049318,0.353804804426844,0.159149525039837,1.1665180424787,-1.53225183707705,1.55441740113864,-0.939512350634018,-0.287030313930644,-0.164810300864423,0.660653996333821,0.690522986385394,2244172
1.59046987461327,1.46046603575632,0.0061474410382682,1.63543917405033,0.281694659998845,-0.640820148885135,1.3132196031072,0.0881183942394596,0.928715636686803,1.6069582508059,-0.588221400124651,0.504688450609235,2.33936424072989,-0.830284997809116,-0.328449684374619,0.0854629605051289,2.41379816679195,-2.50567852595138,0.273081510026153,2247869
0.474021129580263,-0.60620266714862,-0.00447565995853392,-0.656489558800334,0.113980691414751,1.8097166048029,-1.9162959501726,0.0925500844736958,1.23612981691836,2.05354538444222,-0.267783797157645,0.995517489167581,-1.40959554127182,1.39968424463375,-0.136793066027028,-0.283064972714073,-0.128134108165044,0.281247420594469,-0.09469219255423,2250648
-0.150773615415505,0.714246806410511,0.872015074244666,-0.380672749327876,-0.674925006643333,-0.723516036893125,0.621676281095697,0.100922108535264,0.681627858040886,0.40012146746055,0.240334857946988,-0.270275404847053,0.74979301504586,-1.28545484670372,-0.0864425584182376,-0.181133928213351,-0.0805220146329351,-1.35091293375663,-0.22344462397103,2250836
0.351942814041002,0.884916875407764,0.122826238825358,0.91510574693741,-0.542425288539165,-1.13562645241863,0.114590046185554,0.131086505942719,1.18360296175107,2.27372885004083,-0.637409441272675,0.302521533859462,1.01561602964248,-0.165584629148599,-0.144115928976865,-0.124502702291569,-0.158459065788579,-1.51575869800746,-0.82240723360412,2267382
0.481074868852358,0.949334846541333,-1.15042448198383,-0.796266045190364,-0.44846541368612,-0.584903222748242,-0.00837331259838093,0.525793272872217,-1.36908731766546,-1.80351461170695,0.570718341633289,-1.16362641267204,-0.0493008541001669,-0.793635981911405,-0.951201535373882,-0.314790408292998,-0.34366893937181,0.130158726418922,0.140250012921238,2269346
-0.00380793486415735,-1.01416526884891,0.0177767433167956,-0.899339866593559,-0.920390449644306,-1.43649841985511,-0.0122173147945345,0.121645149106235,1.13114127231114,1.40364872008015,-1.21948611190306,1.51899349929571,0.349501471150579,0.99507875709415,-0.695125699048681,-0.315557714782268,-0.64042962834372,-0.549764074915906,1.00573237305996,2271329
0.176927244099817,0.00679825767381911,-1.69088001367319,-0.0441850165879702,2.48405897755292,1.40544350338871,1.67871270019958,0.180538043976738,1.035050572578,0.982312063106188,1.2477429327919,-1.53098096562315,0.188429620953057,-1.4842569422353,0.785930405617649,-0.298976861135891,-0.0919371340521299,-0.137719916168901,-0.32340682334064,2274521
0.985009278007516,1.07009904270962,0.0698550535463232,0.683381046625479,0.183715951240904,1.1707075082674,0.260056875174458,0.0249017227607777,0.00983028277085088,-0.243310618673546,0.430597119209421,0.128006439379656,-0.480388533581477,0.514251509760175,0.998253311160156,3.41367357987385,-0.126596938271225,-0.0774215166775738,0.351857290017119,2276121
-2.65608044675613,-2.48146952487975,1.40251570248988,-0.592540633038108,1.11879838795536,1.16543535593048,-0.758278407535842,0.429671228614518,1.42313769155054,1.31247791549782,-0.13939037443248,2.90767687332217,-2.0114521308903,2.6540915953245,-0.905409793665596,-0.309402634058992,-0.219800564018705,3.00636634374042,2.89116897037098,2278618
-0.668671858529148,0.120696561341397,1.49919617531004,0.0940770606979501,-0.565125281300652,-1.01931577378314,0.509920259720472,0.0465434469965343,0.217259413797383,0.0476958079538691,0.349245863523382,-0.55907898674967,-0.300109423292649,-0.329018930028757,-0.125845350849379,-0.102700078842875,-0.110376744635323,-0.83145323438332,0.0125322623725603,2285214
-0.917188119462901,0.0931677353198432,-0.32835437606759,-0.536776814944556,0.166206561049063,0.241933771867275,0.677159674147567,0.129472120745021,-0.223922034440159,-0.414356468133055,0.183467652280375,-0.572151021704513,-0.10064373514997,-0.641376882714109,-0.633022378016204,-0.253397034651324,0.0959426750481228,0.115680813681077,0.198728498642001,2286108
-0.765044059585851,-0.227004631007545,0.177657914316016,0.524688322062688,1.81086545395611,1.32493326442194,-0.568914147393865,-1.53358855613586,-0.985207724357815,-0.33323844221442,0.326181171758618,0.342916813751753,-1.07441467576759,1.46994380957644,-0.909396752944987,-0.204515636986005,-0.0738524317406282,1.4466159507607,0.0479384680473646,2293123
-0.671267788708524,0.113982417952226,0.0213105208957666,-0.0420549838042274,-0.134839937645632,1.48027729523101,0.420134967302812,0.132800991251019,-0.840591430923292,-0.760080534682368,-0.809006254929462,0.349947246989909,0.0270571488984734,0.214220624547356,0.594883426810842,0.378619382340014,-0.116305641396111,-0.0627324558331527,-0.028817391928005,2294852
-2.2228782500932,-1.81464887504744,0.379246376042371,-0.427980351561033,-0.658363616554802,0.789685124478946,-0.692144941989208,-0.388698169386086,1.42359906004255,2.24433958232338,1.45610850773884,0.300730302418294,2.22087356203898,-0.54608940738893,-0.516952270462693,-0.308727275527492,-0.125574516352586,0.116794388672251,2.5854606411691,2294873
0.614854590865542,1.58873042549151,-0.621172064512346,-0.118508530797062,2.64225263188809,1.70800239845894,0.887283959276643,0.17061967140334,0.636985937546165,0.440065958619561,-0.152256818480351,2.03939070448154,-1.62356512322379,2.35242138584624,-0.015788114806834,-0.101518553162792,-0.115588452041284,1.69019252277561,-2.50914242805671,2296332
-0.944097027597603,-0.858681236363903,-0.612980220604571,0.73619571751142,-0.35312636330955,-1.03726312315845,-0.719069144348228,0.0831267050878385,0.188160761249549,0.209050543453813,-1.39179231165973,0.791503923112723,0.758067510729042,0.392198422589091,2.75522948171478,-0.280321918636014,-0.125307667110215,-0.991949264336794,0.00865056900412545,2305114
1.54090329665011,0.678982620645194,-1.79639635251769,-0.111041663185095,-0.453623485398473,-0.362418515466414,0.562526302464498,0.270584217802693,0.5564324107914,0.348319775402994,-0.000324240857125518,0.170475970206622,-0.613175768566584,0.431219550040004,-0.0941300878949916,-0.193945810719538,0.45166103994873,-0.321830034174714,0.379194424005008,2305115
-0.469487291772843,0.218082939681389,-0.289371584379406,-0.396118383361273,-0.316982940830568,-0.618683678535754,-0.275193706844647,0.098834867845487,-1.03733542606023,-2.39960326007876,-0.243818315646281,-0.000499417434667341,-0.436510371165887,-0.0358861765977678,-0.603850532217491,-0.3074741867831,-0.206335074941601,0.306086275962369,1.21243612252414,2306459
-1.02613018105618,-0.732855928121595,0.761159016434239,-0.0615914284532767,-0.800128537246059,-0.100299685512266,-0.59449471517003,-0.019038234511152,0.54280944256878,1.59476502806678,-1.86594391150511,1.32171391717003,0.354104080645027,1.30414444901327,-0.534624925988836,-0.287426103081757,0.554919887897984,-0.684475441526107,-0.468036447235356,2306893
0.862886469815465,0.196712412949358,-0.639843424068952,-0.357199930169634,-0.572261302567811,-0.71814674879818,-0.119503558287046,0.172775865689622,-0.125967714106049,-0.476556524474001,-0.654564408032573,0.384968805910087,0.503869654464498,-0.164110637036208,0.0540496238022638,0.247385435115579,-0.0928806057650726,-0.325047645048766,0.320648473560964,2317120
-1.11177402168498,-1.25099291612695,-1.74342377209137,0.879991039251191,-0.107657870189527,1.20444580910085,0.496088315753417,0.107070071534459,-0.111570105062601,-0.290824412236541,-0.0761127458114316,-0.142836636776283,0.258219522779822,-0.341339930666676,0.30799413851793,1.11897058369047,-0.10792078214754,-0.269841163892089,0.118193407916,2319068
1.27201770318929,0.631699847487318,0.0769604311914643,0.74923543511518,-0.58693734164245,-0.974722747161655,0.338469713645544,0.0999117326092347,0.572037074781911,0.523116108186143,-1.39025041722059,0.784096803961351,0.479946979218815,0.300040373313084,-0.0664714203230601,0.248844681215107,-0.103973336795901,-0.863287107752956,-0.133272930188015,2321962
-0.494208393595623,-0.0801224141365286,0.112313428353006,0.442307098808732,-0.535723028431393,-0.84357374844793,0.2083506847305,-0.0875490544251555,0.987443427781669,1.57010225019371,-0.331469790592431,-0.0242255820677267,1.14999156454318,-0.955439704996619,0.108881768561058,-0.0735921280424615,-0.134628232961573,-0.93379540403796,-0.65980038003122,2331869
0.437938483147475,0.056741752418524,0.360537595406958,-0.885106936830617,0.381688499552656,0.591435601613129,-0.629058793926869,0.092175327494965,0.609648097337378,0.0236375750462418,1.68709652016827,-0.267630192173902,0.227695514363856,-1.06537004967963,-0.0498968385471658,-0.316017892997437,-0.124233897803031,-0.912158650708865,0.982879921259686,2336735
0.665981154450617,0.0377043424584366,-1.02977437742954,-0.348125907589462,-0.609412892262361,-0.136754262741395,0.401241415723879,0.021953299112316,0.237944014643603,0.0303616636590611,-0.283386258910652,0.246467999396167,-0.374533974573313,0.404284753219779,-0.495214048617169,-0.186400776174744,0.0164898683830058,-0.235206307318385,-0.903913301938598,2339674
0.805638481537991,1.21265909994569,-0.803821015885292,0.186491564444913,1.83908595288816,0.585504773789696,-0.286726381788264,0.13435860571773,0.125626530586183,0.0852084534087788,1.21015260118867,-0.921288515523012,-0.693634436320829,-0.180026781991435,0.112498210059712,0.0351197702136573,-0.118117379602756,0.588687983049376,0.399029580071826,2340155
0.697918505887181,-0.142598647094511,-1.27452092110982,-0.119963575661856,0.34653082405344,0.708057362293347,0.966801342476607,1.10580193070293,-2.18231634893112,-0.518356614205199,2.21474798566671,-2.36391083582275,-0.551249992727657,-1.52097089267858,-0.822220896403148,-0.264957181039952,2.01971874407922,0.794255172895821,0.134365186078175,2340322
-0.267541603527099,-0.445483527244484,0.163235104336715,0.306096085282106,-0.598027944386145,-1.33896932432289,0.424904590341126,0.0848813096288798,0.184644223909945,-0.786986951706474,-0.110945790512375,0.156304887706343,1.72637568132347,-1.24202706845912,0.353496352804594,-0.249341413573783,-0.224305533108534,-1.64063363534357,-0.00362628813042399,2350037
-1.62843023196744,-2.00873917157198,0.113597164952452,0.632499622018316,-0.598007791355654,-0.874698782913089,-1.06022355791964,0.0853403634066076,0.732559756226307,0.299572301691372,-0.911459381619942,1.19594038585409,-0.128100389746347,0.90470469915678,1.59729158719338,-0.24708255666416,-0.154687489845605,-0.786294132540059,0.519406215013359,2352038
-0.327008254349914,-1.0727941499547,0.65298433708351,-1.19163856718529,-0.611749355508594,0.782066506344842,-1.47275224895525,0.112725966989765,0.25694964102234,-0.0875195494922915,-0.356483850391956,2.02706195374301,0.356995257713048,1.53584581764766,-0.145149439373982,-0.316169291012986,-0.124913783593588,-0.478754229200291,2.02414588887613,2359944
0.52893415509897,1.17868783041859,0.377118208343962,1.18858798727874,-0.412217147400724,0.190502123324581,0.362829289469123,0.117589764572217,-0.260571429857217,-0.846978728296101,-1.35629665545694,0.986995617439592,0.233342669875913,0.492763230300284,2.25449450331496,0.711606298420959,-0.122427952617755,-0.787520108451089,0.0560587565195528,2381907
-0.582033799411317,-0.142104774913684,-1.53685273582816,-0.0114224755200142,0.185818234519045,0.96544039436205,1.19613098033032,0.0803202016140815,-0.553769140740028,-0.207398848938884,0.466221992333301,-0.565434900919722,-1.02778615396804,0.248869780394237,-0.478950972873825,-0.179415829054294,-0.309453086389974,0.317167628174424,0.0870868207454109,2393207
1.48211371560253,2.34221567091547,-0.107382005068402,-0.0947595630143189,-0.520856237444184,-0.213663534204189,0.241038270787641,0.226695522668111,0.620883338921909,0.882721008012723,-0.780948219388048,0.520147606155781,-0.152123868264954,0.729164331312271,-0.595002288820448,-0.172409162657748,0.207250979251503,0.0100505678180634,-1.6210820637616,2395415
0.391610550112764,-0.0947126209329558,-0.893417181053311,1.72467981738608,-0.253953758728683,1.09550893353856,-1.03110403364054,0.128106673330733,-0.849173073460336,-1.24792558555439,-1.05636630497665,0.363880660578996,-0.0523726458944075,0.222701242004992,1.7433411804895,1.67875342248484,-0.120988132085921,-0.760140489314605,0.0441411066947361,2395943
-0.196373083295275,-0.725579993920798,-0.833167922315982,1.08345099140388,-0.511741182218998,-0.2413044667919,1.44533882072683,0.0994659308354933,-0.128402800686509,-0.57430834682696,-0.243062415143093,-0.0438932938423982,0.0174074940398199,-0.505047597664532,1.31453685425905,0.427992085055479,-0.126792562952515,-0.884233257773336,0.040493386801419,2401405
-1.59034292545739,-0.62996038341641,-0.826455167301941,0.356998261086698,-0.555990799474531,-0.534292808077608,0.398566208424367,0.123262926573847,0.452849343165625,0.0930143869351681,0.0750187624295253,-0.108033821481109,0.0266131193175737,-0.457462931905639,0.163150002987001,-0.134633030313838,-0.132674558029637,-0.688572622630826,0.255048246180494,2405144
0.00569517953620561,-0.628105766968696,1.05608685362689,-0.803262723158544,-0.626434135722673,-0.733798703379125,0.0718344107106016,-8.66730911101168,-0.291605768108043,0.00581453656673643,0.720681717630484,-0.765346270178821,-0.129512408614432,-0.347961721262942,-0.825243908919887,-0.312069870345426,1.09985323236322,0.647023590399761,-1.49665187730694,2414406
-0.048728334177061,-0.169891566786338,0.780749593845487,-0.495100285640305,-0.129029853242949,-0.571098195936808,0.928248138900898,0.0772023107678975,0.22965993256539,-0.386634977331279,-1.2681466764357,0.650453583564693,-0.417950462741054,0.550194188931887,-0.489372000296564,-0.229614666867948,-0.00571911147068049,0.332761431487348,0.0773189397556773,2419459
0.247656398073319,0.975617241015594,0.404850431725588,0.963323161084084,-0.692523432449126,-1.28034277437018,0.830215618597362,0.111239290695732,0.44236867021629,-0.240017825713244,-0.374489319377817,0.569846538430793,2.65956159608285,-1.08036603411753,1.73212447936361,-0.117334898857311,-0.122927009750692,-2.23391361225799,-0.213290342532127,2425694
-0.0716196818557047,0.145606826841871,-1.38904630461084,0.522535869252771,-0.0415125947686166,0.161404335858919,0.227608581950587,0.288308670306117,-0.556200709767961,-0.555164311465661,-0.487475575772849,-0.350787192028373,-0.139450664090355,-0.261403066015891,-0.0266339921170197,0.922049852180683,-0.00182739729220817,-0.375118644410706,-0.208666104390122,2426863
0.601133397127539,1.27849553478489,2.0401223701459,0.297061912627546,-0.399136536164002,-1.00449054513538,-0.669328556751772,0.0809553658251133,-2.44469964881023,-2.87713097471229,-0.413657211544104,-0.252367997283642,0.17735801860291,-0.236684863637278,1.30628766271557,-0.315292765176554,-0.211597819766112,-0.509571931871864,-0.913715610883275,2430773
0.403744438963613,0.320157821288022,0.471264322216236,-0.336034536118234,-0.814760091618535,-0.82572710408456,-0.262570807077222,0.0868751059437157,0.143379715600213,-0.306377168883475,-0.993372306712264,0.592235407798519,0.641310687816352,-0.312017440359757,1.24697650757642,-0.28584081331429,-0.118179908210458,-1.16832090843556,0.473359791848485,2439458
-0.993320575304859,-0.412792626933663,1.96873532113096,0.00703114589446627,-0.419448091804993,-0.307140774973371,-0.601345253650122,-0.941857246006147,-0.212366570563493,-0.182325288714274,-0.466753350829845,-0.0785212611154981,-0.117040063140294,-0.0467942582150947,-0.310415007549605,-0.31397709047668,-0.180673878755058,-0.641630125955187,0.83649120198547,2443354
0.947520160246129,0.308365232333617,-0.397777117122345,0.297438964618926,-0.0818491437537339,0.535285642176409,-0.374065947426833,0.262389834851859,0.532070069538501,0.63032812388917,-0.858697868960313,0.186975286503685,-0.443624074590487,0.394874026582081,-0.531789366208142,0.630411720167789,-0.0962154904512785,0.0419562592760935,-2.08757958087029,2445526
0.497474819764765,0.82104735868662,2.24520572902849,0.013244541442619,1.65821465209252,0.782897241540317,-0.212301119219058,0.132712199377276,-3.35417316965068,-1.58703152844273,0.584596930225748,-0.878195360262228,-0.9196633854888,0.619143780496182,-0.421659259686907,0.119022124905343,-0.13458727424603,0.31965825576351,1.51105138107564,2448298
-1.04922563250274,-0.538612061823148,-0.556605507032258,-0.731364066034079,-0.703749944958469,-1.11322251924079,0.499911843713641,0.0437513527555294,0.0818731038303837,-0.229969936724517,0.44112435693013,-0.326572116985987,0.930228646340194,-1.08667140215591,-0.775269732749752,-0.315276130912962,-0.202589626828103,-0.185671031970281,0.495197401958354,2453577
-1.0042606702468,-0.370413637529496,-0.116298916648905,-0.743602325356254,-0.689651936551373,-0.983761571023289,-0.134539201692642,0.16517178898162,0.447739364166093,-0.0645996675172112,-1.34161837336405,0.659726479487871,-0.101172481450439,0.327392433791531,-0.652656972709207,-0.309657990713381,-0.171750745761025,-0.0775977869012383,-7.3969835618394,2474709
0.976272264496466,1.22757954910264,-0.955405151851685,-0.658410516378657,-0.567850457736258,-0.0637829582114708,-1.99614986294969,0.115837987697968,0.0927385067988581,-0.838280680323322,-1.02658624003607,0.848351457494329,0.220917129937121,0.334044043765898,-0.705011234479156,-0.228531184169496,-0.130180380531894,-0.381489648348827,0.881516724473932,2480056
1.05047352623718,0.673895205279498,-0.271286826969089,0.340948602452207,-0.515888191390852,-1.08768285034558,0.360086884678137,0.161631690793637,0.522852142091682,0.00414250795775082,-0.501745233180904,0.246571574372792,1.03488478536899,-0.723720679006597,0.21688019112425,-0.254179119009983,-0.0599370328248248,-0.726310604686955,-0.693918855634315,2480330
1.10606858674729,0.852702250650153,-0.592817987463036,-0.407394131591713,-0.182229329788208,-0.289694120711071,0.0734083851252345,-0.0329708924232001,-0.0428073241872421,-0.100570396994576,-0.566048971662863,0.559198241691873,-0.522915600750536,0.981624072769664,-0.519637013677081,-0.107141563777909,-0.0492231412697631,0.67983512186014,-0.921905152276385,2487135
0.86384808486688,1.72898509722018,0.122107695603864,0.0600235420786467,0.545271108635804,0.630574177610227,0.452236988466034,-0.798872856860599,-0.208064693440993,-0.128825685501967,0.332305345503727,-0.535430502450995,-0.0802146077435462,-0.05681806474435,-0.663885977885089,-0.0548930182455597,-0.193815859364748,0.426691392032894,-1.46091605402423,2488660
0.457473961669387,1.29078680587881,-0.609724757822263,-0.357593075907243,-0.770330292940614,-1.27599411761181,-0.504291824818557,0.115077067898114,-0.451330312636023,-1.71300419064195,0.0830123163359062,0.154859499885264,0.275191329309773,-0.345161093119435,-0.137294058056192,-0.278324473920151,-0.111325046980946,-0.844679781521012,0.21030090478726,2490180
-0.840181309680952,-1.63573139695041,-0.671042048633141,-0.457130759029781,-0.473829515144808,0.288700116662052,-0.78157552218215,0.174259158207838,0.0647545168545164,-0.0222218901277945,0.224708207263813,-0.570976323846459,-0.0137133500592475,-0.708933724017576,-0.393891726071365,-0.205381033804741,-0.141578729367035,-0.189390307839111,-0.109242713275515,2493534
-1.52926985863685,-1.14829203986268,0.364819953964944,-0.642315306290609,-0.363296552593312,-0.761876127269783,0.508368636997547,0.19977011866678,0.0810385847901059,-0.211275559329265,0.592988033475095,-0.111586240073523,-1.38601110178577,0.971838403060199,-0.895882009709841,-0.317083900143997,-0.277957888256688,2.16246555809919,-2.95148882640645,2498991
0.214250694668852,-1.66644427758114,-2.30812306914058,0.231149576948265,-0.226455206472345,0.370710070570669,0.0430663465362006,0.267462485035813,1.01734876129029,0.8587175813355,-0.716075767108996,0.736762179661059,-0.301806579278902,0.370219385039991,-0.350185541751271,-0.180695489828947,0.201399161895199,-0.882341685640641,0.358695999043012,2500377
0.0131662796200682,0.226685814118851,0.46196403173907,-0.0660558371657354,-0.665452503445481,-0.808900555054773,1.72114890123202,0.0830169023766862,0.200574745335336,-0.495392768015051,-1.48505357180688,1.33245132046232,0.54991431163375,0.607550310351099,0.632952181844791,-0.298067911859107,-0.111087443031163,-0.790960174016841,-0.306236368543044,2504802
-3.56490109803309,-2.82786225545807,-1.79995153013652,0.119272179107958,-0.430799113429154,-0.879901125702527,0.107803508211017,0.129688903987932,0.457443074428367,0.00626329550390808,0.685911405532578,-0.859074106961077,0.493138375936163,-1.53540757298318,0.0411301980826286,-0.272885070257913,-0.138512447162784,-0.636086559725599,0.416704171720427,2510402
1.54439226209418,-0.0290918086197587,0.858669821105554,-0.592664257829752,-0.192132542362131,0.0410723566289386,-0.487981507051947,-4.49802923016508,-0.205926000355231,-0.206787095619657,0.881340691426189,-0.943330782978226,-0.363480434399164,-0.241736674348768,-0.592263402053208,-0.309631504755205,12.2983478986763,0.398437063462614,-0.643607223668673,2520618
0.0973193611559645,0.087867840118878,-1.08279996989073,-0.452267104586653,0.275786904015635,0.757848108423413,0.491911793308943,0.276923514761286,-1.34033048873536,-0.603339148297371,0.804221810367318,-0.692949657074742,-1.092912500213,0.238488673643802,-0.736299704240085,-0.0466632322641839,-0.0751159406468552,0.841351854572828,0.138233946891415,2559453
1.74606729567088,2.16075522535239,-0.282416730041071,-0.013463037271595,0.78603555753478,1.17062375102615,1.33847577412545,0.0813220833421829,0.429079451724508,2.10324848807626,-0.169169871210619,0.726916942358219,-0.568555241456903,1.89101258584485,0.0634104658332139,-0.312197596373758,-0.129018248939866,1.13658268309374,-0.342365360830224,277752
0.93201283840556,0.136570745668241,1.29617218282062,-0.545366778093289,0.585362802919049,1.91204808823156,1.0684119715577,0.0973441332990979,1.51238078150248,0.989735064013169,1.61483707524983,-0.627210968357638,-0.312370573046662,-0.842474883922127,0.532856894536364,-0.277737577746914,-0.125597056725112,0.273710221530129,0.0259657780763775,308862
-1.62173293692513,-1.58426747718927,-4.16453909373107,-0.0817774234903741,-0.221052803625089,0.374552579387969,0.383290961406481,0.138831113794486,-0.227298443136419,-0.362812295584778,0.924396943324445,-1.12229779533478,0.01637945589582,-1.18293965825025,0.263512820287074,-0.269046100870813,-0.127544417822141,-0.437155468169021,-0.0153602713783695,58325
1.30483313900889,1.51509760497956,-0.34698071679801,-0.448212252285493,-0.673802903953985,-1.00599741262333,-0.282571989816304,0.236131733034118,0.403178473820372,0.15003050842864,-0.918965674457696,0.427636031178017,0.542284858692257,0.0315992635724637,-0.457806012483524,-0.257377208718744,-0.138497941035553,-0.697372787414138,-0.323166196033241,92173
0.480287095170157,-0.303376539592044,-1.84149942601175,-0.843445768545646,0.593264944112214,1.61110748058525,1.0790027089133,0.247310714889941,0.733235033783891,0.643719124849165,1.81360811869651,-1.09176967442828,0.0880917415565934,-1.36332082422003,0.00652086997718237,-0.302123863593851,-0.122870571930442,-0.0981317683282731,0.341918930922916,923666
0.301654514283517,0.463397128242179,-0.25533845439351,-0.0720597968571314,-0.83900368282024,-0.883612797199333,-0.0554909320407628,0.104470147073054,0.568397165747241,0.0291163096855737,-1.30752800007421,1.22725807752138,1.19309628345012,0.37049929168644,-0.0595299391343098,-0.166167289865907,-0.11844213974071,-0.918770787562079,0.173771926661581,965005
1.64686895508772,0.440430964705138,0.876611886274956,-0.410309177839526,-0.469408013713792,-1.02361530271953,0.803709000435603,0.0847655292298912,0.778788784196105,1.11775813517204,1.64832928224493,-2.13914410038805,0.639082470727726,-2.59360295141628,-0.25991054516422,-0.303559207547723,-0.132931552426872,-0.0667614424267481,0.257334376906256,983079
