pgsalome/predictR/output_NEW/signficant_features_results/tox/pcaVariance8515_mkm7d_ctv.csv
"mkm7d_ctv_original_shape_Flatness_250","mkm7d_ctv_original_shape_Sphericity_250","mkm7d_ctv_wavelet.LLH_firstorder_Skewness_250","mkm7d_ctv_wavelet.LLH_glcm_Correlation_250","mkm7d_ctv_wavelet.LHL_glcm_Correlation_250","mkm7d_ctv_wavelet.LHH_glcm_InverseVariance_250","mkm7d_ctv_wavelet.HLL_glcm_MaximumProbability_250","mkm7d_ctv_wavelet.HLL_glszm_LargeAreaEmphasis_250","mkm7d_ctv_wavelet.HLH_glcm_JointEnergy_250","mkm7d_ctv_wavelet.HLH_glszm_LargeAreaLowGrayLevelEmphasis_250","mkm7d_ctv_wavelet.HHL_glcm_ClusterShade_250","mkm7d_ctv_wavelet.HHL_glcm_JointEnergy_250","mkm7d_ctv_wavelet.HHH_firstorder_Energy_250","mkm7d_ctv_wavelet.HHH_firstorder_Mean_250","mkm7d_ctv_wavelet.HHH_firstorder_Median_250","mkm7d_ctv_wavelet.HHH_firstorder_Skewness_250","mkm7d_ctv_wavelet.HHH_glcm_JointEnergy_250","mkm7d_ctv_wavelet.HHH_glcm_SumSquares_250","mkm7d_ctv_wavelet.HHH_glszm_SmallAreaEmphasis_250","sub"
1.30881026026862,0.800584781239504,0.106867616552446,0.262079634049628,0.595640216390828,1.04727691565098,-1.00632548004961,-0.243258297206323,-0.621173549276552,-0.281271267220984,0.00111942078446777,-0.652591368474071,-0.0606068791647898,-0.268725060151588,0.250098374984702,-0.108710500102515,-0.773625779755564,0.000933491781043543,0.224813563862078,1085983
0.207712242144571,0.603637414643192,-0.954698885117703,0.948884553193887,-0.8564174014448,0.673806218681557,-1.06049264852703,-0.239899937806881,-0.357488563458288,0.0630846969751137,-0.357231566367463,-0.679331507584309,0.0559282920754859,-0.299045438865184,-0.575943788726549,0.43722533667365,0.163117505666022,-0.502689964926773,-1.34688421185717,1125173
-1.77978312813069,-0.472203251817337,0.241507491948878,-0.576020772360864,0.0785556651480438,-1.51620812148337,-0.500573003843551,-0.247259818836951,-0.83313055907783,-0.314869097555601,-0.151345761002687,-0.557265608452749,-0.395624204021792,1.9893407838314,3.51057548289001,-0.38331909479905,-0.984313813906057,0.227109070743791,-1.27963703614691,1154608
0.947046439148062,0.512255643198397,0.420063040592378,0.417976126183387,0.518390823909976,0.118496224315815,-0.650396965454659,-0.225475150562432,-0.170428752794472,-0.283388848092052,-0.423262350438054,0.175218246191443,-0.314898962357085,0.249654833978965,-0.0574811027143631,0.0276817232617703,0.601061912646556,-0.544974327564949,0.12917095286181,1181124
0.498026448452127,0.506177227649935,0.430315293946007,1.26429205035677,0.469857823277513,0.280058119391621,-0.719273475408262,-0.244926763174473,-0.737102089445802,-0.312712393126549,0.114307388225457,-0.514985772362985,-0.311460719182315,-0.47077375851892,0.972430103014004,-0.0992672919729935,-0.694356485864645,0.228827631499913,0.0252237783804659,1183075
-0.040555282256636,0.885648114442777,0.367033424753355,0.222207684880404,-0.93537429012084,0.672657065277345,0.315618716068098,-0.235666839092262,-0.876354828845792,-0.314760336369181,-0.154737933914031,0.0664176355923401,-0.432606900344937,-0.821760343812588,1.16060491375312,0.29717619850013,-0.502710937589733,-0.30879613914569,-2.06055269756912,1232870
0.326442447809471,0.714335481417378,-0.626186729833926,0.649584325793848,-0.185919003753045,0.655447349042206,-0.454677173493132,-0.179858763499194,-0.0923032291999974,0.418013185323429,-0.277810177154573,-0.57417654250161,0.132720462385206,-0.67364937470409,-0.206441115852134,-0.0254740436504362,-0.50262405544689,-0.224394600090327,-0.477379704657242,1279943
-1.12719639939352,-1.48133400742435,0.174499522343564,1.08987805463561,1.40201907225312,0.154887867998773,-0.543895165409781,-0.235065957299803,-0.685383267537366,-0.302987271372141,-0.395688399546675,-0.571511491544411,0.0295293001866824,-2.00259264540381,-0.57395902174401,-0.34666375257678,-1.11160629982354,0.602536002061524,0.633293365289273,1329352
-1.34905215456648,-1.06866605295259,0.402639247464765,-0.179208297415134,-0.900007037569468,0.581999853384738,-0.276713787258934,-0.204785132048718,0.0849228137765831,-0.184486165373249,-0.189557075921381,-0.134492131017989,-0.392359564522457,0.701466258052029,0.626426756933914,-0.00746813889283851,1.41498577120159,-0.648445318586155,-0.718930203220624,1330263
-2.0016901349136,-0.180199441281054,1.90852388458106,0.525681145458615,1.58261734589605,0.669061946484556,-0.028471259530739,-0.253566113860367,-0.84268340382913,-0.315268389721756,0.165837350794877,-0.526439736972855,-0.454765935935881,0.0438241950614717,3.67923783019953,-0.28211655679921,-0.926386680823716,0.0915943682283258,0.375892886118958,1364384
0.619699225547716,0.475938388643323,0.289559976540516,1.85675836692613,0.442222187049365,0.415934465285774,-0.744675690727229,-0.250566336859065,-0.838997541879624,-0.31507037719051,-0.465821765118735,-0.493615570861895,-0.39186360627219,-0.113948577762513,0.0228472044992411,-0.792194730459833,-0.834273855759085,0.160885717544769,0.18365781807601,1386095
-1.23162889338185,-1.32559025059151,-0.422797171898365,-0.457970511491368,-0.912298823117711,0.695879950719297,-1.03406737775884,-0.242235060837499,-0.0694131777997056,-0.186446536070762,0.0736325882834211,-0.749674006121357,0.539709188895086,0.561017032702273,-0.378036867915794,0.209352503628457,-0.725517989946743,0.0467090526178463,-0.249695239490362,1458656
1.6065714486148,0.388489437145123,-1.42399740251462,-0.910659828818629,-0.807003266860068,0.48114328562279,1.14404110521453,1.08764366848936,2.06993064158947,2.33120432921554,-0.225310548720841,-0.205661500961432,-0.295950565123118,0.493465516360344,0.325008431533392,-0.251642308256464,0.786738521042615,-0.585735622518599,-0.382560640010201,1485662
0.282152634392141,0.473403687051222,0.576686911398135,-0.326590739418175,0.364076908522849,0.158286567507991,-0.0402909364996782,-0.160922885916041,-0.359202900866063,-0.272546816199095,-0.133816153456041,-0.0950267301623829,-0.242771526213717,-0.678136196936834,-0.429206326166324,-0.994677537375988,-0.0427111732592388,-0.394120323442545,0.453640200390237,1497807
0.642043114724185,-0.925144582582686,-1.57217255731481,0.0539543328980328,-0.208221019591824,0.646707594741522,0.26788814699005,-0.104583428757004,1.64738077385101,0.793688300469697,-0.327166057936761,-0.396182621546114,-0.373995894529772,0.567795178573538,0.143095628730196,-0.0983880564064371,0.901064057817086,-0.600530033253825,-2.64851416317864,1501387
-0.559060039216753,0.634975165692865,1.1616132409724,1.51939101171715,1.82939674181352,0.132767476863471,-0.707662357487504,-0.251054571611069,-0.361466069755901,-0.271772951441227,-0.644807597376326,-0.731583590661325,-0.443104379777427,-0.719151987514304,0.237772821125181,0.0866898742804018,-0.511579725036607,-0.323550674190007,-2.24183604083387,1518948
0.497182512383408,0.977405226754402,0.470502258738643,0.374581969218609,0.696432214746344,-0.434165825162024,-0.881311069364948,-0.241563329606139,-0.850736745845508,-0.314154329082667,0.103293197844006,-0.557105214790327,-0.00527387421021695,-0.557012285371841,-0.612201041573183,0.447425888270914,-1.01933312043275,0.592117999230168,0.0980716415267243,1526417
0.533346297044829,-0.546957377097786,0.167251528356278,0.202510071406049,-0.826787629279988,-0.999138833203523,-0.436449039522551,-0.210658161471944,-0.291402963567576,-0.285102066626902,1.18127789732024,-0.775681900712675,0.617148319799702,0.284411570224131,0.780492022223456,-0.709167620810232,-0.995237981833153,0.72831758260025,-0.359703635109017,1565177
-0.474379824368576,-0.116222276945842,-0.794141180733527,-0.783376556268145,-0.364399406948745,-0.168905411958269,3.48635084110492,12.6920862522985,1.87698026371283,5.09341942481076,-0.214901850493755,1.88603467124054,-0.1335747827097,-0.222683547843315,-0.178060185291581,0.393575863581902,1.43854754080089,-0.634921687618712,-0.307861800382135,1606693
-0.0118805872187325,1.02028395814209,-1.92245145816474,-0.561123983412824,-1.50274735977561,0.00165484174649494,0.995269943613977,-0.0145813792073022,1.46039351314476,0.878870455956557,-0.24328123637634,0.311515889135265,-0.435773735422583,-0.0730399262934568,-0.957093837482388,0.113774734346137,1.95757658890918,-0.686322738970499,0.774941963116892,1612262
0.560164658066285,-0.393299153522492,-0.439017979637719,-0.173576739166592,0.849022458985469,-0.520029161829487,-0.0367335387097772,-0.168697872954851,0.16829294299328,-0.23864383546434,-0.309757206215473,-0.377368746043518,-0.242056295338846,0.0038289493715087,-0.15587903103049,-0.874746314621335,-0.172384767579061,-0.255441452742441,0.863865854470113,1614566
-0.697454558639788,-0.282340675286234,0.135554895662872,1.20633986069236,-0.0142762212439499,-0.146954844767617,0.373785184437751,-0.150832310173644,0.653683436295611,0.284803168462876,-0.24912344664419,1.74045952076827,-0.444669018869556,0.532035392699464,-0.214447298491112,0.568192626380126,1.78590531219416,-0.678949624566188,0.875229620330021,1644034
-0.925870237246028,-0.0195010082018193,-0.0136578231276159,1.07212765181752,0.0661179000892653,0.66204535564143,-0.754843830218485,-0.233684755979366,-0.397028197766406,-0.271306275075415,-0.187229955669881,-0.727535030002905,0.102593589289305,-0.121358983400129,0.373978744910355,0.067228760887862,-0.62237594230452,0.0733963238850944,-0.44930175940585,1668599
-0.330403089081099,0.142675247894299,1.05980355806564,1.07550736764811,0.335152805819866,-0.0240861040921228,-1.13163053308688,-0.253572383845341,-0.870208441532895,-0.315061031625027,-0.637223634863687,-0.856316190899699,-0.261730223369758,-1.13110207112679,0.732945069367018,0.086963934454201,-0.993270107543654,0.589493788683746,-0.0286400286577465,1671370
1.71468162878226,0.786238958578971,0.584573453962614,-2.17404436650047,-1.5229883391037,-1.23242631513744,-0.932964811418413,-0.249236309968714,-0.926603065169128,-0.315085408623506,-0.102193371824693,-0.664188444610946,-0.16007976005601,-1.52807715127876,0.0573416085625268,-0.509014689683117,-1.2608086478373,1.04656428218668,0.837218006236541,1684230
2.42442289358085,1.25092321043765,-0.0360683328997992,-0.1227911933036,0.127084197764767,0.0247266967916472,0.272472798383012,-0.205187512551059,0.361168911928135,-0.152036733318855,-0.184602621921008,-0.152010219640101,-0.464935213984701,1.70866399154283,1.13012000315776,-0.0206357448962252,1.47763511746558,-0.661154611471453,0.581269732916134,1692385
-0.849335205294719,0.128706404202277,0.0812783786189498,0.83798728537949,-0.0592712394370021,-0.303932806467886,0.137538704335947,-0.14330398910245,0.171100910087808,-0.256312065904629,0.209752631107629,0.0718363066846274,-0.143105867652441,0.793213378375024,0.278075130341731,8.40819229045956,0.556020574716574,-0.458603635311497,0.942249970415082,1720713
1.47093682366307,-0.323814196669891,-0.279954159014908,0.522028311459151,0.230109210569264,0.0742857948095798,-0.0256056465486496,-0.187259859929434,-0.517398263243651,-0.175753845960058,-0.246937566429988,0.962595697956508,-0.0938219239308604,0.512339964745806,0.538851020342713,0.137842145854059,-0.107683357224602,-0.287574925353735,-0.0790829244486281,1738800
-0.984289282577566,-1.37883503606345,0.084833626806505,1.01019590199305,0.0661123279669669,0.816250552641599,-0.780564255282083,-0.232916883487802,-0.827804644448609,-0.306846068937674,-0.232121711492278,-0.303174508388655,1.8224910042235,0.522169642193538,0.554192972829068,0.0650316933284838,-1.13480604401422,0.706871378200985,0.471425987178694,1740845
-0.0162214967025699,0.178409506132095,0.55692278924565,-1.4629928002948,-0.502230358765572,-0.631313476800758,-0.303669196357065,-0.239571983948672,-0.878139620356423,-0.315120075565731,-0.0530483547822047,-0.637150854317849,-0.135293515264453,-2.03130684150961,-0.783988371618583,0.318681852009479,-1.26654487760383,1.57149984161318,-0.163593571554522,1742294
0.301188642516276,0.945749026133428,0.436199346655396,1.47037612503092,-0.447065581681924,-0.0215247423379371,-0.858308336735335,-0.241957076899114,-0.7263335872367,-0.311700509529711,0.377078300562723,-0.98708199891213,0.107166871066965,1.56970704900143,-0.690065411971565,1.00668392133849,-1.20257993902273,1.06976232054729,0.138719607806496,1767700
0.0893497944395825,0.376382666873266,0.87670113002895,-0.408786961816488,0.582061165021574,-0.914412090076987,1.84493538439635,1.989823781766,1.5618113785943,-0.0946809632205808,-0.0601560546074022,3.51246429981636,-0.170373691874204,0.513734296062185,-0.132493483493622,1.15405203220454,1.55326324268562,-0.561205392935032,0.681356607189615,1768972
0.0394145328552414,-0.13333557039739,-0.524307554784968,1.22111608557062,0.340897817255157,0.189792718670585,0.0648154356628478,-0.0111137167668314,0.146800544964775,-0.114073940683899,0.466706406392175,-0.592798984677812,0.0836735601214811,-0.904190102745221,-0.555889781557846,0.260727579088344,-0.355437967184282,-0.240623989841074,-0.0582428354203748,1889409
0.594829207078501,1.0409327015016,1.61528692050123,-1.66716632937835,2.11380286032961,-0.77131597286121,0.468885763199038,-0.17725421026696,0.499806616942923,-0.272779415121977,-0.183209593921928,2.54039731861211,-0.470550210212099,0.561674953463749,0.130453336034249,-2.10436678666294,2.14298758083427,-0.689457735169481,2.1196349414356,1915938
-0.486494399234392,-0.19048197848281,-0.0292391011236253,-1.46977088226734,-0.0468019751820955,0.465780377773902,-0.852290596693494,-0.230881462884213,-0.720099611884276,-0.309098384681447,-0.251925637920149,-0.0690517231320252,-0.0307055914700798,-0.0961722300868594,-0.00339768021205812,-0.0491824079550047,-0.0112909497746545,-0.427308038854474,0.327708827730356,1916742
1.27358243545127,1.67426794809303,0.0489859210015019,-0.91516460565984,0.425837994489831,0.749686371789682,0.0872085856409081,-0.235348818361782,-0.297346876023529,-0.281300155910384,-0.203883442890021,2.12082946585113,-0.480507230985261,-0.355062975578542,-0.122517632845847,0.305007270917064,2.15853887288615,-0.700450718678033,-1.47111515947265,1919296
2.96017490846824,1.77199758818759,1.77020586659258,0.0154185150588553,-0.169083993415179,0.407406790689837,-0.145309489523795,-0.234253401920014,2.21665004973965,0.60930085321523,-0.46600044677145,-0.579987512283287,-0.468370042397142,1.17153330092959,0.66351079103214,0.36929790505088,1.39568987802746,-0.646917134934596,-1.57482319252826,1926770
-0.731952187154632,-1.00984643185798,-2.42326458697965,-0.783034342487173,-0.0438593295621611,-0.84002666904279,1.12168116640951,0.558791317772474,0.648281054804012,-0.240828283181678,1.32970410701756,0.329398907663259,0.260464120084537,-0.765811870024552,-0.180659925672769,-2.06779443059941,0.397837736910562,-0.374409719045941,0.0424486028377236,1938156
0.370953770244652,0.60683638016702,0.645926010101008,-0.591787836861079,0.257553028778359,1.05908695986515,0.863399353853444,0.190648236211638,-0.368802470632221,-0.139111209786783,-0.222137573311442,0.500829380862099,-0.242514380014965,0.539908469932278,-0.071679296466306,-0.0806302120535931,-0.23444729246257,-0.378871982504074,1.24056008935395,1938561
0.107728608831464,0.350597986340161,1.39222771591461,-0.411356597676377,-0.154154659471994,0.197400027995899,0.307127136531832,-0.165908234049784,-0.262282492734444,-0.231903818411354,-0.200438736309044,0.314486676304845,-0.415414776822864,0.96067969977777,1.72383323904993,0.331065712240222,0.0829457532116157,-0.470862188811378,-1.14115281224351,1966316
0.0398414333604586,0.881056750879172,-0.642960559495488,0.720257025257277,1.18798581900585,0.716903218728642,1.11770474687813,0.0619754651877528,1.5424273139251,0.977499715269237,-0.260845806847833,-0.118623406777003,-0.410031566373424,-0.525912841646254,-0.447071762332434,-0.16332203821233,0.503751740179043,-0.549722674890615,-1.82586768676912,1967281
0.894423515290486,1.12837274751485,3.4666910088392,-2.78751232249808,-2.08848455143092,-1.18753108387098,1.41293337784955,-0.15406684273169,3.54433553509856,0.128470401650558,-0.179186740988289,0.48033185366144,-0.48400776576804,0.335023316882692,-0.383905219446921,2.96946937486575,2.42339144040369,-0.713929297908893,-2.25647914010516,1973544
0.735253043721172,1.08947544760086,-0.214457802267837,0.25511333139147,0.301230568125832,0.0708624014687224,-0.826376613567522,-0.243745684764095,-0.63334155068483,-0.300986309994545,-0.446805546316686,-0.523853259875723,-0.263917085650613,-0.92090408075782,0.593603845978801,-0.249590914984637,-0.81298554277054,0.0622956394832474,0.00734852752518976,1975401
0.991809379189976,1.14557382889176,-0.87265536844346,0.799349999758464,-0.408298421192741,0.773920577957798,0.162166493099901,-0.137372633046416,0.197586249599103,0.166422997332617,-0.258825709508555,-0.257209501725039,-0.362153150620048,-0.236216002652971,-0.371283450340815,0.0546564944138812,0.264348019281061,-0.523145901491988,-1.72401792449661,1976407
-0.643122020969219,0.215987316923123,0.374309548281372,1.42728705933569,0.988799245466549,-0.0445889384605674,0.0250281060025878,-0.203491074962256,-0.169444379045113,-0.220400823502276,-0.167281899399452,-0.562670455644759,-0.403886411116936,-2.67851092306934,-2.68953668383404,-0.0471200212815026,-0.615240850355205,-0.302560331890232,-0.447137678515141,1978972
-0.4752551970598,-0.377702884982456,1.52952796802198,-2.38086972972558,0.491603904267132,0.504964587535474,-0.591167245939663,-0.243420082990239,-0.740022954398719,-0.312002654225386,-0.22405729161473,0.114326837545403,-0.45053070064664,0.789952021465287,0.91549715078617,-0.244826659348789,0.130416144497072,-0.507415716534058,-0.946584181240833,1979045
-0.846939739064889,-2.37238523871722,1.89650580257549,-0.4383994902727,-0.208519998141008,-1.78863031193441,2.79497017721758,0.153706783869744,0.697321453766714,-0.000732540691781327,-0.218913191353963,9.14166994117211,-0.479831373269667,-0.00236267742109975,-0.524810659800077,0.266401051411171,2.5088340638233,-0.718491739996751,0.095726071413093,1979422
0.459911057257567,1.28562668755511,0.954890131362769,-0.433951427596925,-0.233125029419483,0.840039739954788,1.16525054349126,-0.234664773033525,-0.568183794086504,-0.310293187656668,-0.224237262180142,0.711831590417685,-0.470433662941549,-2.37409303376776,-0.39359734706894,-0.401129982295986,-0.510842983454893,-0.259180962132732,-3.24357497342026,1980052
-2.05266178536875,-1.65053908012461,0.452748803952456,0.864410656253671,-0.00141332270841111,0.787429419835252,-0.535045558305279,-0.211130505425452,1.1797396362052,0.294420095168559,-0.358258484166431,-0.758619705850706,-0.22565653084525,0.43978147959604,-0.253288761345941,0.709194359642524,0.22715675681805,-0.532382740261102,-1.96750064942355,2001182
1.05662134191496,1.31116288507804,-0.0518902083125866,-1.12405435910195,-1.03248160316164,-1.8503834699936,-1.03202794371416,-0.255152206309419,-0.835558905566818,-0.314827995371614,-8.51816341518257,-0.967339832930531,-0.280692592887126,6.84053463409369,-1.18196203653098,-0.287265320427752,-1.30631170360402,1.74747932988239,-0.346670285141058,2002465
1.09256704739349,1.43447724533352,0.71026455623455,-1.51675274575986,-0.266265910985538,0.275450522981022,0.634743140196229,-0.128353240955957,2.98078860856908,2.31686043038505,-0.155898134046352,0.149918996090548,-0.477933071050289,-0.183983906578726,0.0730032737865191,0.737526401349312,2.43292158675541,-0.715562203650183,2.49513203937024,2004451
0.801086004382802,0.263753134748366,0.443470160872179,0.97758599099158,1.0446944285885,0.426820154120444,0.183965457123278,-0.207662031382862,-0.650690170418103,-0.309506153436898,-0.24912702945395,-0.0477006722620386,-0.358751685406142,-0.299071700427318,1.2449712602148,0.197055991617595,-0.646478200149048,-0.000700561841382605,-0.40380564081382,2006164
0.711180764637534,0.556901578804544,-0.225306655408237,0.652674268809305,-0.594103908819162,0.235887616112901,-0.211746754422778,-0.191251763332841,-0.145924319493932,-0.278814639643322,-0.196031223369239,-0.183501088112968,0.0253938624882452,0.688193451126149,-0.124135389211298,0.297763698251594,-0.0976342222526975,-0.302642717928792,0.667544332863295,2007309
-0.370166192252703,0.101926021741722,-0.619360034044375,1.60867605361856,0.59391494166226,-1.58536380155235,-0.584039922967627,-0.226524724178921,0.174314500070458,0.241090928978138,-0.215238867630181,0.825584716783494,-0.470752210962606,-0.224673165684335,-0.0782718847294772,-0.309888709265382,2.56904755990546,-0.720331190571925,0.519009882736966,2009915
-0.546574851551305,-0.148851763865249,-0.142578410440894,-0.16143133019909,-1.60343795878678,0.385604314022268,0.00257696798915677,-0.178189984925544,0.102994228173703,0.0474729402669772,-0.0026198887581584,-0.449261223529252,0.0738566424198338,-0.30709327801531,0.340133068942337,-0.188085719707465,-0.476418216421249,-0.175613173233868,0.16740258849938,2010259
-0.0301582773296114,-0.98746919432693,0.658121094000581,-1.15777599547218,1.26502228857388,-0.808855666734665,0.339981898739616,-0.116176999607382,0.376603615874585,-0.267304026530683,0.425866354048363,0.359409944025301,-0.354775146089464,0.239409624628033,-0.0944024350444629,-0.20437863563132,1.07632695021194,-0.577602662352913,0.0432297944767904,2010554
0.45537602821071,0.774311536698673,0.0030301900158605,1.19509806842615,0.550532748854917,0.377003490409997,1.15479273566464,0.286654305418228,-0.0260466129121602,-0.267433072592019,1.25443366848766,0.195854125297499,-0.103236230820885,0.224277492068315,-0.0403672007562311,-0.522864520601428,-0.836452994611153,0.141479267760982,0.104848501420024,2026671
-0.704459117444778,0.312454752460115,0.215584498344392,1.04873981586283,-0.805458109225914,0.470707013971645,-0.930231546647629,-0.242547214987098,-0.583802669083655,-0.285714561290951,-0.267062325301029,-0.646369394932636,-0.0970359954142841,-0.0656474879464222,0.0177968731434522,0.95039150431755,-0.72056837839253,-0.0277742307484373,0.746941662757722,2033049
-1.3885810501338,-3.32295354738466,-0.174052626497609,-1.00464505084035,-0.454232904568642,-0.0563172255824812,0.574679506559035,0.0705847162856701,0.137313609904324,0.200063332274503,-0.114997586797638,-0.255260616949249,0.0805631992135454,-0.484253283670315,-0.381015780701432,-0.645881521847522,-0.247204854714235,-0.32939588994271,0.0365427373253316,2034136
0.0496329850664404,0.771491465643578,0.804502784886895,0.407993855720463,0.998212044491127,0.435592312674917,-0.692686020368252,-0.237853472349833,-0.488053109368675,-0.294063108522504,-0.0905892358434331,0.33136546805709,-0.439866029954344,0.597864427891366,1.33539100094965,-1.01185756691826,1.04161442009907,-0.596868083923678,-1.19519018888369,2040495
1.30914188154949,1.43051925599822,-1.35620330874494,-1.10352723757373,0.288302192518375,-0.0547119877270893,-0.00783836122362939,-0.2409221630998,-0.214928772506063,-0.314566136334719,0.124224220849534,-0.604806471800591,-0.456417518431559,-1.00760517888376,-2.43161764816713,0.637740091615188,-0.266363047505285,-0.285333875812099,-2.82550989089611,2047354
0.669340715509419,1.03896373084946,-0.140064731695074,0.129946421217508,0.819073972345547,0.880110736093284,-0.0384739322613578,-0.181461726392431,-0.336072404869201,-0.230767391725518,-0.25142176466497,-0.29589262973915,-0.201201934179752,0.0966132747680565,0.0573545321826058,0.0394254355644157,-0.39901718948517,-0.205083898562054,0.0543578342241603,2051378
-0.00997255810249589,0.706209407861966,0.586477796678168,-0.193727670409868,0.201976227280846,0.630211069522546,0.681795428720777,0.0555496891394826,-0.327462109855714,-0.225173446454083,-0.214274993614882,1.13362104826453,-0.145145150431576,0.292471414017659,-0.220647882516828,0.265254175411346,-0.348415634835648,-0.319593813430656,0.682744133714957,2055667
-0.767867770303012,-0.0719052312615034,-0.260559590856592,0.706995254874513,1.50908717108987,-0.703401417892583,0.828981649500157,0.0865563772054109,1.73264867013544,0.365636829922085,-0.107086847680371,0.723176371053816,-0.390310702386815,-0.469714631154877,-0.313685078538229,-1.60339375840347,1.7143763250056,-0.656467720885034,0.771635956642495,2057358
0.465841784391949,0.0738814084125931,0.288219390918469,-0.0895047062302083,0.371967159996867,0.800062042237231,0.0750114978702047,-0.154379618068213,-0.844979278164515,-0.31197917969865,-0.149073867384003,-0.131883752279241,0.428165659614443,-0.131237638173184,0.076714170133283,-0.252974606196033,-1.08437776034967,0.536793801196957,0.717836284950684,2059713
-0.700606005189114,-0.0679039095274907,0.715421594514884,-1.26917798351173,-1.23557905228353,0.144514711123755,1.82639722560211,-0.110849794382147,0.382729342482668,-0.291631269360657,-0.0149462132377008,0.525181871116391,-0.438656331082113,0.725398811319728,1.06322639104297,1.01770267116727,-0.129952275200694,-0.391297348953584,-0.113495070175467,2069079
0.633590800010516,-0.0274438072075461,-0.514131986986265,1.09809424825087,0.933173656425705,0.38419803117627,0.993334762249244,0.134117160660536,1.79937687932868,0.0462326973098821,-0.261640013767373,0.0947569356618202,-0.366058141981861,-0.104921620528041,0.0172692810396564,0.198427423446817,0.880225190395149,-0.576664441284978,-0.674820537225144,2070958
1.08137693007146,0.890793351987006,-0.159606187347817,-1.38408293262806,-0.931550299767417,1.05792863870658,-0.150069406423525,-0.196619011332981,-0.350343872709729,-0.213128599073968,-0.050969388701257,-0.412763321197176,-0.19110958298993,0.0831451343915409,1.24715425056327,-0.517349021435961,-0.739657741306989,-0.0867358590607476,1.60694658520539,2072215
0.575248728380928,0.665151223903227,0.253229317486477,0.149934047974557,0.540371382418171,0.0738152231688314,1.84607199531799,1.03639707022706,1.70800929211257,1.05933409956807,-0.170280885646642,1.71771795563928,-0.327890442295587,0.666704692007534,0.0751286952819077,0.640350396716811,1.10797629177691,-0.601645465663236,-0.0647664699691813,2075832
0.759183985126285,-0.0932008171733904,-0.389222348898326,0.468180691675372,0.550969288761742,0.783686456806954,0.0639623033093384,-0.156580011096775,-0.489293639320056,-0.217472261134988,-0.24131367444716,-0.20552090130839,-0.105370798271965,0.30030150185034,0.355934360663945,-0.0842931324828162,-0.38546172982085,-0.324971589116986,0.780993404196544,2075846
0.893108743161243,0.896504223840925,-0.586667457381277,0.0155179395285023,-1.52654883585346,0.413220239940006,-1.05187444433631,-0.245596249367327,0.956401670669849,0.015752618424078,0.33448896113874,-0.933592648028164,-0.37898527440489,0.204058019476982,-0.937842930500075,-0.197370079635107,0.406907807031555,-0.5196563516207,-0.778294325946721,2076301
1.46149885957297,0.439658615959985,-3.35196662860617,0.347225745153896,0.397033348213233,-0.207111847964153,0.824605260569728,1.14361246589433,1.05628667828218,-0.0198391093891833,-0.0501934229176494,0.713951905911372,0.268407117820939,-0.303256281193345,-0.197792221760616,-0.761016921617051,0.656903648519139,-0.489072979576312,0.114278064206191,2078198
-0.312467211877189,-0.100757177476267,-0.680426878913114,-0.434197485189657,-2.16410966356767,-3.33254816742002,-1.30892965491181,-0.250405657123087,-0.965719942495295,-0.315262338245857,0.300637740014469,-0.96603236617749,11.9772491739452,1.72850751681341,0.677110257697607,0.0952673702944832,-1.45837414579112,6.6560152650629,1.04539591381226,2078899
-1.35168810148386,-0.146121344278983,0.00460727300131236,1.10201577195468,-0.0487290074895546,0.558865345291232,-0.436998562248768,-0.204138931108679,0.0431698782313119,-0.082851108513862,0.115818553958317,-0.622525736819594,-0.211646895914538,0.0646426561240856,1.18955866908775,0.401407399345217,-0.343251943360174,-0.257455027517375,-0.0828618526317057,2085349
-0.369495072513078,0.00409704540080731,0.609343433694925,-0.367879296449576,0.430921684754903,-0.111796003171897,-0.486790211053836,-0.223863859545745,-0.545715395744981,-0.311141163845606,2.43876439743778,-0.478490978974527,0.0411544456193587,-0.61983846353323,-0.181476390057196,0.843559228722383,-0.71946619942587,0.484432856035111,1.10966636142236,2086044
-0.845595799680662,-0.845249065427108,1.61899035343754,-1.76829849620444,-0.860103507304769,-0.694607155745006,0.294249769010322,-0.17614758588812,-0.553461089604009,-0.282084250215493,-0.233866112779405,1.55465240770516,-0.372335266823066,-0.164122098810995,-0.0881308628953862,-0.795607964754948,0.966533680544292,-0.540494778866244,1.04261597782811,2091555
-0.945528316117782,-1.06754934797776,0.51915979255015,-2.33975739451181,-1.17832951719094,0.503417684032639,0.892979437997321,0.0275297526993838,0.514774413310003,0.082309067766047,-0.199905011457125,0.962969226030865,-0.37692648779668,-0.128917964292091,-0.194225541265189,0.0407569129917887,1.02852087628233,-0.596124187395041,0.367740658782673,2092954
0.383850016934045,0.72292536195948,-0.481716964660747,1.85761384427523,2.11267187573108,0.502832067438158,-0.880061838550358,-0.228124158134923,-0.685531895958373,-0.295430717793593,-0.232834000610146,-0.526270692666027,1.07289588545283,-0.0156629302312548,-0.0596974484856773,0.228247675197095,-1.05357033802047,0.651737944338651,0.759600662785588,2096627
-1.0320455677541,-0.170147818820634,-0.0848106351819144,-0.292138168821555,-0.535977577270711,-3.15283663455633,-1.14179957901534,-0.254417681247433,-0.965869637867358,-0.315305679277157,0.119037135139125,-0.877978903590668,0.146619847349991,-3.52137809938117,-0.666392130313789,0.429221095773586,-1.38651852468597,3.23761899396955,0.313495388723616,2100050
1.04588840393468,0.702847542540175,-0.574628560007825,0.847582179059122,0.424546573816553,-0.109876642021234,-0.622816964240422,-0.227118162855985,0.931627990714053,0.298623127880531,-0.476776794971922,-0.339326799705567,-0.381744638712235,0.249370789730725,-0.30221336475984,0.145364807682778,1.52493058200311,-0.650363540416973,-1.57480623612181,2108003
-0.754934081263597,0.239827962869455,0.239044026438577,1.38036893814805,-0.0198847395880284,0.741860521821566,-0.207138789438894,-0.199318320992644,-0.182687188459107,-0.141021854803481,-0.266307938230567,0.112591469456561,-0.131602319988061,-0.0306396449996462,-0.450049188167467,0.763782009800144,-0.00443566426060076,-0.381991484851471,0.959800704283675,2109902
-1.06443069370292,-1.3565633466005,-0.160151471155048,0.149176668215532,1.15403851212786,-0.351802937955074,0.0997319289946994,-0.173652361005544,-0.208320047978368,-0.300217509698926,0.140885383327689,0.459217197516511,-0.336163674604956,-0.658634223902754,0.0971281294930521,-0.00412101270274698,0.479084370136854,-0.48487783665273,-0.0615237146798093,2110540
1.07800787040305,0.175551210225566,-1.82081324590088,-0.645550564738219,-1.42009373391502,-1.0452826300756,-0.921374830447019,-0.237911502797704,-0.755232511435863,-0.29839317014487,-0.18605921376326,-0.86854379168398,1.8730617084247,-0.109954802091326,-2.24045880292362,0.58802401426974,-1.37305830760685,2.12837317164921,-1.66870831476463,2116787
0.0226626413624815,-1.37615775171733,-1.82447794969539,-1.11562310560506,0.404909297266641,0.00703434583042787,-0.307427746913954,-0.211032088789549,-0.139563101153444,-0.306710551159448,-0.0896440700959577,0.0907563145497031,-0.256552841297658,0.0139197311030387,-0.375351765555391,0.844878483599182,0.144881944070102,-0.431254301749852,-1.1409361776678,2119177
-1.53263920344988,-0.950235778556766,0.193864318727677,-1.28000567921977,0.272060199810735,-2.03623774370422,-0.173530502355957,-0.205380631525937,-0.580257765771573,-0.31403053910302,5.48059177436703,-0.0950981686792926,-0.0925446049119723,0.873467156343129,0.755000915914104,-1.27387882800209,-0.153837313959283,0.113591257605728,-0.723105732943933,2131601
1.07277202349444,0.668970493021259,-0.217905414327639,1.31341037529039,-1.07110488726079,0.386036708180411,-0.602394317368042,-0.237840922758077,-0.516191677697392,-0.293842248475257,0.0591385204774274,-0.877774621276763,-0.173323207310388,0.165994746099685,0.00358426882082451,0.298197396549194,-1.02153720063659,0.334061717302114,-1.61770785407684,2132424
0.521651761155441,0.0249734138988879,-1.36566647503173,1.30753578252781,0.224900580698485,0.825390765226261,-0.724837299062396,-0.20546262828883,0.430338898620138,-0.00137578595210701,-0.239680184109175,-0.396403903052442,0.272881867987458,-0.0604808910184708,-0.144450512249326,0.185873397968194,0.0640749993227796,-0.39771677603627,0.274929025245924,2132982
0.764589995163186,-0.376769889664138,-1.51798493195055,0.769691148432144,0.128480874389846,0.764608095546556,0.0145922484407255,-0.0385669199030715,0.0397066104179674,-0.129792265325824,-0.0828261715488059,-0.295687194660273,-0.00562355109998714,-0.150176131045322,-0.0308013537912062,-0.396033802919415,-0.163783108298946,-0.324034514399064,0.927372179932539,2133204
1.69469968206303,0.91763197149809,-0.358753243383861,-0.872771935970221,-0.0180860869504114,-3.96784497242236,-0.41702118713087,-0.206959533589312,-0.847214531657439,-0.313193379562255,-0.0889036623915786,-0.872767288653577,1.80384758998932,-0.517613020898875,-2.37853505356694,0.198718826856496,-1.45082342069876,5.09429208123838,-0.14745305486757,2133380
0.65477298080012,-1.27810794088601,-1.20349572847444,0.868712139563539,-0.133273868099181,-2.8839548555768,2.32188737948039,1.68043662240082,0.352163089342488,-0.206507349445182,-0.184896141926445,-0.859243458292333,1.97914986176099,0.230225726452475,0.0536448657826392,0.0914797586790972,-1.40829909062369,3.33237829557953,-0.782860248182347,2134220
2.01409762048296,0.609772241363312,0.659111095473784,-0.0315478180977386,0.279856768818029,-0.140993859125771,0.968088265596866,0.134466408358964,-0.106525295495807,-0.303627031931911,6.08383918016099,-0.0868468382711291,0.627567355290687,-0.219821994267419,-0.435463194026078,0.287356637221338,-0.498892428804064,0.142449840499135,0.854228530877345,2135748
-0.147476343487264,0.103042129153747,0.454389558138973,0.461607636827304,0.143878138195671,0.415398346864268,-0.582687985203054,-0.23887869828005,-0.762623823163828,-0.312888282427141,0.677576492921962,-0.877316373668807,0.0662779170619376,-0.723556307191703,-0.692994814809259,-0.575644744472275,-1.22634647256528,1.20912570663026,-0.193724423969394,2137799
0.976351292207183,0.554341104428546,0.394337596617087,0.0926030855812712,-0.143168934538038,0.33317709855696,0.711379326051444,0.0790261627742161,0.254306244603396,-0.232226241733806,-0.185414589693645,1.21311735052229,-0.087534525413267,-0.0023123432527945,-0.107465828480458,0.0101699979048906,0.496815501891753,-0.403197327676677,1.29541935371041,2138375
-0.391288769775571,-0.38924112255418,0.282320166979741,0.904186338564582,-0.36836806585026,0.0290893637672182,-0.431307905795639,-0.198107310210963,-0.0411285871076053,-0.271924353682334,0.442220595004609,-0.382508244983664,0.564423970942366,-0.0516003907290263,-0.268940733854874,-0.855116825191977,-0.221482425063564,-0.0238699255332855,0.034815690474255,2138678
-1.47417591695438,-1.75386415761664,0.27820621997781,1.00722213248195,0.34992531216245,0.400673311446252,-0.601541725210771,-0.23707095661685,-0.294470719298808,-0.31146330760441,0.137722171396347,-0.460574359869822,-0.301725919340991,-0.637608520898401,-0.541978569272801,-0.800697342005223,-0.384559761093253,-0.158374415793953,-0.226045629986933,2139733
0.614912498130128,0.0395200036030996,-0.167585468910134,1.20476161924482,0.652060739323614,-0.0290306832556129,-0.322964677667233,-0.205858663930388,-0.558981960139456,-0.250436764332057,-0.171720558124861,-0.649159108032078,0.0368334888565265,0.878524309466353,-2.17843174149485,0.132198142585451,-1.2220849112011,0.656249268133339,0.867858737308565,2141116
-2.2421431286749,-0.904479958601092,-0.561005518121345,-0.49958143760699,0.162359852621386,-2.43745997467142,-0.639829901100626,-0.252186425462725,-0.884831411201054,-0.315260535189631,-0.312131317277889,-0.924957631961346,-0.145481453340441,5.01630110325336,2.96097474781827,1.18207199598908,-1.41097702620605,3.08798019407393,0.255237466618116,2144796
-0.543460337564375,0.766276801611754,0.158060313163891,0.527165213872564,1.2239971670667,0.88386980857096,-0.451162068083469,-0.245240526429471,-0.342600256232716,-0.301265699872878,-0.582796097167547,-0.802758401454773,-0.401983952118038,-1.45327584967609,-0.341097490246862,0.272005121780358,-0.914929089397841,0.0605527604250802,-0.723177800765398,2145166
-1.4527331200106,-1.12881033540321,0.174346802292367,1.35134188856155,1.14477959431643,0.460077564154694,0.387485531390601,-0.16321518611168,-0.568899367049384,-0.297464968679015,-0.17429548404221,-0.580392955610042,0.397720840836041,-0.925054612341737,-1.76059700584419,-0.0467061567655917,-1.26632036796115,1.33147897889961,-0.790783777041591,2145694
-0.708144632398255,0.31578430629246,-0.47532441807291,0.844968272176509,-0.327161888717087,0.0768768008617012,-1.17235330420649,-0.250876004327013,-0.869553822515728,-0.314988964547986,-0.640318492019197,-0.738016791553523,-0.117991858624536,-0.673623149352199,0.61283140232938,0.442203631255547,-1.01040544761023,0.369450253212121,-1.08668812890709,2146138
0.592912462857213,-0.0986997910146555,-0.717454998067611,0.87622449960465,0.752088458021801,0.517834071834274,0.57756435208774,0.473074382952604,-0.763640631508069,-0.303674932210867,-0.242891722656329,0.287072419291809,0.401397439676619,-0.261119461772915,-0.044871192498273,0.189768947968709,-0.625169626411161,0.0740138688563516,-0.457810687452728,2151024
-0.103644381954109,0.84051468172083,1.38946041634865,1.05008272325256,0.701316088636037,0.687375542591534,-0.455821648525596,-0.224686729465102,-0.615923564452621,-0.262904911833174,-0.250274962378695,-0.0910479883675794,-0.312234763115131,-0.515619915309594,0.0439599709820848,-0.146035401047779,-0.269932808783224,-0.385532757163621,0.498679342920566,215131
1.77092468844852,1.5372801343341,0.916642719066634,0.476585299295819,0.08587738268361,-0.773450563527896,-0.154212429601414,-0.239217405613376,-0.377297272331894,-0.308632461991361,-0.00780864496432329,-0.55912218366093,-0.361402935522218,-0.286575949727512,-1.71910895448539,-0.774718303341315,-0.635653351379087,0.511522446559077,-2.36648254512957,2152442
0.945409165828756,1.52500002885946,-0.734655555719279,0.546438387656717,1.50239593571417,1.31203693009028,0.683175894113824,-0.191914143028629,0.906490593009051,0.433764920296195,-0.142114527918925,-0.221602491535664,-0.459005409206951,0.833935648395277,-0.123908367650768,-0.257818722355703,0.182972391662003,-0.544759751571973,-1.52131452308796,2157529
0.374312299638591,1.09778903225948,0.0697265148430636,-0.838261430140378,-0.722544324591835,0.400437012185664,-0.667868884317781,-0.240039369155388,-0.51667584097118,-0.296723302624634,-0.29395808366597,-0.597239762269579,-0.394634357335683,-0.467845849593232,-1.38580860907227,-0.583873932405211,-0.350017938893306,-0.360813609825568,0.26250836091239,2158101
-2.00968820925369,-2.63686345578586,0.663489683103306,-0.401208710510699,0.452659306874556,-0.286057908200596,-0.910692025665923,-0.230192151515687,0.242893693500449,-0.272848138971883,0.717018819130152,-0.268646026543807,-0.129851057842169,-0.264430651756395,-0.249608907387748,0.111630341970759,0.875365047738879,-0.585430680630593,-0.125381662341642,2158329
0.492687994320989,1.25106629520799,0.830103460705328,0.769316350484354,0.784905695135904,0.253763079361185,1.56628055479631,-0.115937760089397,-0.338019937213504,-0.256459581424058,-0.215385560214766,0.62520226827625,-0.441347113601024,-0.90476596936558,0.53963069646771,-0.159416157606015,-0.0358466248794141,-0.462810195263661,0.133513680831278,2168082
-0.634524445731623,0.414995593760223,1.36757069527412,-0.393135207584905,0.268626264719117,0.150381930160706,0.857867486824853,-0.0996465028828368,2.33083087367964,1.33418178857905,-0.238219526079153,0.385146159971775,-0.464101857159895,-0.210591953902387,-0.773635432132948,0.727300793955751,1.93363622429065,-0.689534908993559,-0.0711873544644616,2172217
1.87111035434032,0.584356949161065,-0.569265631035084,0.193870880160396,2.56703948062979,-0.0791808337797181,0.637205813185025,-0.0814872734703614,0.0480526504563702,-0.23289178114329,-0.131642355443394,0.498955486958917,-0.352371367438641,0.185069284994979,0.798495653008821,0.097940460208853,-0.208967852282345,-0.364057805822474,1.14616947312279,2176530
0.799763937243079,1.66244433980194,-0.0600590095742735,-1.57136546680778,-1.92895132452083,-1.95645974350695,0.391403596929395,-0.226886247217461,0.244949729358362,-0.309406344046698,-0.303557802549786,-0.227449063320814,-0.477146765537301,0.451941862073021,-0.279013520831949,-0.155649575130201,1.50133447761667,-0.592729611712223,-2.01691049920596,2176784
-0.298266395678243,0.644524427405027,2.07891598845085,0.166792401521035,-0.892442021646246,-0.145311156328351,-0.0469596924769251,-0.214854938047528,-0.202162368254696,-0.310667920007248,1.56036759621122,0.976185371496319,-0.38088283720086,2.43964855133358,0.0349280677864059,2.20889333040767,0.564524713088691,-0.292022887053667,0.187398000453716,2181724
-0.698628997910653,-0.365854840690294,0.11034940451966,1.52420535416353,0.0432451113928446,-0.121168564727868,-0.152269271323428,-0.172404662123765,-0.327640144840133,-0.290365859055458,-0.025764233595154,0.129694932635472,-0.25717019501702,-0.00630899545829742,-0.192723831297934,-0.406975285563105,0.129145665424975,-0.385841478446982,0.278137560976352,2183291
-1.46357959428963,-0.270742216557821,0.766179723221207,0.767091697743148,-0.0746147804294011,0.59460508030516,-0.969280027502771,-0.241843532470211,-0.558149286543423,-0.296354498201142,-0.134239366837038,-0.211649156883733,-0.0683940571005082,0.204464523562615,-0.421090072467695,-0.247188723987547,-0.383855709536409,-0.205664802213504,0.414152650689352,2183356
0.594777211961644,0.843883616902731,1.3316294574998,1.34661811449282,-0.745897924379102,0.72426147509801,0.670067866515401,-0.108253699287575,1.21466499509222,-0.0848672848932734,-0.217285162824951,0.40191318905583,-0.421086904678141,0.0890451520506512,0.116596131263796,0.584355014230883,1.04601229231496,-0.593978595514142,-0.156745902472737,2185290
0.700701207541361,0.531421742049124,0.549665484046284,-0.170291417408413,0.478251780443034,-0.683835742844061,-0.0240195478500708,-0.172923655574529,0.0688092914531876,-0.312670101047445,0.627082215335581,0.759157714197797,-0.186921296246894,0.194493947704828,0.104027304942218,0.975015105582646,0.379769630911329,-0.17834380046753,0.863982323108821,2186951
-0.127209014057478,-1.2071542495553,-1.20041043128023,-0.0205858534386014,-0.588917080261674,0.00229137987730668,-0.607153845910371,-0.220483962414998,-0.513138625410613,-0.203148956161688,-0.187193791383895,-0.494834878536447,0.115381064929647,0.577791299023787,1.11756206278321,-0.0419593383951151,-0.445896562317737,-0.327754872749201,1.08117238465294,2196212
-1.31227964952173,-0.684435424573519,-1.90856520342887,0.0673045377351498,0.375139061391129,-0.920744602163714,0.170571116957379,-0.154364598369662,0.371233394218667,-0.293627270815836,1.93175309921839,0.880142759506821,-0.248555057642324,0.229347261262527,-0.0962503291416197,-4.52400323064081,1.04833173691242,-0.348348744584089,1.02873829710867,2199403
-2.39389663691186,-0.480256328340481,0.151024753593425,0.461595131781666,0.476023180903047,0.692063508168276,-0.769913394739869,-0.247886525226336,-0.965091214214999,-0.315275326172727,-0.328685286416418,-0.762706214643398,0.0266514137440865,-3.04774575973661,-3.12581709682049,0.0454786724609395,-1.33014453772924,2.73753121783179,-0.200223747726726,2200416
-0.696969473467385,0.0074058939244319,0.665889034634105,0.093544520137268,0.820508831873518,1.05001371724134,-0.402985196486391,-0.229276902951943,-0.759544125074995,-0.305641997308551,-0.20982365289622,0.198882045156558,-0.369676265856899,-0.617690919747453,-0.753242969306009,0.334966995084294,-0.122936527061987,-0.44191917595463,0.144731389431049,2200813
0.0967393869274883,-0.0893525795629725,-0.405566573027586,-1.94652579024747,-0.267372648413141,-0.110740313698177,0.21700707218359,-0.125324058453358,-0.411403254613144,-0.25258465212903,-0.442647936452056,-0.422703492289474,0.262794533268966,0.33308468365748,-1.2265132061375,0.213461753992608,-0.917747178053739,0.352758975169221,0.438612524226658,2205389
-0.327974359353684,0.00955740485531746,0.145015465874868,0.976154760167551,0.0791464277611859,0.99477378980185,-0.228139429865357,-0.217029781567247,-0.774950083288981,-0.311394409627395,-0.151724122625883,-0.43303315019327,-0.101263217647386,0.216093048658949,1.08505629452766,0.156263362633714,-0.785408991792218,-0.017431534266736,-0.387449417425522,2212664
-0.819013213000494,0.753876603021779,-1.06926542386092,0.183527976748231,1.05413071916691,0.757095805841837,-0.088434948836837,-0.20456243691759,-0.772568826607124,-0.30775544606114,-0.239770376609254,0.531356327976789,-0.146174711709617,-0.0440306810352746,0.140544902646751,-0.0140772323180839,-0.582457153004709,-0.19907696336707,0.673055606884964,2217034
0.59600648082854,1.15168689707525,1.17613789418715,-0.922824749032829,-0.212748372908564,-0.0851273373119098,-0.24670926903942,-0.229687498253645,0.11508621550885,-0.298956592786078,0.104701281112721,-0.5059149617809,-0.429215368515246,0.278788993138845,0.357311240209982,2.56449276329724,0.370208689402128,-0.464715856557699,-0.716236901263988,2218615
-0.407642704940069,-0.162289294532762,0.705667880483412,0.483318985558836,-1.87961448003775,-4.22626366539973,4.84583988755089,2.24210030250037,0.51082540348024,-0.0680085780645583,-0.220667393441411,1.40274803793061,-0.41744818804632,-1.21487073965116,-1.12706337959104,0.128648349260043,0.894117391858186,-0.596389914346323,-0.881335009778194,2219842
0.798378778614085,-0.751099515997896,0.369815179163258,0.152863500505359,1.10493261194971,-0.414748867688515,0.493875869225098,0.0745838117868402,0.295848539500122,-0.29391351606233,-0.089551852570263,1.51761635794643,-0.29666076993668,-0.34148999539036,0.00814381010030849,-0.31085777404997,1.27284262043701,-0.59491631273201,0.512006134279638,2224150
0.93878230183111,1.14788882008765,-1.72300340512905,0.88268013632215,0.593572348510443,-0.783432467530349,2.2662297888941,0.0465186035743938,1.13593030639219,0.263425038284972,-0.237603192119976,0.976993245093848,-0.473311057228512,-0.309782186024189,-0.247646720025517,0.328225276559267,2.2924464877549,-0.703708010286887,-2.33225804041853,2228399
1.32053877146635,1.40549303179218,-1.28883124861174,0.0658793043043385,1.50701134592484,0.452422348180245,0.0417151690836587,-0.135115615905896,-0.356424064776732,-0.252516049953558,-0.281028814769,0.469576030637113,0.0307083704728788,0.0291015860190755,-1.00019994810399,-0.0766110021616955,-0.164598049752939,-0.133439880602853,0.204837163210921,2228400
0.397288091869932,0.650972906216635,-0.706793534783665,-1.14704543599641,-2.88647459813871,-2.74445360299114,-1.33873390872156,-0.25280873108354,-0.954403577926344,-0.315265900713418,-0.93262790658634,-0.959858593517996,2.45717929995649,0.217849637075727,-1.42259822695057,0.266305818901812,-1.42771201212117,4.52434687744612,0.925300401633738,2234271
-1.24035367508968,-0.798891411349611,0.631608503226788,-1.38101137081798,-1.16161282701362,-1.19425409940772,-1.27320716679254,-0.252096917276208,-0.875486916449673,-0.314705213839066,-1.0385976256323,-0.898390525910683,0.570328941388143,0.412208529672846,0.0262030271379451,0.199565368144151,-1.29416845809076,1.70233862872438,0.709432645201407,2234422
0.135155869662634,-0.254481904310293,2.57391720134006,-2.59922226718384,-1.1599336414607,-0.237005068800544,1.36269457478657,0.166879512743591,1.73449810797647,-0.233295061747057,-0.192470670714338,0.656323722996894,-0.438709917815771,0.150132360460471,-0.182443454083986,-2.27396668229248,2.04469375559365,-0.679058094415868,1.37420556792967,2237571
-0.417084805223878,-1.08198434930286,0.34493321582754,-0.112293277503852,1.11976759759464,0.303665345227993,-1.07031446934489,-0.244303739242632,-0.292627919368791,-0.263483033131991,0.0114836936326168,-0.322573111260362,-0.342809884317807,-0.351384298973545,-0.436572128744453,-0.207914301401351,0.181507160098783,-0.467165320769041,-0.0784364838783247,2244172
1.07698051802676,1.19796011319553,-0.0740004506010866,-0.198798642354317,1.64805235807484,0.510263906711398,-1.17312156439017,-0.249654365055608,-1.01071344938549,-0.315361364554187,-0.31441624395647,0.128880728657576,0.129860250614094,0.294650788548717,-0.289801145544647,0.992036962373494,-0.845931743748605,0.391620660045109,1.30472929395239,2247869
0.00511366324624502,0.753928282790796,0.738133884761823,-0.338500895482594,0.482846641998631,0.720716518254323,-0.0265500742198412,-0.225937974031616,0.393055389490783,-0.167471675670456,-0.253486277674735,-0.056979847977349,-0.460175870479477,1.10230419909669,-0.516068656900262,0.487171569107004,1.2329012602127,-0.62729350493762,-0.489369664988563,2250648
0.650178251652974,0.52827338324136,1.39974713620183,-0.103389910618761,-1.28588124995335,0.688784403097879,-1.02437003929894,-0.241508400150088,-0.69854333244887,-0.299608512291354,-0.230943343124073,-0.599697181416372,0.140347415301697,-0.215359241418591,0.0668652885455607,-0.0134984332428532,-0.727337165640573,-0.119557452085953,1.74487288784664,2250836
0.287502806860767,0.653821962674855,0.140251464516853,2.08454632423494,0.539087501714201,0.723913059314247,-0.625463408571122,-0.2209753250817,-0.577026624060886,-0.290520526774031,-0.23659562299656,-0.417751247410433,0.724538437207771,0.440873489797112,0.142185523172441,0.0158166486763137,-1.03883075556061,0.892304687782949,0.2757263207076,2267382
0.713355439203871,0.457036873594675,-1.71740426241899,-0.869849653550287,-0.861722561024879,-1.89247595886348,-0.653611924896687,-0.218136256357003,-0.586359464692749,-0.312994868396983,2.97808240907906,-0.511481023818888,1.35235731179708,-1.04403352023945,-0.290807645887963,-0.0220860493953649,-0.684880475716802,1.74956369769844,0.550013268858614,2269346
-1.15816819171594,-1.0197467097641,-0.355388775792002,-1.04231260108078,-1.50276147403195,-2.3284315374248,-1.24227787221038,-0.252865039002422,-0.929540321125517,-0.314906513948999,-0.571468611340164,-0.869454462333092,0.47213767066761,0.53079366353186,0.286541129508749,1.4449033548769,-1.33816859155245,2.10262251329905,0.340345163175722,2271329
0.549404935136304,-0.29564728668704,-0.392398240963051,-0.566655333673667,-0.421308379408783,-0.707294571460874,2.59247276943078,1.62982619482982,-0.109353890392706,-0.217693824051454,-0.196206477270898,2.30920873725159,-0.371887202669707,-1.23635087381149,-0.273250816223485,-2.37191958961625,1.41503191496562,-0.62688994134793,1.10255981456876,2274521
1.18364654837574,0.609965181687357,-1.5073316060013,-0.925984408377722,-0.0736371617112708,0.131337969969727,1.29429092987731,0.612569110996296,1.86338906721321,0.351103491850547,-0.204126351936213,0.168496218798809,-0.113886232036669,0.0865929824882124,-0.23832349383432,0.6867980663599,0.97678305403641,-0.548728417804324,0.892718733793586,2276121
-2.68510695009715,-0.411414243780642,-0.468061952393718,0.710695270521847,0.713361640263787,-0.0995141652107741,-0.45524757984538,-0.231311523910699,-0.506947943127078,-0.31041813280424,-0.382430717266058,0.434279856381523,-0.449319809578363,2.22057050176462,0.851035896143645,0.96619442896656,0.86762036540438,-0.580363050983032,-0.655565802742175,2278618
0.0627469826023023,0.43350941230006,0.847387030875405,0.41710962011134,-0.546900903823333,1.05527428218088,-0.752787326968324,-0.235405943723641,-0.676811175652157,-0.313453523335082,-0.0538143681400345,-0.490663318452055,0.295633438613412,0.170528663950972,-0.0201284996363694,0.0908048196920927,-0.946625518052156,0.171502788665548,0.418513315685961,2285214
0.407260216489955,-2.22698463218435,1.16154273593392,-0.0377688716648829,-0.0854671691734651,0.626315763669524,-0.674104399425471,-0.231598936503014,-0.533378515839209,-0.258078202262196,-0.198926003399069,0.101348967109654,-0.119854178084938,-0.796191041485504,-0.40728749936394,0.147301116791433,0.0305845320896388,-0.434090672730274,0.236154059212028,2286108
-0.573307878100435,-1.4265319541212,0.522901625435114,1.56003447167329,1.70467141160047,-0.716233226251473,-0.714421589417509,-0.213579523223517,-0.259853322430398,-0.221976751084289,-0.0634957269831831,1.42708978041186,-0.0605833661963337,0.0882800558080101,-0.15544871486817,-1.24947134862022,1.20343912937581,-0.569421921136449,-0.575284713142559,2293123
-0.0842581847308578,0.440261437854265,0.456350532024114,-1.09366085989749,0.321678367256504,-0.104718747769528,0.699674818864399,0.446470231469537,2.77597321964097,0.689185311663133,-0.072409614242421,0.0177955370552925,-0.272034419405601,0.203558496784029,0.0365529376501245,-0.101581541829632,1.65929175461099,-0.665638015275626,0.0125561036417164,2294852
-1.36244586984862,0.12093435656221,-0.616949602224166,1.89785125684508,0.109483550795859,0.635092208136032,-0.299397331263783,-0.232540999010893,0.972275556624696,-0.166049498691259,0.460915948959569,-0.643091379279434,-0.441873363216332,-0.15915067064539,-0.638375337434896,-1.41653784552703,0.944542760241676,-0.603993470619796,-0.127378180373373,2294873
1.05151022927119,-2.22135663395886,0.387370553329391,0.638038125245294,2.20968807317021,-0.803717021718748,3.17008397999964,2.01012653474374,3.08798300150689,1.14980824857642,-0.0287068484524434,2.63704295895106,-0.426549064675335,0.0670329858101126,-0.0999105957381307,-1.96289643314575,1.98664446541726,-0.683150598536753,-0.307091185081902,2296332
0.0246746007087301,-0.079036318844331,-0.563964599126856,-1.9172721996445,-1.16338716848949,0.905458694416399,0.175097742027331,-0.208598935282976,-0.595510826566961,-0.293811985554411,-0.180040661538024,-0.0450733967782987,-0.269257685732539,-0.469535463798111,-0.279420100856823,0.128049136264299,-0.664638238788804,-0.0986913805173315,0.273827196469912,2305114
0.802971843864825,1.05091411216456,1.09887396058009,-0.555829960682065,0.318617784253863,0.658077558656624,-0.59279800572733,-0.219590460910831,-0.5155124967275,-0.308123051662371,-0.0142144278010245,-0.501053881103851,0.1002094124485,-0.549748929500838,-0.626300197071821,0.119177473607462,-0.601773922369613,-0.134109369446102,1.31987208870909,2305115
0.327230890570275,0.780059167883707,-0.603704141407778,-0.783198197109157,0.859987934559479,0.803196354731288,-0.67593147161622,-0.25000965877658,-0.654004900522204,-0.309719909490803,-0.230056650403578,-0.34449750401348,-0.434633654475441,0.153285526415094,-0.773718462720473,1.00232411861932,-0.719669440467485,-0.170656560385318,2.31044125921793,2306459
-0.634492278226385,-0.480856192651335,-0.607798068430162,0.925136641072789,-1.62905898799821,1.05789863976805,-1.05497245559668,-0.248444965804935,-0.627655744305545,-0.281408236954101,0.674098090730633,-0.796413868640123,-0.305084487524503,-0.453601127191141,-0.0625416453821819,-0.534209968639132,-0.256549698105667,-0.382171924408589,-0.747817374444291,2306893
-0.0890738527163246,0.446623010153074,0.45507523334568,-0.778596787561907,-0.630983972250753,0.435219586378645,-0.202731690212303,0.0133759323199923,-0.319377346136156,-0.19231121303819,0.247465916645421,-0.421917663468444,1.62621969615445,-0.738922572690626,-0.0645405016806457,-0.816350063249359,-0.593059597978581,-0.00340298649952867,0.109361827834504,2317120
-1.61367010193134,-1.09832459520783,-0.885056235744214,-0.3104599717073,-0.0601129736516604,0.208593466458218,0.0829334341484298,-0.126768885531498,0.507013902667008,0.159463853314392,-0.203301372408114,0.0335823131457038,-0.143971453744907,-0.021377913175686,-0.0792342722048248,-0.0455360616533884,1.2592050159091,-0.632420181928625,0.156203079557789,2319068
-0.198259213832942,0.285839916130023,-1.23227517564909,1.1371460308849,-0.351794153911078,0.970703042952589,-1.1348656757822,-0.242143276843329,-0.841849897192243,-0.311072283439129,-0.250546719590984,-0.498182062572541,0.898367468915029,0.622986461584855,-0.824662161482747,0.453963589375176,-0.9249820642236,0.24935196511322,0.677962527095765,2321962
-0.227412851533743,0.718292664013482,1.58873442060981,-0.592114234627762,-1.6472035605267,0.665344459495559,-0.521781267044067,-0.216816948527895,-0.383771885262317,-0.206303359218131,-0.179818673259991,-0.178905581179153,-0.0461465516925377,0.174125314602596,0.438169337827814,0.331645585561683,-0.584406913280175,-0.10786679902204,0.194711463263942,2331869
-0.100077158902714,1.22048304672132,2.02963378061201,-2.88674699695739,-2.23171977322334,-2.72405069940345,2.81070501232487,0.107911834418771,0.888951230650668,-0.158788921517409,-0.245167353744152,0.62486888149112,-0.44967545819749,0.906682573965659,-0.315584869047266,0.37605910569423,0.652639349432066,-0.542031234233098,-0.224908085617492,2336735
-0.40199154776579,-1.04565316707185,-1.10322495409269,0.196478071907641,0.0398325063341076,0.622494938118541,-0.712246596699256,-0.209528081701809,-0.189006217204195,-0.0528240244727674,-0.0431053751618607,-0.503575717702451,0.472811627200085,-0.260041745898418,0.204353037182496,-0.0975495873040003,-0.143584691284345,-0.374885206654443,0.131345771268678,2339674
1.02923837883991,0.5362194506874,-0.566179223459392,0.504105631528596,-0.12244461615059,0.808899967410277,1.10763140903512,0.69361137385843,-0.000460049799222794,0.348800098352431,-0.214835210767049,1.97367887485537,-0.297854910596329,-0.288554995700035,-0.200088908758175,-0.27729774486345,0.750825908675328,-0.573447769369578,-0.906026536964163,2340155
-0.446289312440536,-0.953100820757883,0.958060580505788,0.641469268851601,0.64252692283527,-0.691386444407363,-0.709513705084922,-0.225283800953768,-0.31438107832433,-0.307363172952825,1.67687534939894,0.322131994345302,0.248757804915037,0.322343404306373,-0.0582820183683821,-0.300882969804291,0.521115330799195,-0.166697862737078,0.425483065905228,2340322
-0.320626953867911,0.547292512454508,-0.0751421133866517,0.412229753901037,0.219250349474872,0.38477710681859,-0.910430148592606,-0.24335320924666,-0.925340710799177,-0.314783822380346,-0.150712784799009,-0.510314920671151,0.771754729611395,-0.875233538362295,-0.0833430104469772,-0.0137014824748819,-1.24389420217318,1.41744515521999,0.609669310172607,2350037
-1.23957667486284,-0.639631621344843,-0.941123454961686,0.30668202893773,0.700172014832895,1.22562581868606,-0.458127561332085,-0.22947624808362,-0.523023893450958,-0.274633126094802,-0.169405177476119,-0.441918634901829,-0.256970958178588,-0.210400832932644,0.897974631130112,-0.24722968964805,-0.707758319693096,-0.200266920182343,-0.0740535412745477,2352038
-0.866130722444108,0.979288889617039,-1.64705866519505,-0.204341557376505,-4.67921697442787,-3.87656887718333,1.41316146977846,0.11598452570495,5.78938332851991,9.73061849076978,-0.488781634410574,-0.492773443571879,-0.442997387965271,0.364313267238474,0.987074914312684,0.32085283723231,0.839258577414103,-0.603270867838758,-2.02480121794176,2359944
0.921753575191422,0.0966623187546752,-1.42450906488847,0.326038808751442,-0.437956174898113,0.596709676528797,0.139996848403454,0.18862096893401,1.17865996146915,3.67583990697551,-0.184515547036457,-0.232590884090902,-0.286340866990536,-0.246911260459392,0.212370803350267,-0.256685507091316,0.635661748718621,-0.56440756936533,0.619580050379367,2381907
-0.315626994903982,-0.187534078982892,-0.25471768179474,0.0333243341019983,-0.587431800841147,-0.352977257522964,-0.397254306377321,-0.15162311959103,0.20928834327855,-0.249254761823218,1.41848218328558,0.417754511447677,-0.134900175923646,0.0437319043581596,0.117836523430162,-1.77708009555546,0.961244861716275,-0.535739917024201,0.742264666835192,2393207
1.2948323093773,-0.254123011948792,-1.03026304915992,0.400597140632927,0.76836110276322,0.508089778814984,-0.396590521525665,-0.206108985963425,-0.358328826190381,-0.287928811281722,0.700811977748619,-0.32393846537514,0.099982209630771,-0.217274483095258,-0.149045260755883,-0.532045657507853,-0.135262402346821,-0.337253518879463,-0.278540551295164,2395415
-0.191962690336822,0.324034634419258,-1.13784423520932,0.949152459804118,-0.88595526892557,0.0277642850255401,-0.433096674627096,-0.201528406807186,0.524320278696481,2.07427573326075,-0.202557633878156,-0.189315718303534,-0.360341189505602,0.08718617503225,0.133843932206099,0.141260454439279,1.24563555639525,-0.631016044594487,-1.50563418582378,2395943
-0.493768673179932,-0.498761093663463,-0.0275926887818165,0.535053874590104,0.0767494571900085,0.802607101807961,-0.454521896933403,-0.187096782767738,-0.240897464255794,-0.178616373519216,-0.193200688584542,-0.286877770808087,-0.175400033782599,0.185535649803696,0.0293199326112742,0.292160191680693,-0.113439291940677,-0.396643807295691,-0.127770586509416,2401405
-0.610571630414412,-1.0709332538312,-0.448697699649767,-0.0841736596633464,-0.201740472115482,1.08074768437137,-0.831001374542013,-0.232575086604938,-0.493933292402159,-0.27786181580727,-0.319265303756745,-0.455369853133769,0.0813822780713654,-0.166191649388129,-0.0891015112074321,0.00844456748402056,-0.564511376234683,-0.258733883892333,1.17415962755022,2405144
-0.472570163251261,-0.043687323184922,-0.980374056468344,-0.403912833105017,0.421697059254182,-0.66701308547295,-0.0106945611470602,-0.110575179363465,-0.200057960640118,-0.30647926404203,0.991458281846074,-0.437587581749703,0.657149543649008,0.298027136508843,0.674177844243873,-0.595077785565072,-0.566206604559707,0.0458175658341181,0.529886078327618,2414406
-0.193633598537647,1.10656246716797,-0.577105535599399,-0.700240391711821,-0.44047859849915,0.632785882538815,-0.858994747385587,-0.24107900412835,-0.80175992768506,-0.309747277364557,-0.313347801777066,-0.0347293398896356,-0.275803571438013,-0.528085116240689,-1.02068847528302,0.250954786256172,-0.480445829957861,-0.240350683044137,1.33265393035735,2419459
0.805861587554845,0.0490230067787362,-0.399849272191008,0.229964084974051,0.0365339481837465,0.98731061151936,-0.930957807414457,-0.242847712207975,-0.906078103618216,-0.315048738997131,-0.233067820292817,-0.576104919740784,0.847723407551462,0.444690734340638,0.775944082830179,0.0902725737563968,-1.18796929200769,0.864669819376103,0.829943777375964,2425694
-0.305473517949968,-0.317337405714035,-0.370379671031561,0.0386717662747959,-0.469945988535451,0.574866493804034,-0.0700785063038528,0.101144912618365,-0.0272093477481637,0.222841520253585,-0.116416799342564,0.0202605454967764,0.580537497656849,-0.302728423799819,0.274409815456127,-0.195935685353511,0.0950541175810257,-0.471338058849638,0.800026204971107,2426863
-0.806290978847373,-0.391502930105295,0.315961139814156,-0.897625967561531,-0.0866122218712052,0.0811253770606317,-0.564280272256814,-0.240772673523312,-0.734254334920155,-0.307368008333024,0.112167244087969,-0.695955231182985,-0.23056343767923,-0.379395862489682,7.26236789109757,-1.07928808906977,-1.06386214922503,0.532312713625066,-0.321641611674835,2430773
0.257916986227222,1.33406672100001,-1.26305844296678,1.05631326397727,-0.230201917036502,1.09123469072205,-0.596663262869082,-0.241583789559211,-0.474765003984633,-0.283342180752891,-0.0188127010631662,-0.733789574013088,-0.39421281966667,0.166301223463669,0.921525578975094,0.00942488333063076,-0.639936289194938,-0.20159760408878,0.0520709340343078,2439458
-0.493013443093954,-1.91002038450637,1.11495110185617,0.0694507854720712,0.983440604926962,0.293395571913003,-0.782401000813016,-0.243096439464321,-0.668450322933815,-0.311700745889593,-0.00820888401972833,-0.469137042457559,-0.240000332049949,-1.09326031417474,-0.201666976392644,-0.274501248417517,-0.428753352205191,-0.239663318948416,0.73062382937009,2443354
-0.0292097166592532,0.136483855434604,1.41871901268129,0.0392364958668555,0.999441622146816,0.288368684299548,-0.238957499466682,-0.201100445093296,-0.139209505295555,-0.243924007720252,0.523283337863363,0.0917504736029986,-0.13750035417054,0.12512869116237,-0.240348215730357,-0.27100752322964,0.441151072047306,-0.492680323564737,0.336894905197746,2445526
0.705607110000562,-0.221639636804929,0.284612652159586,0.399489148907426,0.736699110964349,0.556899034172432,-0.240173251419573,-0.212929876512248,-0.315643620656935,-0.296544492263029,-0.207121714213125,0.578021818128804,-0.351290614907258,1.07768543977748,0.15250360192721,0.182434648507614,0.307843981150796,-0.466154289655441,-0.615318748541565,2448298
-1.07938515100957,-1.80472481596983,-0.727491344190716,-0.148582501204931,0.705723518311659,-0.084183704306099,-0.438335017451141,-0.238575981560546,-0.690427559857725,-0.312197439589344,-0.297855557696812,-0.602209732193718,-0.165401203246756,0.459440683577946,-0.0993991398020189,-0.288695545711,-1.01333285785725,0.300851407683162,0.650156639484101,2453577
-0.673214662020841,-0.505280381616423,-0.111785296059946,0.249365643358281,1.52286954526872,0.702824236728043,-0.548173778748735,-0.2435734568225,-0.502059106603598,-0.304211005966853,0.391191799361513,-0.473137777214557,-0.360309459268771,-0.822930743667394,-0.776217494323602,-0.463972781974663,-0.796722008422339,-0.10749109502096,-0.185512361653207,2474709
1.21330940311375,-0.0968109581590088,-0.275277835505048,-0.717456094992127,0.100621298829765,1.17002461566379,-1.01086420149444,-0.248810184451724,-0.532344665225515,-0.284849576603308,-0.054748704717013,-0.462165533224481,-0.413106881401479,-0.0426044876896673,-0.505318664888079,-0.320563325853925,-0.0309285134263082,-0.451057316421512,-1.13970952859524,2480056
0.577231526598128,-2.60011221054484,-1.39402317554355,0.25305205830789,-0.238062243821031,0.260602326936251,0.0839077347204016,-0.0779803994594282,-0.476520583773069,-0.200546799846398,1.59594102898634,-0.363162365613343,2.00366572785977,0.316768571760893,0.317395097572953,-0.176577036605435,-0.982004535880944,1.03618902547879,-0.369060692948665,2480330
0.339406942868972,-0.481514413708625,1.98390112349212,-0.184375095362486,1.37752901927978,0.522444761000528,0.797738568361582,0.292111419617839,0.0352731464927027,-0.284512081112088,0.0630458160000281,-0.0283967178472541,-0.0568068150157804,0.170931564384668,-0.373004604845606,1.16858061072207,-0.237391687982435,-0.314335727435507,0.136817242575976,2487135
1.25975340006199,0.466057872122139,0.075808892684156,1.0780419916756,1.36811529986528,-0.342191094128594,-0.611450528721407,-0.226763886542323,-0.502723796111538,-0.265913624266598,-0.30511696131442,0.734075581553547,-0.358986554643664,0.786268397252647,-0.10437752385952,0.982981098338626,0.652341635259987,-0.547180286064524,-0.0843087894167921,2488660
1.37162472631182,-1.00490783003102,0.674149106160681,0.502389845865408,0.776440573300608,0.825764007971343,-0.293243491868984,-0.205286974879079,-0.487626107357132,-0.228785075529168,-0.252418330019001,-0.659025746776633,-0.0176081554269621,0.781598907589288,1.87098635019798,0.0079625880896468,-1.13332469749709,0.485934303540446,-0.656149926739316,2490180
-2.05921764316387,-1.5443649474806,0.488717525606017,0.176216353651587,-0.361912488294059,0.713159161179947,-0.414974635482986,-0.220391029177432,-0.249711775429922,-0.196932774066348,-0.0862201655456701,-0.341075616500011,-0.250900612446631,-0.378848556978236,0.159059383573537,-0.0794252983801075,0.331405832191173,-0.540673307378383,-0.79194146588484,2493534
-1.25123197239437,-3.66706392350761,0.526668125508214,0.285063713111901,1.82766763972613,-0.332072201584041,0.201563353427676,-0.239019875652079,-0.62927227313915,-0.313739970206123,0.800600578429349,-0.293607524092441,-0.40749428953923,2.31677541844729,1.9098114015239,-0.430572199291538,-0.754561877922944,-0.104284614202602,-0.524321031014495,2498991
-1.35966155567184,-1.50778876299653,-0.676937094820445,-0.805639922429277,-0.0478798410619354,0.334894231160144,-1.15317536388894,-0.246243856793122,-0.509645402715587,-0.30477673635136,2.35734153757613,-0.129676757992545,-0.222234953627205,0.312347987187261,0.438806083120516,-0.00699305895448612,0.520960458648393,-0.468851566345965,0.871642519347562,2500377
0.381846871349885,1.17621527723018,0.679343846162715,-1.70629301027795,-1.00949797411824,1.40696806821343,0.128565614089217,-0.22934979889715,-0.16698822510927,-0.24257637961678,-0.447731834054236,-0.672694091334885,-0.422665168214642,0.211982622369739,0.653470827112879,0.204190262565789,-0.719797254791803,-0.223178433547153,1.23494507939336,2504802
-3.29998836288584,-1.55040950594314,-1.36445651435254,0.183613107182396,-1.11181860123537,0.551032220136014,0.0925275224517994,-0.153593598892023,-0.559016288445644,-0.303190833068199,-0.0923313086909698,-0.399178683529533,-0.0489315215069239,-0.690841949777596,0.369285102715136,0.0779354443343824,-0.852792257750259,0.046299274545176,0.928398354277658,2510402
-0.328757323158754,-0.849672886781736,-0.775172652522121,-1.23513956955125,0.696162005414473,-0.514423191072784,-0.356820253767543,-0.191986208886824,-0.479588789500837,-0.312320581361492,0.662174649312885,-0.110434991070067,-0.0226220424579654,-0.353052085990478,0.0136028279943291,-1.03615003408911,-0.0587463088019974,-0.283064452811784,0.0173286889895938,2520618
-0.0282510620777345,-0.517338350083794,0.343496901377363,0.257263401410597,1.20081147586941,-0.095733216053576,-0.440129450156154,-0.189971954377792,0.140799147293744,-0.21053911274188,0.147348385866194,0.297101970120106,-0.0932576384371263,-0.583763447172166,-0.47707280818625,-0.00439146249572817,0.539362135851505,-0.496975128023542,-0.181766966327493,2559453
1.6886100985038,1.5381102950631,0.546350801179534,0.555934110520303,-0.507421052140568,0.159184856392942,2.25906548267016,-0.129833976986896,0.57459951930528,-0.242213521780779,-0.132771683832926,0.175853238097933,-0.469522084242036,0.456774014335212,-0.616162571705372,-1.36306356393224,0.456727077642168,-0.545459327998734,-2.23847322345028,277752
0.339699822312071,1.18982869674812,0.696590732573993,-0.748978413892135,-1.56598114276736,-0.210670426072211,2.75687585929337,0.674517479037158,4.1832902763889,5.11132417430013,-0.247032330234109,0.855236279141581,-0.467781213729348,0.121990944824974,-0.0782252568956692,-2.47490599073343,2.3873088412314,-0.710603995774395,3.21425311429602,308862
-1.75689911835342,-1.52028450797122,-4.04314107379476,-1.98571725105978,-0.540813102964653,0.399778516449715,0.204697157735811,-0.125134496932141,-0.0371770065734928,-0.268369402100566,-0.249442870626711,-0.0305794764112402,-0.130768113890701,-0.160745456265527,-0.261931542418302,0.272657748803958,0.315813107395603,-0.51323366657662,0.424280230551803,58325
0.861361670032316,-2.65887032986506,-0.0726866517847126,0.79136294294511,-0.604617989565561,0.435303522822527,-1.06914844662227,-0.243536081926167,-0.783728379123827,-0.308216787302216,-0.154022846347865,-0.570276375504914,0.873970202562155,0.0125117040662864,0.495730407363354,-0.257498528882886,-0.834452178894108,0.261983999999686,0.26285407821085,92173
-0.314006893417326,-0.210098612982391,1.3113104215767,-3.21049990638663,-1.95197742162714,-0.804379881477438,2.23126413188047,1.78579720598257,1.58794151675408,0.120777008715692,-0.219591983321516,0.841563452440826,-0.417658377842354,0.531259363024477,0.117642522269657,1.54742274319375,1.89121781508752,-0.676634095997307,0.770107826808871,923666
-0.663874938532155,0.310692098662394,-0.680661565721869,-0.0186022411176415,-1.4305954283991,0.408909481906696,-1.08628353772906,-0.244548274334408,-0.612679811998214,-0.268451183341338,-0.409488951100455,-0.777079308821676,0.383115890476973,-1.24586777484267,-0.727455794609392,0.0782956822807307,-0.949597406089794,0.316764301376679,0.171523254531423,965005
1.00723802354498,0.952087123001404,0.408617224963984,-1.38245570279093,-1.72863314036218,0.68140685607418,1.06735539089358,-0.213860204881244,-0.341967236174033,-0.288286901869338,-0.231366055497347,-0.287329515676305,-0.430340780721327,-1.33141542115439,1.37047334252881,0.21771864343099,-0.852588612331178,-0.0531975407961018,1.60262383067158,983079
